ubt-ai3/franka-proxy/tools/visual_studio_2017/projects/record.csv
j0,j1,j2,j3,j4,j5,j6
0.775948,0.279491,0.429619,-2.34574,-0.171891,2.60815,0.634538
0.775946,0.279491,0.429622,-2.34574,-0.171893,2.60815,0.634537
0.775948,0.27949,0.42962,-2.34574,-0.171896,2.60815,0.634533
0.775953,0.279491,0.429629,-2.34574,-0.171895,2.60815,0.634535
0.775951,0.279491,0.429624,-2.34574,-0.171892,2.60815,0.63454
0.775951,0.279491,0.429623,-2.34574,-0.171895,2.60815,0.634533
0.775951,0.279486,0.429623,-2.34574,-0.171893,2.60815,0.634543
0.775948,0.27949,0.429623,-2.34574,-0.171895,2.60815,0.634538
0.775951,0.279491,0.429618,-2.34574,-0.171894,2.60815,0.634533
0.775946,0.279494,0.429618,-2.34574,-0.171894,2.60815,0.634538
0.775943,0.279494,0.429623,-2.34574,-0.171895,2.60815,0.634539
0.775951,0.279489,0.42962,-2.34574,-0.171894,2.60815,0.634539
0.775948,0.279494,0.429624,-2.34574,-0.171894,2.60815,0.634542
0.775948,0.279488,0.429625,-2.34574,-0.171897,2.60815,0.634537
0.775946,0.279491,0.429624,-2.34574,-0.171892,2.60815,0.634535
0.775945,0.279491,0.429621,-2.34574,-0.171893,2.60815,0.634538
0.775944,0.279494,0.429621,-2.34574,-0.171895,2.60815,0.634538
0.775953,0.279491,0.429623,-2.34574,-0.171895,2.60815,0.634539
0.775948,0.279488,0.429621,-2.34574,-0.171895,2.60815,0.634535
0.775954,0.279491,0.429625,-2.34574,-0.17189,2.60815,0.634537
0.775948,0.27949,0.429621,-2.34575,-0.171894,2.60815,0.634539
0.775952,0.279494,0.429621,-2.34574,-0.171895,2.60815,0.634536
0.775954,0.279489,0.429631,-2.34574,-0.171896,2.60815,0.634539
0.775949,0.279488,0.429624,-2.34575,-0.171896,2.60815,0.634536
0.775953,0.279493,0.429626,-2.34574,-0.171896,2.60815,0.634534
0.775951,0.279491,0.429621,-2.34574,-0.171895,2.60815,0.634535
0.775951,0.279493,0.429623,-2.34574,-0.171895,2.60815,0.634539
0.775951,0.279499,0.429628,-2.34574,-0.171896,2.60815,0.634542
0.775951,0.27949,0.429629,-2.34574,-0.171894,2.60815,0.634535
0.775951,0.279496,0.429622,-2.34574,-0.171895,2.60815,0.634538
0.775954,0.279493,0.429626,-2.34574,-0.171896,2.60815,0.634534
0.775951,0.279496,0.429621,-2.34574,-0.171896,2.60815,0.634538
0.775948,0.279491,0.429623,-2.34573,-0.171897,2.60815,0.634544
0.775951,0.279491,0.429625,-2.34574,-0.171895,2.60815,0.634536
0.775948,0.279494,0.429626,-2.34574,-0.171894,2.60815,0.634538
0.775954,0.279492,0.429627,-2.34574,-0.171894,2.60815,0.634537
0.775954,0.279494,0.429623,-2.34574,-0.171895,2.60815,0.634534
0.775951,0.27949,0.429615,-2.34574,-0.171894,2.60815,0.634534
0.775951,0.279489,0.429623,-2.34574,-0.171895,2.60815,0.634538
0.775951,0.279485,0.429615,-2.34574,-0.171895,2.60815,0.634536
0.775948,0.279494,0.429621,-2.34574,-0.171895,2.60815,0.634536
0.775943,0.279493,0.429623,-2.34574,-0.171894,2.60815,0.634537
0.775948,0.279493,0.429624,-2.34574,-0.171895,2.60815,0.634538
0.775951,0.279494,0.429623,-2.34574,-0.171895,2.60815,0.634538
0.775951,0.279492,0.429621,-2.34574,-0.171896,2.60815,0.634537
0.775951,0.279493,0.429618,-2.34574,-0.171892,2.60815,0.634537
0.775951,0.279491,0.429623,-2.34574,-0.171896,2.60815,0.634533
0.775946,0.27949,0.429619,-2.34574,-0.171894,2.60815,0.634542
0.775949,0.279493,0.429621,-2.34574,-0.171896,2.60815,0.634537
0.775948,0.279489,0.429618,-2.34574,-0.171894,2.60815,0.63454
0.775946,0.279483,0.429621,-2.34574,-0.171895,2.60815,0.634538
0.775948,0.279488,0.429624,-2.34574,-0.171892,2.60815,0.634542
0.775946,0.279487,0.429626,-2.34574,-0.171891,2.60815,0.634541
0.775951,0.279488,0.429621,-2.34574,-0.171894,2.60815,0.634541
0.775948,0.279486,0.429623,-2.34574,-0.171895,2.60815,0.634538
0.775954,0.279488,0.429621,-2.34574,-0.171895,2.60815,0.634537
0.775948,0.279489,0.429623,-2.34574,-0.171895,2.60815,0.634541
0.775951,0.279488,0.429621,-2.34574,-0.171896,2.60815,0.63454
0.775954,0.279485,0.429626,-2.34574,-0.171895,2.60815,0.634536
0.775951,0.279488,0.429623,-2.34574,-0.171896,2.60815,0.634535
0.775954,0.279488,0.429623,-2.34574,-0.171896,2.60815,0.634539
0.775951,0.27949,0.429626,-2.34574,-0.171895,2.60815,0.634539
0.775951,0.279488,0.429621,-2.34574,-0.171895,2.60815,0.634536
0.775949,0.279491,0.429626,-2.34574,-0.171894,2.60815,0.634537
0.77595,0.279494,0.429623,-2.34575,-0.171895,2.60815,0.634539
0.775951,0.279486,0.429624,-2.34574,-0.171896,2.60815,0.63454
0.775959,0.279487,0.429623,-2.34574,-0.171895,2.60815,0.634536
0.775951,0.279489,0.429625,-2.34574,-0.171895,2.60815,0.634539
0.775959,0.279491,0.429624,-2.34574,-0.171895,2.60815,0.63454
0.775957,0.279485,0.429624,-2.34574,-0.171892,2.60815,0.634533
0.775954,0.279481,0.429628,-2.34574,-0.171895,2.60815,0.634543
0.775954,0.279491,0.429628,-2.34574,-0.171895,2.60815,0.634543
0.775954,0.279485,0.429627,-2.34575,-0.171895,2.60815,0.634535
0.775951,0.27949,0.429625,-2.34574,-0.171897,2.60815,0.634538
0.775956,0.279493,0.429624,-2.34574,-0.171892,2.60815,0.634538
0.775954,0.279493,0.429626,-2.34574,-0.171895,2.60815,0.634537
0.775951,0.279494,0.429626,-2.34575,-0.171894,2.60815,0.634539
0.775956,0.279499,0.429628,-2.34574,-0.171896,2.60815,0.634539
0.775951,0.279494,0.429624,-2.34575,-0.171895,2.60815,0.634536
0.775954,0.279499,0.429625,-2.34574,-0.171896,2.60815,0.634538
0.775951,0.279499,0.429624,-2.34574,-0.171896,2.60815,0.634536
0.775948,0.279496,0.429626,-2.34574,-0.171896,2.60815,0.634541
0.775954,0.279501,0.429623,-2.34575,-0.171894,2.60815,0.634541
0.775954,0.279501,0.429618,-2.34574,-0.171896,2.60815,0.634539
0.775951,0.279499,0.429623,-2.34574,-0.171895,2.60815,0.634534
0.775951,0.279501,0.429626,-2.34575,-0.171895,2.60815,0.634538
0.775951,0.279504,0.429624,-2.34574,-0.171896,2.60815,0.634542
0.775954,0.279504,0.429628,-2.34574,-0.171896,2.60815,0.634535
0.775954,0.279502,0.429619,-2.34574,-0.171896,2.60815,0.634534
0.775951,0.279504,0.429621,-2.34575,-0.171894,2.60815,0.634542
0.775948,0.279507,0.429623,-2.34574,-0.171895,2.60815,0.634537
0.775944,0.279507,0.429621,-2.34574,-0.171891,2.60815,0.634537
0.775948,0.279502,0.429623,-2.34574,-0.171894,2.60815,0.634539
0.775946,0.279501,0.429621,-2.34574,-0.171895,2.60815,0.63454
0.775948,0.279506,0.429623,-2.34574,-0.171894,2.60815,0.634537
0.775946,0.279507,0.42962,-2.34574,-0.171893,2.60815,0.634538
0.775948,0.279501,0.429623,-2.34574,-0.171894,2.60815,0.634538
0.775943,0.279504,0.429616,-2.34574,-0.171894,2.60815,0.634538
0.775943,0.279501,0.429621,-2.34574,-0.17189,2.60815,0.634535
0.775946,0.279504,0.429616,-2.34574,-0.171892,2.60815,0.634539
0.775938,0.279499,0.429618,-2.34574,-0.17189,2.60815,0.634541
0.775943,0.279496,0.429618,-2.34574,-0.171892,2.60815,0.634539
0.77594,0.279496,0.429621,-2.34574,-0.171895,2.60815,0.634537
0.775943,0.279501,0.429618,-2.34574,-0.171893,2.60815,0.634541
0.775946,0.279494,0.42962,-2.34573,-0.171894,2.60815,0.634538
0.775938,0.279499,0.429621,-2.34574,-0.171894,2.60815,0.634534
0.77594,0.279494,0.429621,-2.34574,-0.171894,2.60815,0.634535
0.775943,0.279496,0.429623,-2.34573,-0.171894,2.60815,0.63454
0.775943,0.279494,0.42962,-2.34574,-0.171892,2.60815,0.634535
0.77594,0.279496,0.429616,-2.34574,-0.171894,2.60815,0.634539
0.775946,0.279496,0.429616,-2.34574,-0.171894,2.60815,0.63454
0.775942,0.279496,0.429621,-2.34574,-0.171893,2.60815,0.634536
0.77594,0.279496,0.429623,-2.34574,-0.171893,2.60815,0.634536
0.775943,0.279496,0.429619,-2.34574,-0.171894,2.60815,0.634535
0.775937,0.279496,0.429618,-2.34574,-0.171893,2.60815,0.634539
0.77594,0.279488,0.429618,-2.34574,-0.171893,2.60815,0.634535
0.77594,0.279496,0.429618,-2.34574,-0.171894,2.60815,0.634537
0.775943,0.279494,0.429615,-2.34574,-0.171896,2.60815,0.634538
0.775944,0.279493,0.429623,-2.34574,-0.171894,2.60815,0.634536
0.775943,0.279491,0.429621,-2.34574,-0.171894,2.60815,0.634537
0.775941,0.279491,0.429618,-2.34574,-0.171894,2.60815,0.634534
0.775943,0.279499,0.429623,-2.34574,-0.171896,2.60815,0.634539
0.775937,0.279494,0.429616,-2.34574,-0.171896,2.60815,0.634539
0.775943,0.279491,0.429615,-2.34574,-0.171895,2.60815,0.634537
0.775945,0.279494,0.429618,-2.34575,-0.171894,2.60815,0.634539
0.775945,0.279496,0.429615,-2.34575,-0.171896,2.60815,0.63454
0.775943,0.279494,0.429623,-2.34574,-0.171895,2.60815,0.634538
0.775947,0.279499,0.429618,-2.34575,-0.171894,2.60815,0.634541
0.775943,0.279499,0.429621,-2.34574,-0.171895,2.60815,0.634538
0.775946,0.279497,0.429618,-2.34574,-0.171896,2.60815,0.634535
0.775951,0.279501,0.429624,-2.34574,-0.171894,2.60815,0.634538
0.775946,0.279499,0.429615,-2.34574,-0.171896,2.60815,0.634537
0.775946,0.279501,0.429618,-2.34574,-0.171892,2.60815,0.634538
0.77595,0.279499,0.429621,-2.34574,-0.171895,2.60815,0.634534
0.775951,0.279496,0.429621,-2.34574,-0.171896,2.60815,0.63454
0.775948,0.279499,0.429623,-2.34575,-0.171896,2.60815,0.634536
0.775946,0.279499,0.42962,-2.34575,-0.171895,2.60815,0.634538
0.775951,0.279504,0.429616,-2.34574,-0.171896,2.60815,0.634533
0.775946,0.279496,0.429621,-2.34574,-0.171896,2.60815,0.634539
0.775948,0.279496,0.429618,-2.34573,-0.171895,2.60815,0.634538
0.775946,0.279496,0.429623,-2.34574,-0.171895,2.60815,0.634536
0.775945,0.279496,0.429619,-2.34574,-0.171899,2.60815,0.634541
0.775951,0.279494,0.429621,-2.34574,-0.171896,2.60815,0.63454
0.775951,0.279494,0.429621,-2.34574,-0.171895,2.60815,0.634539
0.775946,0.27949,0.429618,-2.34574,-0.171895,2.60815,0.634544
0.775948,0.279501,0.429621,-2.34574,-0.171895,2.60815,0.634539
0.775948,0.279494,0.429623,-2.34574,-0.171895,2.60815,0.634535
0.775946,0.279493,0.429624,-2.34575,-0.171894,2.60815,0.634541
0.775943,0.279496,0.429621,-2.34575,-0.171895,2.60815,0.634535
0.775938,0.279499,0.429614,-2.34575,-0.171894,2.60815,0.634541
0.775945,0.279489,0.429618,-2.34575,-0.171896,2.60815,0.634539
0.775951,0.279493,0.429621,-2.34575,-0.171896,2.60815,0.634537
0.775943,0.279491,0.429621,-2.34574,-0.171896,2.60815,0.634539
0.775948,0.279493,0.429621,-2.34575,-0.171896,2.60815,0.634538
0.775951,0.279493,0.429621,-2.34575,-0.171896,2.60815,0.634538
0.775944,0.279489,0.42962,-2.34575,-0.171896,2.60815,0.634538
0.775946,0.279493,0.429619,-2.34575,-0.171896,2.60815,0.634537
0.775943,0.279494,0.42962,-2.34575,-0.1719,2.60815,0.63454
0.775951,0.279496,0.429621,-2.34575,-0.171896,2.60815,0.63454
0.775948,0.279491,0.429623,-2.34574,-0.171897,2.60815,0.634538
0.775941,0.279489,0.429616,-2.34575,-0.171893,2.60815,0.63454
0.775948,0.279493,0.429617,-2.34574,-0.171895,2.60815,0.634542
0.775946,0.279491,0.42962,-2.34575,-0.171894,2.60815,0.634538
0.775948,0.279488,0.429619,-2.34575,-0.171896,2.60815,0.634541
0.77594,0.279485,0.429623,-2.34574,-0.171896,2.60815,0.634538
0.775946,0.279488,0.429621,-2.34575,-0.171895,2.60815,0.634541
0.775943,0.279491,0.42962,-2.34575,-0.171892,2.60815,0.634541
0.775948,0.279488,0.429627,-2.34574,-0.171894,2.60815,0.634541
0.775948,0.279492,0.429618,-2.34574,-0.171895,2.60815,0.63454
0.775943,0.279486,0.429616,-2.34574,-0.171892,2.60815,0.634537
0.775943,0.279488,0.429615,-2.34574,-0.171894,2.60815,0.634537
0.775948,0.279487,0.429618,-2.34574,-0.171894,2.60815,0.634538
0.775948,0.279491,0.429625,-2.34574,-0.171895,2.60815,0.634539
0.775951,0.279493,0.429621,-2.34574,-0.171896,2.60815,0.634539
0.775954,0.279496,0.429615,-2.34574,-0.171896,2.60815,0.634541
0.775954,0.279494,0.429624,-2.34574,-0.171895,2.60815,0.634538
0.775954,0.279494,0.429623,-2.34574,-0.171895,2.60815,0.634537
0.775954,0.279496,0.429618,-2.34574,-0.171896,2.60815,0.634541
0.775951,0.279491,0.429624,-2.34574,-0.171895,2.60815,0.634539
0.775956,0.279489,0.429623,-2.34574,-0.171897,2.60815,0.634537
0.775954,0.279493,0.429621,-2.34575,-0.171897,2.60815,0.634544
0.775951,0.279493,0.429628,-2.34575,-0.171895,2.60815,0.63454
0.775956,0.279494,0.429624,-2.34574,-0.171896,2.60815,0.634537
0.775948,0.279494,0.429626,-2.34574,-0.171896,2.60815,0.634541
0.775954,0.279499,0.429622,-2.34574,-0.171896,2.60815,0.634537
0.775954,0.279491,0.429623,-2.34574,-0.171896,2.60815,0.634536
0.775956,0.279494,0.42963,-2.34575,-0.171894,2.60815,0.634538
0.775954,0.279498,0.429626,-2.34574,-0.171897,2.60815,0.634541
0.775951,0.279491,0.429628,-2.34575,-0.171897,2.60815,0.634539
0.775951,0.279499,0.429623,-2.34575,-0.171896,2.60815,0.634538
0.775954,0.279499,0.429623,-2.34575,-0.171897,2.60815,0.634534
0.775954,0.279496,0.429625,-2.34575,-0.171897,2.60815,0.634539
0.775954,0.279502,0.429624,-2.34575,-0.171894,2.60815,0.634538
0.775951,0.279501,0.429629,-2.34575,-0.171895,2.60815,0.634537
0.775956,0.279499,0.429623,-2.34574,-0.171893,2.60815,0.634534
0.775954,0.279497,0.429628,-2.34574,-0.171895,2.60815,0.634543
0.775954,0.279496,0.429624,-2.34574,-0.171897,2.60815,0.63454
0.775951,0.279496,0.429621,-2.34575,-0.171896,2.60815,0.634535
0.775954,0.279499,0.429621,-2.34574,-0.171893,2.60815,0.634536
0.775951,0.279492,0.429628,-2.34574,-0.171891,2.60815,0.634539
0.775954,0.279501,0.429621,-2.34574,-0.171896,2.60815,0.634536
0.775948,0.279494,0.429626,-2.34575,-0.171895,2.60815,0.634535
0.775948,0.279496,0.429618,-2.34574,-0.171896,2.60815,0.634543
0.775948,0.279499,0.429623,-2.34574,-0.171896,2.60815,0.634539
0.775948,0.279497,0.429623,-2.34574,-0.171897,2.60815,0.634538
0.775946,0.279497,0.429623,-2.34574,-0.171896,2.60815,0.634539
0.775946,0.279496,0.429621,-2.34574,-0.171896,2.60815,0.634539
0.775943,0.279491,0.429621,-2.34574,-0.171896,2.60815,0.634541
0.775948,0.279499,0.429621,-2.34574,-0.171895,2.60815,0.634539
0.775948,0.279496,0.429623,-2.34574,-0.171895,2.60815,0.634534
0.77594,0.279496,0.429621,-2.34574,-0.171894,2.60815,0.634537
0.77594,0.279496,0.429618,-2.34574,-0.171893,2.60814,0.634539
0.775943,0.279496,0.429617,-2.34574,-0.171894,2.60815,0.634537
0.775941,0.279496,0.429619,-2.34574,-0.171894,2.60815,0.634536
0.775943,0.279496,0.42962,-2.34574,-0.171895,2.60815,0.634539
0.775943,0.279496,0.429626,-2.34574,-0.171894,2.60815,0.634541
0.77594,0.279496,0.429616,-2.34574,-0.171894,2.60815,0.634534
0.775938,0.279494,0.429618,-2.34574,-0.171894,2.60815,0.634538
0.77594,0.279496,0.429621,-2.34574,-0.171894,2.60815,0.634539
0.775938,0.279496,0.429616,-2.34574,-0.171894,2.60815,0.634537
0.775943,0.279497,0.429618,-2.34574,-0.17189,2.60815,0.634537
0.775938,0.279496,0.429615,-2.34574,-0.171893,2.60815,0.634537
0.775937,0.279493,0.429618,-2.34574,-0.171894,2.60815,0.634539
0.77594,0.279494,0.429621,-2.34574,-0.171891,2.60815,0.634541
0.775943,0.279493,0.429618,-2.34574,-0.171893,2.60815,0.634543
0.775943,0.279495,0.429618,-2.34574,-0.171895,2.60814,0.63454
0.77594,0.279498,0.429619,-2.34574,-0.171893,2.60815,0.63454
0.775941,0.279493,0.429618,-2.34574,-0.171894,2.60815,0.634538
0.77594,0.279494,0.429618,-2.34574,-0.171894,2.60815,0.63454
0.775943,0.279491,0.429615,-2.34574,-0.171894,2.60815,0.634539
0.775946,0.279493,0.429615,-2.34574,-0.171894,2.60815,0.634542
0.775938,0.279491,0.429617,-2.34574,-0.171895,2.60815,0.634543
0.775938,0.279496,0.429616,-2.34574,-0.171896,2.60815,0.634537
0.77594,0.27949,0.429615,-2.34574,-0.171894,2.60815,0.63454
0.775946,0.279496,0.429618,-2.34574,-0.171896,2.60815,0.634539
0.775938,0.279499,0.429621,-2.34574,-0.171894,2.60815,0.634534
0.77594,0.279496,0.429621,-2.34574,-0.171895,2.60815,0.63454
0.77594,0.279494,0.429618,-2.34574,-0.171894,2.60815,0.634544
0.775942,0.279496,0.429618,-2.34574,-0.171894,2.60815,0.634535
0.775948,0.279491,0.429623,-2.34574,-0.171895,2.60815,0.63454
0.775943,0.279491,0.429616,-2.34574,-0.171895,2.60815,0.634543
0.775946,0.279492,0.429615,-2.34574,-0.171896,2.60815,0.634538
0.775943,0.279493,0.429621,-2.34574,-0.171898,2.60815,0.634537
0.775945,0.279491,0.429623,-2.34575,-0.171897,2.60815,0.634543
0.775945,0.279496,0.429619,-2.34574,-0.171895,2.60815,0.634537
0.775938,0.279491,0.429618,-2.34574,-0.171895,2.60815,0.634539
0.775945,0.27949,0.42962,-2.34574,-0.171896,2.60815,0.63454
0.775944,0.279491,0.429623,-2.34574,-0.171892,2.60815,0.634535
0.775946,0.279491,0.429623,-2.34574,-0.171893,2.60815,0.634541
0.775945,0.279493,0.429625,-2.34574,-0.171894,2.60815,0.634535
0.775946,0.279491,0.429621,-2.34574,-0.171894,2.60815,0.634537
0.775949,0.279493,0.429618,-2.34574,-0.171895,2.60815,0.634542
0.775946,0.279491,0.42962,-2.34574,-0.171892,2.60815,0.634535
0.775948,0.279494,0.429621,-2.34574,-0.171894,2.60815,0.634536
0.775948,0.279493,0.429619,-2.34574,-0.171894,2.60815,0.634539
0.775946,0.279491,0.429621,-2.34574,-0.171896,2.60815,0.634539
0.77595,0.279493,0.429621,-2.34574,-0.171896,2.60815,0.63454
0.775949,0.279493,0.429621,-2.34575,-0.171899,2.60815,0.634535
0.77595,0.279494,0.429621,-2.34574,-0.171895,2.60815,0.634535
0.775943,0.279496,0.429623,-2.34574,-0.171896,2.60815,0.634537
0.775946,0.279494,0.429619,-2.34574,-0.171895,2.60815,0.634534
0.77595,0.279498,0.429618,-2.34574,-0.171895,2.60815,0.634537
0.775951,0.279496,0.429621,-2.34574,-0.171894,2.60815,0.63454
0.775951,0.279494,0.429621,-2.34574,-0.171895,2.60815,0.634537
0.775954,0.279494,0.42962,-2.34575,-0.171896,2.60815,0.634536
0.775946,0.279496,0.429618,-2.34574,-0.171895,2.60815,0.634538
0.775943,0.279496,0.429615,-2.34575,-0.171895,2.60815,0.634539
0.775951,0.279489,0.429623,-2.34575,-0.171895,2.60815,0.634542
0.775946,0.279493,0.429618,-2.34575,-0.171894,2.60815,0.634538
0.775951,0.279497,0.429623,-2.34574,-0.171896,2.60815,0.634538
0.775948,0.279496,0.429626,-2.34575,-0.171896,2.60815,0.634542
0.775946,0.279493,0.429621,-2.34575,-0.171895,2.60815,0.63454
0.775951,0.279496,0.429616,-2.34575,-0.171896,2.60815,0.634538
0.775948,0.279496,0.429621,-2.34575,-0.171895,2.60815,0.634537
0.775946,0.279494,0.429615,-2.34574,-0.171894,2.60815,0.634539
0.775946,0.279494,0.429621,-2.34574,-0.171894,2.60815,0.634538
0.775948,0.279488,0.429615,-2.34575,-0.171891,2.60815,0.634536
0.775954,0.279496,0.429621,-2.34575,-0.171894,2.60815,0.634534
0.775951,0.279491,0.429623,-2.34574,-0.171895,2.60815,0.63454
0.775948,0.279496,0.429618,-2.34575,-0.171895,2.60815,0.634542
0.775951,0.279491,0.429617,-2.34575,-0.171896,2.60815,0.63454
0.775948,0.279488,0.429618,-2.34575,-0.171896,2.60815,0.634536
0.775948,0.279488,0.429623,-2.34575,-0.171896,2.60815,0.634538
0.775951,0.27949,0.429623,-2.34575,-0.171895,2.60815,0.63454
0.775948,0.279495,0.429623,-2.34575,-0.171895,2.60815,0.634538
0.775946,0.279499,0.429621,-2.34575,-0.171896,2.60815,0.634538
0.775948,0.279494,0.429623,-2.34574,-0.171896,2.60815,0.634541
0.775948,0.279491,0.429621,-2.34574,-0.171894,2.60815,0.634539
0.775954,0.279494,0.42962,-2.34575,-0.171896,2.60815,0.634542
0.775948,0.27949,0.429621,-2.34574,-0.171896,2.60815,0.634538
0.775948,0.279489,0.429623,-2.34575,-0.171893,2.60815,0.634539
0.775948,0.279493,0.429621,-2.34574,-0.171896,2.60815,0.634539
0.775944,0.279491,0.429624,-2.34574,-0.171896,2.60815,0.634533
0.775953,0.279496,0.429623,-2.34574,-0.171894,2.60815,0.634536
0.775946,0.279494,0.429621,-2.34575,-0.171896,2.60815,0.634541
0.775951,0.279494,0.429619,-2.34574,-0.171896,2.60815,0.634539
0.775948,0.279494,0.429621,-2.34575,-0.171896,2.60815,0.634543
0.775948,0.279491,0.429618,-2.34575,-0.171895,2.60815,0.634543
0.775946,0.279494,0.429621,-2.34574,-0.171896,2.60815,0.634537
0.775946,0.279496,0.429621,-2.34574,-0.1719,2.60815,0.634538
0.775948,0.279496,0.429621,-2.34574,-0.171897,2.60815,0.634536
0.775948,0.279496,0.429623,-2.34575,-0.171897,2.60815,0.634536
0.775954,0.279494,0.429624,-2.34575,-0.171896,2.60815,0.634539
0.775951,0.279493,0.429621,-2.34575,-0.171896,2.60815,0.634543
0.775948,0.279491,0.429623,-2.34574,-0.171896,2.60815,0.634539
0.775951,0.279496,0.429624,-2.34574,-0.171896,2.60815,0.634537
0.775948,0.279494,0.429623,-2.34575,-0.171894,2.60815,0.634538
0.775954,0.279496,0.429618,-2.34574,-0.171896,2.60815,0.63454
0.775951,0.279491,0.429621,-2.34574,-0.171895,2.60815,0.634534
0.775946,0.279499,0.429623,-2.34575,-0.171895,2.60815,0.63454
0.775951,0.279494,0.429621,-2.34575,-0.171896,2.60815,0.634534
0.775946,0.279494,0.429623,-2.34574,-0.171896,2.60815,0.63454
0.775948,0.279496,0.429623,-2.34574,-0.171896,2.60815,0.634539
0.775951,0.279494,0.429618,-2.34574,-0.171896,2.60815,0.63454
0.775946,0.279494,0.429624,-2.34575,-0.171896,2.60815,0.634541
0.775948,0.279491,0.42962,-2.34574,-0.171895,2.60815,0.634538
0.775951,0.279494,0.429621,-2.34575,-0.171896,2.60815,0.634542
0.775946,0.279499,0.429619,-2.34574,-0.171899,2.60815,0.634541
0.775948,0.279496,0.429618,-2.34575,-0.171897,2.60815,0.63454
0.775945,0.279492,0.429621,-2.34574,-0.171896,2.60815,0.634537
0.775946,0.279496,0.429623,-2.34574,-0.171895,2.60815,0.634541
0.775945,0.279496,0.429624,-2.34574,-0.171895,2.60815,0.634541
0.775943,0.279498,0.429621,-2.34574,-0.171897,2.60815,0.634541
0.775943,0.279501,0.42962,-2.34574,-0.171896,2.60815,0.634534
0.775943,0.279496,0.429623,-2.34574,-0.171895,2.60815,0.634535
0.775946,0.279499,0.429619,-2.34574,-0.171898,2.60815,0.634535
0.775943,0.279496,0.429619,-2.34574,-0.171895,2.60815,0.63454
0.775946,0.279494,0.429615,-2.34574,-0.171895,2.60815,0.634534
0.775941,0.279498,0.429616,-2.34574,-0.171895,2.60815,0.634536
0.77594,0.279499,0.429618,-2.34574,-0.171891,2.60815,0.634541
0.775942,0.279499,0.42962,-2.34574,-0.171894,2.60815,0.634544
0.77594,0.279499,0.429618,-2.34574,-0.171895,2.60815,0.634535
0.775936,0.279499,0.429616,-2.34574,-0.171893,2.60815,0.634536
0.775938,0.279497,0.429616,-2.34574,-0.171894,2.60815,0.634539
0.775937,0.279498,0.429623,-2.34574,-0.171896,2.60815,0.63454
0.775935,0.279499,0.429619,-2.34574,-0.171895,2.60815,0.634533
0.775938,0.279501,0.429618,-2.34574,-0.171895,2.60815,0.63454
0.775945,0.279501,0.429617,-2.34574,-0.171894,2.60815,0.634538
0.775938,0.279501,0.429618,-2.34574,-0.171894,2.60815,0.634538
0.77594,0.279497,0.429618,-2.34574,-0.171894,2.60815,0.634534
0.775943,0.279498,0.429618,-2.34574,-0.171893,2.60814,0.634534
0.775941,0.279501,0.429615,-2.34574,-0.171894,2.60815,0.634539
0.775943,0.279497,0.429615,-2.34574,-0.171895,2.60815,0.634534
0.77594,0.279494,0.429615,-2.34574,-0.171894,2.60815,0.634539
0.775942,0.279501,0.429618,-2.34574,-0.171895,2.60815,0.634537
0.77594,0.279496,0.429621,-2.34574,-0.171896,2.60815,0.634538
0.775943,0.279499,0.429621,-2.34573,-0.171894,2.60815,0.634539
0.775941,0.279499,0.429616,-2.34574,-0.171895,2.60815,0.634534
0.775943,0.279496,0.429621,-2.34574,-0.171896,2.60815,0.634537
0.775946,0.279499,0.429623,-2.34574,-0.171895,2.60815,0.63454
0.775948,0.279494,0.429613,-2.34574,-0.171896,2.60815,0.634536
0.775941,0.279494,0.429623,-2.34574,-0.171892,2.60815,0.634543
0.77595,0.279499,0.429621,-2.34575,-0.171893,2.60815,0.634541
0.775948,0.279496,0.429621,-2.34574,-0.171895,2.60815,0.634538
0.775946,0.279494,0.429621,-2.34574,-0.171895,2.60815,0.634539
0.775948,0.279491,0.429621,-2.34574,-0.171896,2.60815,0.634542
0.775948,0.279494,0.429618,-2.34574,-0.171897,2.60815,0.63454
0.775946,0.279496,0.42962,-2.34574,-0.171896,2.60815,0.634537
0.775948,0.279493,0.429619,-2.34574,-0.171896,2.60815,0.634541
0.775949,0.279493,0.42962,-2.34574,-0.171895,2.60815,0.634536
0.77595,0.279494,0.429619,-2.34574,-0.171896,2.60815,0.634537
0.775951,0.279494,0.429618,-2.34574,-0.171895,2.60815,0.63454
0.775953,0.279493,0.429623,-2.34574,-0.171896,2.60815,0.634542
0.775946,0.279496,0.429623,-2.34574,-0.171895,2.60815,0.634537
0.775945,0.279494,0.429619,-2.34575,-0.171896,2.60815,0.634542
0.77595,0.279486,0.429621,-2.34574,-0.171896,2.60815,0.634538
0.775948,0.27949,0.429623,-2.34574,-0.171896,2.60815,0.634537
0.775948,0.279491,0.429621,-2.34574,-0.171899,2.60815,0.634539
0.775948,0.279494,0.429618,-2.34574,-0.171896,2.60815,0.634542
0.775948,0.279484,0.429621,-2.34574,-0.171896,2.60815,0.634543
0.775946,0.279487,0.429615,-2.34574,-0.171896,2.60815,0.634538
0.77595,0.279491,0.429617,-2.34574,-0.171895,2.60815,0.634542
0.775951,0.279494,0.429619,-2.34575,-0.171896,2.60815,0.634539
0.775948,0.279488,0.429621,-2.34575,-0.171896,2.60815,0.634536
0.775951,0.27949,0.42962,-2.34575,-0.171895,2.60815,0.63454
0.775944,0.279491,0.429621,-2.34574,-0.171894,2.60815,0.63454
0.775948,0.279488,0.429623,-2.34575,-0.171896,2.60815,0.634534
0.775951,0.279489,0.429623,-2.34575,-0.171895,2.60815,0.63454
0.775948,0.279491,0.429621,-2.34574,-0.171896,2.60815,0.634535
0.775954,0.279495,0.429625,-2.34574,-0.171896,2.60815,0.634537
0.775946,0.279493,0.429618,-2.34574,-0.171894,2.60815,0.634538
0.775946,0.279491,0.429623,-2.34574,-0.171895,2.60815,0.63454
0.775946,0.279496,0.429624,-2.34574,-0.171895,2.60815,0.634543
0.775948,0.279493,0.429623,-2.34574,-0.171894,2.60815,0.634537
0.775943,0.279491,0.429621,-2.34575,-0.171895,2.60815,0.634539
0.775948,0.279493,0.429619,-2.34574,-0.171896,2.60815,0.634543
0.77595,0.279494,0.429621,-2.34574,-0.171895,2.60815,0.634535
0.775949,0.279494,0.429621,-2.34575,-0.171894,2.60815,0.63454
0.77594,0.279493,0.429621,-2.34575,-0.171893,2.60815,0.634535
0.775947,0.279491,0.429621,-2.34574,-0.171895,2.60815,0.634536
0.775945,0.279491,0.429623,-2.34574,-0.171895,2.60815,0.63454
0.775948,0.279493,0.429621,-2.34574,-0.171897,2.60815,0.63454
0.775946,0.279494,0.429617,-2.34574,-0.171896,2.60815,0.634537
0.775948,0.279491,0.429624,-2.34574,-0.171894,2.60815,0.634535
0.775948,0.279491,0.429618,-2.34575,-0.171892,2.60815,0.634541
0.775948,0.279493,0.429619,-2.34574,-0.171893,2.60815,0.63454
0.775943,0.279494,0.42962,-2.34575,-0.171894,2.60815,0.634538
0.775948,0.279491,0.429624,-2.34575,-0.171898,2.60815,0.634542
0.775951,0.279496,0.429618,-2.34574,-0.171897,2.60815,0.634543
0.775943,0.279494,0.429618,-2.34575,-0.171896,2.60815,0.634541
0.775944,0.279494,0.429621,-2.34574,-0.171895,2.60815,0.634535
0.775942,0.279491,0.429618,-2.34574,-0.171896,2.60815,0.63454
0.775951,0.279491,0.429621,-2.34575,-0.171894,2.60815,0.634537
0.775948,0.279495,0.429623,-2.34575,-0.171896,2.60815,0.634538
0.775951,0.279493,0.429624,-2.34575,-0.171896,2.60815,0.634538
0.775948,0.279499,0.429618,-2.34575,-0.171892,2.60815,0.634535
0.775948,0.279491,0.429618,-2.34575,-0.171896,2.60815,0.634536
0.775951,0.279494,0.429623,-2.34575,-0.171895,2.60815,0.634538
0.775948,0.279494,0.429621,-2.34574,-0.171895,2.60815,0.634538
0.775948,0.279494,0.429621,-2.34574,-0.171896,2.60815,0.634541
0.775954,0.279492,0.429618,-2.34574,-0.171896,2.60815,0.634535
0.775948,0.279496,0.429621,-2.34574,-0.171894,2.60815,0.634538
0.775948,0.279496,0.429625,-2.34574,-0.171895,2.60815,0.63454
0.775951,0.279494,0.429619,-2.34574,-0.171895,2.60815,0.634542
0.775951,0.279496,0.429618,-2.34574,-0.171892,2.60815,0.63454
0.775948,0.279498,0.429624,-2.34574,-0.171895,2.60815,0.634539
0.775946,0.279494,0.429623,-2.34574,-0.171894,2.60815,0.634539
0.775948,0.279499,0.42962,-2.34575,-0.171896,2.60815,0.634537
0.775951,0.279492,0.429619,-2.34574,-0.171896,2.60815,0.634541
0.775943,0.279494,0.429618,-2.34574,-0.171894,2.60815,0.63454
0.775951,0.279488,0.429621,-2.34574,-0.171897,2.60815,0.634539
0.775951,0.279493,0.42962,-2.34574,-0.171896,2.60815,0.634543
0.775951,0.279494,0.429619,-2.34574,-0.171898,2.60815,0.634541
0.775951,0.279499,0.429615,-2.34574,-0.171897,2.60815,0.634538
0.775944,0.279496,0.429621,-2.34574,-0.171895,2.60815,0.634539
0.775947,0.279497,0.429621,-2.34574,-0.171896,2.60815,0.634535
0.775945,0.279493,0.429623,-2.34574,-0.171897,2.60815,0.634538
0.775948,0.279499,0.42962,-2.34574,-0.171898,2.60815,0.634535
0.775951,0.279494,0.429621,-2.34574,-0.171898,2.60815,0.634533
0.775954,0.279498,0.429624,-2.34573,-0.171898,2.60815,0.63454
0.775956,0.279496,0.429626,-2.34574,-0.171899,2.60815,0.634534
0.775954,0.279497,0.429629,-2.34574,-0.171898,2.60815,0.63454
0.775956,0.279498,0.429628,-2.34574,-0.171897,2.60815,0.634544
0.775956,0.279497,0.429634,-2.34574,-0.171897,2.60815,0.634537
0.775959,0.279501,0.429633,-2.34574,-0.171898,2.60815,0.634542
0.775959,0.279493,0.429631,-2.34574,-0.171899,2.60815,0.634536
0.775959,0.279494,0.429634,-2.34573,-0.1719,2.60815,0.634538
0.775964,0.279492,0.429637,-2.34573,-0.171901,2.60815,0.634542
0.775956,0.279501,0.429642,-2.34574,-0.1719,2.60815,0.634536
0.775956,0.279496,0.429631,-2.34574,-0.171901,2.60815,0.634535
0.775961,0.279494,0.429637,-2.34574,-0.171903,2.60815,0.634538
0.775964,0.279499,0.429632,-2.34574,-0.171903,2.60815,0.634539
0.775969,0.279501,0.429639,-2.34574,-0.171903,2.60815,0.634534
0.775959,0.279501,0.429637,-2.34574,-0.171903,2.60815,0.634538
0.775964,0.279494,0.429639,-2.34574,-0.171903,2.60815,0.634542
0.775959,0.279498,0.429637,-2.34574,-0.171903,2.60815,0.634537
0.775964,0.279501,0.429639,-2.34574,-0.171903,2.60815,0.634538
0.775969,0.279499,0.429642,-2.34574,-0.171902,2.60815,0.634542
0.775972,0.279496,0.429642,-2.34574,-0.171904,2.60815,0.634535
0.775977,0.279501,0.429647,-2.34574,-0.171902,2.60815,0.63454
0.775972,0.279496,0.429645,-2.34574,-0.171907,2.60815,0.634538
0.775975,0.279496,0.429643,-2.34574,-0.171905,2.60815,0.634536
0.77597,0.279498,0.429643,-2.34574,-0.171904,2.60815,0.634533
0.775965,0.279496,0.429642,-2.34574,-0.171909,2.60815,0.634539
0.775974,0.279496,0.429642,-2.34574,-0.171909,2.60815,0.634534
0.775972,0.279496,0.429645,-2.34573,-0.171909,2.60815,0.634532
0.775975,0.279494,0.429642,-2.34574,-0.171906,2.60815,0.634537
0.775973,0.279494,0.429651,-2.34574,-0.171905,2.60815,0.634543
0.775971,0.279488,0.429651,-2.34574,-0.171904,2.60815,0.634535
0.775972,0.279491,0.429648,-2.34573,-0.171905,2.60815,0.634537
0.775975,0.279491,0.429648,-2.34573,-0.171905,2.60815,0.634538
0.775978,0.279494,0.429653,-2.34574,-0.171905,2.60815,0.634541
0.775975,0.279494,0.429654,-2.34574,-0.171904,2.60815,0.634539
0.775975,0.279489,0.429654,-2.34573,-0.171908,2.60815,0.634538
0.77597,0.279488,0.429652,-2.34574,-0.171904,2.60815,0.634542
0.775975,0.279485,0.42965,-2.34574,-0.171908,2.60815,0.634536
0.775978,0.279487,0.429653,-2.34574,-0.171904,2.60815,0.634541
0.775977,0.279491,0.429651,-2.34574,-0.171906,2.60815,0.634538
0.775976,0.279491,0.429657,-2.34574,-0.171903,2.60815,0.63454
0.775979,0.279486,0.429655,-2.34574,-0.171904,2.60815,0.634536
0.775975,0.279486,0.429655,-2.34574,-0.171904,2.60815,0.634534
0.775973,0.279491,0.429657,-2.34574,-0.171903,2.60815,0.63454
0.775973,0.279486,0.429656,-2.34573,-0.171903,2.60815,0.634544
0.77597,0.279491,0.429657,-2.34574,-0.171904,2.60815,0.634537
0.775973,0.279483,0.429658,-2.34574,-0.171903,2.60815,0.634536
0.775975,0.279486,0.42966,-2.34574,-0.171903,2.60815,0.634537
0.775978,0.279481,0.429661,-2.34574,-0.171903,2.60815,0.634536
0.775978,0.279485,0.429663,-2.34574,-0.171903,2.60815,0.634535
0.775976,0.279488,0.429665,-2.34575,-0.171903,2.60815,0.634537
0.775974,0.279484,0.429661,-2.34575,-0.171905,2.60815,0.63454
0.775975,0.279483,0.429658,-2.34574,-0.171903,2.60815,0.634535
0.77597,0.279487,0.429663,-2.34574,-0.171903,2.60815,0.634539
0.775973,0.279483,0.429661,-2.34574,-0.171904,2.60815,0.634542
0.775971,0.27948,0.429661,-2.34574,-0.171903,2.60815,0.634538
0.775978,0.279483,0.429661,-2.34575,-0.171904,2.60815,0.634541
0.775973,0.27948,0.429656,-2.34574,-0.171903,2.60815,0.634539
0.775976,0.279486,0.429661,-2.34575,-0.171902,2.60815,0.634535
0.775973,0.279483,0.429658,-2.34575,-0.171908,2.60815,0.634537
0.775971,0.279483,0.429661,-2.34575,-0.171908,2.60815,0.63454
0.775971,0.279483,0.429661,-2.34576,-0.171906,2.60815,0.634537
0.775973,0.279487,0.429658,-2.34575,-0.171907,2.60814,0.634533
0.775968,0.279483,0.429659,-2.34576,-0.171911,2.60815,0.634541
0.77597,0.279483,0.429659,-2.34576,-0.171909,2.60815,0.634535
0.775967,0.279483,0.429658,-2.34576,-0.171909,2.60815,0.634539
0.775973,0.279488,0.429658,-2.34577,-0.171912,2.60815,0.634535
0.775968,0.279485,0.429654,-2.34577,-0.171909,2.60815,0.634539
0.775965,0.279485,0.429664,-2.34577,-0.171907,2.60815,0.634538
0.775963,0.279485,0.429654,-2.34577,-0.171909,2.60814,0.634535
0.775967,0.27949,0.429654,-2.34576,-0.17191,2.60815,0.634532
0.77597,0.279483,0.429661,-2.34577,-0.17191,2.60815,0.634537
0.775963,0.279491,0.429656,-2.34577,-0.171903,2.60814,0.634532
0.775961,0.279489,0.429658,-2.34577,-0.171902,2.60815,0.634537
0.775965,0.279491,0.429656,-2.34578,-0.171901,2.60815,0.634534
0.775963,0.279496,0.429654,-2.34578,-0.171902,2.60815,0.634536
0.775965,0.279493,0.429651,-2.34578,-0.171903,2.60815,0.634537
0.775962,0.279494,0.429654,-2.34578,-0.171903,2.60815,0.634534
0.775967,0.279494,0.429658,-2.34577,-0.171903,2.60815,0.634541
0.775965,0.279494,0.429657,-2.34578,-0.171906,2.60815,0.634533
0.775967,0.279491,0.429656,-2.34578,-0.171904,2.60814,0.634539
0.77597,0.279496,0.429657,-2.34577,-0.171903,2.60815,0.634534
0.775967,0.279494,0.429659,-2.34578,-0.171901,2.60815,0.634541
0.775963,0.279493,0.429654,-2.34577,-0.171901,2.60815,0.634537
0.775965,0.279493,0.429653,-2.34577,-0.171902,2.60814,0.634541
0.775967,0.279494,0.429651,-2.34577,-0.171903,2.60815,0.634536
0.77597,0.279491,0.429657,-2.34577,-0.171903,2.60815,0.634539
0.775973,0.279496,0.429659,-2.34577,-0.171903,2.60815,0.634537
0.775973,0.279495,0.429661,-2.34577,-0.171903,2.60815,0.634539
0.775971,0.279496,0.429659,-2.34576,-0.171902,2.60815,0.634542
0.775968,0.279496,0.429658,-2.34576,-0.171903,2.60815,0.634538
0.775965,0.279501,0.429659,-2.34576,-0.171902,2.60815,0.634539
0.775967,0.279501,0.429661,-2.34576,-0.171901,2.60815,0.634541
0.775962,0.279499,0.429659,-2.34576,-0.171901,2.60815,0.634538
0.775964,0.279498,0.429656,-2.34576,-0.171898,2.60815,0.634538
0.775966,0.279498,0.429659,-2.34576,-0.171899,2.60815,0.634539
0.775962,0.279493,0.429657,-2.34576,-0.171901,2.60815,0.634536
0.775962,0.279496,0.429657,-2.34576,-0.171899,2.60815,0.634538
0.77596,0.279499,0.429657,-2.34576,-0.171898,2.60815,0.634538
0.775957,0.279494,0.429659,-2.34576,-0.171898,2.60815,0.634538
0.77596,0.279496,0.429659,-2.34576,-0.171898,2.60815,0.634536
0.77596,0.279496,0.429651,-2.34576,-0.171899,2.60815,0.634537
0.775954,0.279491,0.429653,-2.34576,-0.171899,2.60815,0.634536
0.775952,0.279494,0.429643,-2.34576,-0.171899,2.60815,0.634534
0.775955,0.279494,0.429651,-2.34576,-0.171899,2.60815,0.634539
0.775959,0.279496,0.429646,-2.34576,-0.171898,2.60815,0.634543
0.775955,0.279488,0.429648,-2.34575,-0.171898,2.60815,0.634535
0.775946,0.27949,0.429641,-2.34575,-0.171896,2.60815,0.634539
0.775946,0.279486,0.429641,-2.34576,-0.171896,2.60815,0.634537
0.775952,0.279488,0.429638,-2.34576,-0.171896,2.60815,0.634538
0.775946,0.279488,0.429638,-2.34575,-0.171897,2.60815,0.634535
0.775946,0.279483,0.429635,-2.34575,-0.171896,2.60815,0.634536
0.775944,0.279483,0.429638,-2.34575,-0.171897,2.60815,0.634539
0.775946,0.279486,0.429638,-2.34575,-0.171899,2.60815,0.634537
0.775941,0.279488,0.42964,-2.34575,-0.171897,2.60815,0.634534
0.775939,0.279484,0.429638,-2.34575,-0.171896,2.60815,0.634537
0.775941,0.279485,0.42964,-2.34575,-0.171894,2.60815,0.634538
0.775941,0.279488,0.429638,-2.34575,-0.171895,2.60815,0.634534
0.775939,0.279484,0.429633,-2.34575,-0.171896,2.60815,0.634534
0.775941,0.279485,0.429632,-2.34575,-0.171894,2.60815,0.634539
0.775935,0.279486,0.429633,-2.34574,-0.171895,2.60815,0.634541
0.775945,0.279488,0.429629,-2.34575,-0.171895,2.60815,0.634535
0.775936,0.279489,0.429637,-2.34574,-0.171894,2.60815,0.634541
0.775938,0.279483,0.429633,-2.34574,-0.171891,2.60815,0.634543
0.775935,0.279491,0.429633,-2.34574,-0.171894,2.60815,0.634539
0.775938,0.279489,0.429629,-2.34575,-0.171895,2.60815,0.634541
0.775943,0.279491,0.429639,-2.34575,-0.171896,2.60815,0.634538
0.775943,0.279485,0.429638,-2.34574,-0.171896,2.60815,0.634535
0.775939,0.279485,0.429637,-2.34574,-0.171896,2.60815,0.634541
0.775938,0.279493,0.42964,-2.34574,-0.171896,2.60815,0.634538
0.775941,0.279488,0.429637,-2.34574,-0.171896,2.60815,0.634536
0.775943,0.279488,0.429632,-2.34574,-0.171898,2.60815,0.634541
0.775943,0.279491,0.429637,-2.34574,-0.171896,2.60815,0.634542
0.77594,0.279489,0.429637,-2.34575,-0.171898,2.60815,0.634538
0.775943,0.279493,0.429637,-2.34574,-0.171897,2.60815,0.634534
0.77594,0.279491,0.429637,-2.34575,-0.171898,2.60815,0.634539
0.77594,0.279491,0.42964,-2.34574,-0.171897,2.60815,0.634537
0.775943,0.279491,0.429635,-2.34574,-0.171898,2.60815,0.634536
0.775943,0.279493,0.42964,-2.34574,-0.171896,2.60815,0.634539
0.77594,0.279486,0.429643,-2.34574,-0.171897,2.60815,0.634538
0.775943,0.279498,0.42964,-2.34575,-0.171896,2.60815,0.634543
0.775946,0.279489,0.42964,-2.34574,-0.171896,2.60815,0.634539
0.775946,0.279493,0.429639,-2.34574,-0.171898,2.60815,0.634536
0.775946,0.279496,0.429638,-2.34574,-0.171897,2.60815,0.634538
0.775948,0.27949,0.429645,-2.34574,-0.171897,2.60815,0.634535
0.775948,0.279495,0.429637,-2.34574,-0.171898,2.60816,0.634538
0.775948,0.279496,0.429637,-2.34574,-0.171897,2.60816,0.634537
0.775951,0.279499,0.429642,-2.34574,-0.171897,2.60815,0.634538
0.775946,0.279496,0.429639,-2.34574,-0.171896,2.60816,0.634532
0.775948,0.279496,0.42964,-2.34574,-0.171896,2.60815,0.634536
0.775954,0.279501,0.429645,-2.34574,-0.171898,2.60815,0.634537
0.775956,0.279499,0.429645,-2.34574,-0.171899,2.60815,0.634533
0.775951,0.279496,0.429648,-2.34574,-0.1719,2.60815,0.63454
0.775956,0.279497,0.429642,-2.34574,-0.171897,2.60815,0.634539
0.775956,0.279501,0.429642,-2.34574,-0.171898,2.60815,0.634541
0.775959,0.279499,0.429647,-2.34573,-0.171899,2.60815,0.634534
0.775954,0.279498,0.429648,-2.34573,-0.171898,2.60815,0.63454
0.775959,0.279501,0.429648,-2.34574,-0.171897,2.60815,0.634538
0.775964,0.279501,0.42965,-2.34574,-0.171903,2.60815,0.634537
0.775965,0.279502,0.429656,-2.34573,-0.171902,2.60815,0.634534
0.775959,0.279499,0.429656,-2.34574,-0.171903,2.60815,0.634533
0.77597,0.279504,0.429653,-2.34573,-0.171902,2.60816,0.634537
0.775967,0.279501,0.429656,-2.34573,-0.171901,2.60815,0.634536
0.775967,0.279504,0.429661,-2.34573,-0.171903,2.60816,0.634534
0.77597,0.279507,0.429658,-2.34574,-0.171903,2.60815,0.634539
0.77597,0.279505,0.429658,-2.34573,-0.171903,2.60816,0.634533
0.775975,0.279501,0.429666,-2.34573,-0.171904,2.60815,0.634538
0.775972,0.279503,0.429658,-2.34573,-0.171904,2.60815,0.634539
0.775979,0.279504,0.429666,-2.34573,-0.171905,2.60815,0.634533
0.775975,0.279504,0.429669,-2.34573,-0.171902,2.60815,0.634533
0.775975,0.279504,0.429667,-2.34573,-0.171904,2.60816,0.634534
0.775975,0.279504,0.429674,-2.34573,-0.171906,2.60815,0.634536
0.775981,0.279499,0.429669,-2.34574,-0.171906,2.60815,0.634538
0.775975,0.279499,0.429672,-2.34573,-0.17191,2.60815,0.634538
0.77598,0.279499,0.429674,-2.34573,-0.171912,2.60815,0.634538
0.775986,0.279501,0.429675,-2.34573,-0.171911,2.60816,0.634542
0.775986,0.279501,0.429675,-2.34573,-0.171908,2.60815,0.634541
0.775981,0.279499,0.429676,-2.34573,-0.17191,2.60815,0.634538
0.775986,0.279501,0.429677,-2.34573,-0.17191,2.60815,0.634537
0.775986,0.279497,0.429678,-2.34573,-0.171907,2.60815,0.63454
0.775984,0.279498,0.429675,-2.34573,-0.171907,2.60816,0.634539
0.775989,0.279493,0.429681,-2.34573,-0.171909,2.60816,0.634537
0.775984,0.279496,0.429681,-2.34573,-0.171907,2.60816,0.634533
0.775986,0.279501,0.429681,-2.34574,-0.171906,2.60816,0.634541
0.775981,0.279496,0.429681,-2.34574,-0.171911,2.60816,0.634539
0.775986,0.279494,0.429678,-2.34574,-0.17191,2.60815,0.634538
0.775984,0.279496,0.429681,-2.34574,-0.171911,2.60815,0.634538
0.775988,0.279494,0.429681,-2.34575,-0.171909,2.60815,0.634538
0.775989,0.279494,0.429686,-2.34574,-0.171911,2.60815,0.634538
0.775994,0.279491,0.429683,-2.34574,-0.171912,2.60815,0.634538
0.775989,0.279488,0.429684,-2.34575,-0.17191,2.60815,0.63454
0.775989,0.279488,0.429695,-2.34575,-0.17191,2.60815,0.634536
0.775995,0.279486,0.429687,-2.34575,-0.171908,2.60815,0.634536
0.775989,0.279481,0.429684,-2.34575,-0.171912,2.60815,0.634539
0.775995,0.279483,0.429689,-2.34575,-0.171911,2.60815,0.634537
0.775995,0.279485,0.42969,-2.34575,-0.171912,2.60815,0.634534
0.775995,0.279483,0.429696,-2.34575,-0.171912,2.60815,0.634539
0.775995,0.279486,0.429693,-2.34575,-0.171913,2.60816,0.634538
0.775992,0.279481,0.429693,-2.34575,-0.171911,2.60816,0.63454
0.776002,0.27948,0.429696,-2.34575,-0.171913,2.60815,0.634542
0.776,0.279486,0.429699,-2.34575,-0.171911,2.60815,0.63454
0.776003,0.279481,0.429699,-2.34575,-0.171909,2.60815,0.634538
0.776001,0.279485,0.429699,-2.34576,-0.171913,2.60815,0.634534
0.775995,0.279488,0.429702,-2.34575,-0.171911,2.60815,0.634537
0.776003,0.279486,0.429699,-2.34575,-0.171909,2.60815,0.634538
0.776006,0.279486,0.429701,-2.34576,-0.171912,2.60815,0.634538
0.776006,0.279486,0.429705,-2.34575,-0.171909,2.60816,0.634533
0.776008,0.279484,0.4297,-2.34575,-0.171914,2.60816,0.634536
0.776003,0.279482,0.429706,-2.34575,-0.171914,2.60815,0.634538
0.776006,0.279486,0.429707,-2.34576,-0.171915,2.60815,0.634532
0.776009,0.279488,0.429713,-2.34575,-0.171916,2.60815,0.634534
0.776009,0.279483,0.429714,-2.34575,-0.17191,2.60815,0.634539
0.776009,0.279485,0.429714,-2.34576,-0.171911,2.60815,0.634537
0.776009,0.279483,0.429719,-2.34575,-0.171909,2.60816,0.634532
0.776009,0.27949,0.429711,-2.34574,-0.17191,2.60816,0.634538
0.776006,0.279483,0.429717,-2.34575,-0.171909,2.60816,0.634534
0.776009,0.279488,0.429711,-2.34575,-0.171912,2.60816,0.634538
0.775996,0.27948,0.429717,-2.34575,-0.171912,2.60816,0.63454
0.776004,0.279487,0.429714,-2.34575,-0.171915,2.60815,0.634538
0.776008,0.279486,0.429717,-2.34575,-0.171917,2.60815,0.634538
0.776007,0.279485,0.429715,-2.34574,-0.171912,2.60816,0.634539
0.776007,0.279485,0.42971,-2.34575,-0.171911,2.60816,0.634536
0.776006,0.279493,0.429717,-2.34574,-0.171911,2.60816,0.634532
0.776004,0.279491,0.429716,-2.34574,-0.171912,2.60816,0.634537
0.776002,0.279491,0.429713,-2.34574,-0.171912,2.60816,0.634542
0.776,0.279491,0.429713,-2.34574,-0.17191,2.60816,0.634537
0.775998,0.27949,0.429711,-2.34574,-0.171909,2.60815,0.634533
0.775994,0.279491,0.429711,-2.34574,-0.171908,2.60816,0.634541
0.775996,0.279493,0.429713,-2.34574,-0.17191,2.60816,0.634539
0.775998,0.279491,0.429716,-2.34574,-0.171906,2.60816,0.634535
0.775994,0.279494,0.429711,-2.34574,-0.171903,2.60816,0.634535
0.775994,0.279493,0.429711,-2.34574,-0.171907,2.60816,0.634537
0.775988,0.279491,0.429711,-2.34574,-0.171905,2.60816,0.634539
0.775988,0.279496,0.429713,-2.34574,-0.171909,2.60816,0.634539
0.775988,0.279496,0.429708,-2.34574,-0.171909,2.60816,0.634538
0.775983,0.279489,0.429703,-2.34575,-0.171909,2.60816,0.634539
0.775988,0.279496,0.429703,-2.34575,-0.171907,2.60816,0.634538
0.77598,0.279499,0.429703,-2.34574,-0.171907,2.60816,0.634536
0.775981,0.279499,0.429705,-2.34574,-0.171904,2.60816,0.63454
0.775985,0.279501,0.4297,-2.34575,-0.171904,2.60816,0.634533
0.775981,0.279501,0.429698,-2.34575,-0.171905,2.60816,0.634534
0.77598,0.279494,0.429695,-2.34575,-0.171904,2.60816,0.634537
0.775977,0.279498,0.429694,-2.34575,-0.171908,2.60816,0.634539
0.775975,0.279504,0.429697,-2.34575,-0.171906,2.60816,0.634535
0.775972,0.279501,0.429695,-2.34574,-0.171904,2.60816,0.634533
0.775975,0.279502,0.429695,-2.34574,-0.171903,2.60816,0.634541
0.775975,0.279504,0.42969,-2.34575,-0.171903,2.60816,0.63454
0.775972,0.279501,0.429692,-2.34575,-0.171902,2.60816,0.634538
0.775972,0.279504,0.429691,-2.34574,-0.171901,2.60816,0.634536
0.775964,0.279501,0.429686,-2.34575,-0.1719,2.60816,0.634541
0.77597,0.279501,0.429687,-2.34574,-0.171903,2.60816,0.634537
0.775967,0.279507,0.429684,-2.34574,-0.171903,2.60816,0.634533
0.775962,0.279507,0.429684,-2.34574,-0.171897,2.60816,0.634537
0.775959,0.27951,0.429681,-2.34574,-0.171899,2.60816,0.634536
0.775962,0.279512,0.429678,-2.34574,-0.171899,2.60816,0.634535
0.775958,0.27951,0.429674,-2.34574,-0.171896,2.60816,0.634537
0.775953,0.279512,0.429676,-2.34574,-0.171896,2.60816,0.634541
0.775953,0.279512,0.429671,-2.34574,-0.171896,2.60816,0.634539
0.775955,0.279515,0.429675,-2.34574,-0.171899,2.60816,0.634539
0.775953,0.279515,0.429671,-2.34574,-0.171898,2.60816,0.634539
0.775955,0.279517,0.42967,-2.34574,-0.171895,2.60816,0.634538
0.775953,0.279515,0.429672,-2.34574,-0.171894,2.60816,0.634541
0.77595,0.27952,0.429672,-2.34573,-0.171893,2.60816,0.634537
0.775955,0.27952,0.429667,-2.34574,-0.171892,2.60816,0.634537
0.77595,0.27952,0.429666,-2.34574,-0.171892,2.60816,0.634539
0.77595,0.279522,0.42967,-2.34574,-0.171891,2.60816,0.634538
0.775949,0.279525,0.429667,-2.34574,-0.171891,2.60816,0.634535
0.775948,0.279522,0.429667,-2.34574,-0.171888,2.60816,0.634542
0.775947,0.27953,0.429667,-2.34574,-0.171894,2.60816,0.634539
0.775948,0.279525,0.429669,-2.34574,-0.171892,2.60816,0.634538
0.775944,0.27953,0.429664,-2.34574,-0.171891,2.60816,0.634543
0.775944,0.279527,0.429666,-2.34574,-0.171888,2.60816,0.634538
0.775947,0.279533,0.42967,-2.34574,-0.171891,2.60816,0.634535
0.775947,0.279531,0.429663,-2.34574,-0.17189,2.60816,0.634541
0.775946,0.27953,0.429661,-2.34574,-0.17189,2.60816,0.63454
0.775947,0.279531,0.429662,-2.34574,-0.171887,2.60816,0.634536
0.775949,0.27953,0.429666,-2.34574,-0.171888,2.60816,0.634541
0.775939,0.279531,0.429666,-2.34574,-0.171886,2.60816,0.634539
0.775944,0.279533,0.429659,-2.34575,-0.171887,2.60816,0.634536
0.775944,0.279531,0.429666,-2.34574,-0.171888,2.60816,0.634542
0.775947,0.279533,0.429661,-2.34574,-0.17189,2.60816,0.634541
0.775942,0.279528,0.429666,-2.34574,-0.171891,2.60816,0.634538
0.775944,0.279533,0.429664,-2.34575,-0.171891,2.60816,0.634539
0.775947,0.27953,0.429666,-2.34575,-0.171891,2.60816,0.634542
0.775947,0.279533,0.429666,-2.34574,-0.17189,2.60816,0.634544
0.775945,0.279538,0.429663,-2.34575,-0.171889,2.60816,0.634538
0.775946,0.279539,0.429666,-2.34575,-0.17189,2.60816,0.634535
0.775945,0.279536,0.429663,-2.34576,-0.171891,2.60816,0.634541
0.775946,0.279529,0.429664,-2.34575,-0.171889,2.60816,0.634543
0.775947,0.279533,0.429663,-2.34575,-0.171891,2.60816,0.634541
0.775947,0.279533,0.429665,-2.34575,-0.171889,2.60816,0.634538
0.775946,0.279536,0.429664,-2.34575,-0.17189,2.60816,0.634542
0.775948,0.279536,0.429666,-2.34576,-0.17189,2.60816,0.634541
0.775949,0.279531,0.429664,-2.34576,-0.17189,2.60816,0.634537
0.775952,0.279536,0.429668,-2.34575,-0.17189,2.60816,0.634539
0.775945,0.279536,0.429673,-2.34575,-0.17189,2.60816,0.634539
0.775954,0.279536,0.429669,-2.34576,-0.171889,2.60816,0.634537
0.775952,0.279534,0.429669,-2.34575,-0.17189,2.60816,0.634539
0.775951,0.279531,0.429669,-2.34576,-0.17189,2.60816,0.634543
0.775955,0.279534,0.429668,-2.34576,-0.171891,2.60816,0.63454
0.775955,0.279531,0.429671,-2.34575,-0.171887,2.60816,0.634538
0.775957,0.279528,0.429671,-2.34576,-0.17189,2.60816,0.634544
0.775957,0.279523,0.429676,-2.34576,-0.171891,2.60816,0.63454
0.775955,0.279528,0.429671,-2.34576,-0.171891,2.60816,0.634541
0.775963,0.279531,0.429671,-2.34576,-0.171895,2.60816,0.634541
0.775965,0.279528,0.429679,-2.34576,-0.171889,2.60816,0.634544
0.775971,0.279528,0.429679,-2.34576,-0.171891,2.60816,0.634542
0.775963,0.279531,0.429681,-2.34576,-0.17189,2.60816,0.63454
0.775965,0.279526,0.429682,-2.34576,-0.171892,2.60816,0.634542
0.775971,0.279531,0.429682,-2.34576,-0.171893,2.60816,0.634541
0.775968,0.279526,0.42968,-2.34576,-0.171894,2.60816,0.634542
0.775971,0.27953,0.429686,-2.34576,-0.171893,2.60816,0.634542
0.775975,0.279528,0.429687,-2.34576,-0.171893,2.60816,0.634539
0.775973,0.279526,0.429687,-2.34576,-0.171892,2.60816,0.634542
0.775977,0.279528,0.429692,-2.34576,-0.171893,2.60816,0.63454
0.775978,0.279528,0.429693,-2.34576,-0.171894,2.60816,0.634541
0.775984,0.279528,0.429693,-2.34577,-0.171896,2.60816,0.634541
0.775981,0.279525,0.429692,-2.34577,-0.171895,2.60816,0.634539
0.775984,0.279523,0.429699,-2.34577,-0.171896,2.60816,0.634543
0.775987,0.279528,0.429697,-2.34577,-0.171894,2.60816,0.634543
0.775984,0.279531,0.429695,-2.34577,-0.171894,2.60816,0.634545
0.775987,0.279526,0.429698,-2.34577,-0.171894,2.60816,0.634541
0.775986,0.279528,0.429698,-2.34578,-0.171895,2.60816,0.634544
0.775995,0.279525,0.4297,-2.34578,-0.171895,2.60816,0.634539
0.775993,0.279526,0.429704,-2.34578,-0.171899,2.60816,0.634544
0.775997,0.279529,0.429698,-2.34578,-0.171896,2.60816,0.634547
0.775988,0.279523,0.429698,-2.34578,-0.171896,2.60816,0.634541
0.776,0.279523,0.429704,-2.34578,-0.171895,2.60816,0.634542
0.775987,0.279528,0.4297,-2.34578,-0.171896,2.60816,0.634547
0.775998,0.279526,0.429706,-2.34578,-0.171893,2.60816,0.63455
0.775995,0.279528,0.429704,-2.34578,-0.171895,2.60816,0.634539
0.775995,0.279523,0.429709,-2.34578,-0.171894,2.60816,0.634544
0.775998,0.279534,0.429707,-2.34578,-0.171895,2.60816,0.634544
0.775995,0.279523,0.429707,-2.34579,-0.171896,2.60816,0.634548
0.775997,0.279531,0.429707,-2.34578,-0.171896,2.60815,0.63455
0.776002,0.279528,0.42971,-2.34579,-0.171896,2.60816,0.63454
0.776,0.279526,0.429708,-2.34579,-0.171896,2.60816,0.634547
0.776004,0.279526,0.429709,-2.34579,-0.171895,2.60816,0.634544
0.776001,0.279528,0.429707,-2.34579,-0.171895,2.60816,0.634543
0.775999,0.279534,0.42971,-2.34579,-0.171894,2.60816,0.634543
0.775999,0.279528,0.42971,-2.34579,-0.171895,2.60816,0.634543
0.775999,0.279531,0.429713,-2.34579,-0.171895,2.60816,0.634549
0.775996,0.279528,0.42971,-2.34579,-0.171895,2.60816,0.634548
0.775999,0.279526,0.429712,-2.34579,-0.171895,2.60816,0.634542
0.776001,0.279526,0.42971,-2.34579,-0.171895,2.60816,0.634545
0.775999,0.279531,0.429713,-2.34579,-0.171895,2.60816,0.634543
0.775998,0.279531,0.429713,-2.34579,-0.171896,2.60816,0.634544
0.775999,0.279533,0.429708,-2.34579,-0.171895,2.60816,0.634546
0.775998,0.279526,0.429708,-2.3458,-0.171895,2.60816,0.634545
0.775997,0.279531,0.429712,-2.34579,-0.171896,2.60816,0.634542
0.775996,0.279528,0.429713,-2.34579,-0.171895,2.60816,0.63454
0.775996,0.279534,0.429713,-2.3458,-0.171898,2.60816,0.634549
0.775996,0.279528,0.429711,-2.34579,-0.171896,2.60816,0.634548
0.775995,0.279528,0.429716,-2.34579,-0.171897,2.60816,0.634545
0.775994,0.279528,0.429708,-2.3458,-0.171896,2.60816,0.634549
0.776001,0.279526,0.429708,-2.3458,-0.171895,2.60816,0.634549
0.775994,0.279529,0.429712,-2.34579,-0.171894,2.60816,0.634546
0.775995,0.279531,0.42971,-2.34579,-0.171895,2.60816,0.634547
0.775991,0.279531,0.429708,-2.34579,-0.171893,2.60816,0.634542
0.775993,0.279531,0.429713,-2.34579,-0.171889,2.60816,0.634544
0.775988,0.279531,0.429713,-2.34579,-0.171892,2.60816,0.634544
0.775988,0.279528,0.429708,-2.34579,-0.171893,2.60816,0.634546
0.775991,0.279528,0.429708,-2.34579,-0.171889,2.60816,0.634551
0.775985,0.279534,0.429708,-2.34579,-0.171891,2.60816,0.634546
0.775989,0.279531,0.429703,-2.34579,-0.171892,2.60816,0.634549
0.775988,0.279536,0.429705,-2.34579,-0.171893,2.60816,0.634548
0.775986,0.279526,0.429705,-2.34579,-0.17189,2.60816,0.634553
0.775985,0.279528,0.429705,-2.34579,-0.171891,2.60816,0.634548
0.775988,0.279528,0.429705,-2.34579,-0.171891,2.60816,0.634549
0.775985,0.279539,0.429702,-2.34579,-0.171887,2.60816,0.634544
0.775983,0.279534,0.429702,-2.34579,-0.17189,2.60816,0.634548
0.775985,0.279536,0.429697,-2.34579,-0.171893,2.60816,0.63455
0.775988,0.279536,0.429698,-2.34579,-0.171891,2.60816,0.634545
0.775983,0.279539,0.429699,-2.34579,-0.171892,2.60816,0.634548
0.775983,0.279539,0.429698,-2.34579,-0.17189,2.60816,0.634551
0.77598,0.279536,0.429695,-2.34579,-0.171894,2.60816,0.634552
0.775983,0.279536,0.429697,-2.3458,-0.171892,2.60816,0.634549
0.77598,0.279538,0.429697,-2.34579,-0.17189,2.60816,0.634547
0.77598,0.279539,0.429694,-2.34579,-0.17189,2.60816,0.63455
0.775983,0.279541,0.429695,-2.34579,-0.171887,2.60816,0.634548
0.775977,0.279539,0.4297,-2.34579,-0.171886,2.60816,0.634549
0.77598,0.27954,0.429692,-2.34579,-0.171889,2.60816,0.634552
0.775978,0.279546,0.429697,-2.34579,-0.171889,2.60816,0.634552
0.775979,0.279539,0.429695,-2.34579,-0.171891,2.60816,0.634545
0.775975,0.279541,0.429694,-2.34579,-0.171891,2.60816,0.63455
0.775975,0.279549,0.429693,-2.34579,-0.171891,2.60816,0.634555
0.775975,0.279547,0.429702,-2.34579,-0.171891,2.60816,0.634549
0.775975,0.279547,0.42969,-2.34579,-0.171887,2.60816,0.634546
0.775974,0.279544,0.429695,-2.34579,-0.17189,2.60816,0.63455
0.775977,0.279546,0.429689,-2.34579,-0.171888,2.60816,0.634552
0.775975,0.279549,0.429694,-2.34579,-0.171889,2.60816,0.634546
0.775969,0.279544,0.429692,-2.34579,-0.171891,2.60816,0.634547
0.775969,0.279547,0.429696,-2.34579,-0.171891,2.60816,0.634551
0.775971,0.279546,0.429693,-2.34579,-0.171891,2.60816,0.634551
0.775974,0.279547,0.429689,-2.34579,-0.171889,2.60816,0.634544
0.775972,0.279547,0.429689,-2.34579,-0.17189,2.60816,0.634549
0.775971,0.27955,0.429692,-2.34579,-0.17189,2.60816,0.634551
0.77597,0.279552,0.429692,-2.34579,-0.171891,2.60817,0.634552
0.775969,0.279547,0.429689,-2.34579,-0.171889,2.60816,0.634551
0.775969,0.27955,0.429689,-2.34579,-0.17189,2.60816,0.634549
0.775969,0.279552,0.429689,-2.34579,-0.171891,2.60816,0.634548
0.775972,0.27955,0.429692,-2.34579,-0.17189,2.60816,0.634551
0.775974,0.279552,0.429687,-2.34579,-0.171889,2.60816,0.634547
0.775972,0.279555,0.429682,-2.34579,-0.171887,2.60816,0.634548
0.775969,0.279552,0.429686,-2.34579,-0.17189,2.60816,0.634553
0.775972,0.279552,0.429689,-2.34578,-0.171891,2.60816,0.634546
0.775964,0.27955,0.429694,-2.34579,-0.171891,2.60817,0.634549
0.77597,0.27955,0.42969,-2.34579,-0.171891,2.60816,0.634553
0.775964,0.27955,0.429688,-2.34579,-0.171891,2.60816,0.634546
0.775964,0.279547,0.429692,-2.34579,-0.171891,2.60816,0.634548
0.775972,0.279555,0.429687,-2.34579,-0.171891,2.60816,0.634551
0.775972,0.279553,0.429691,-2.34579,-0.171889,2.60816,0.63455
0.775974,0.279553,0.429692,-2.34579,-0.171887,2.60816,0.634551
0.775969,0.279552,0.429686,-2.34579,-0.17189,2.60816,0.634546
0.775972,0.27955,0.429692,-2.34579,-0.171892,2.60816,0.634547
0.775969,0.279547,0.429694,-2.34579,-0.171891,2.60816,0.63455
0.775972,0.27955,0.429689,-2.34579,-0.171892,2.60816,0.63455
0.775977,0.27955,0.429692,-2.34579,-0.171891,2.60816,0.634549
0.775972,0.279555,0.429684,-2.34579,-0.171891,2.60817,0.634547
0.775977,0.27955,0.429694,-2.34579,-0.171892,2.60816,0.634547
0.775975,0.279551,0.429692,-2.34579,-0.171894,2.60816,0.634547
0.775979,0.279555,0.429691,-2.34579,-0.171888,2.60817,0.634548
0.775977,0.279553,0.429691,-2.34579,-0.171891,2.60816,0.634551
0.775974,0.27955,0.429688,-2.34579,-0.171894,2.60817,0.63455
0.775979,0.27955,0.429694,-2.34579,-0.171891,2.60817,0.634548
0.775977,0.279555,0.429692,-2.34579,-0.171889,2.60817,0.634548
0.775974,0.279551,0.429689,-2.34579,-0.171892,2.60817,0.634548
0.775977,0.27955,0.429692,-2.34579,-0.171894,2.60816,0.634551
0.775974,0.279549,0.429692,-2.34579,-0.171895,2.60817,0.634548
0.775982,0.279555,0.429697,-2.34578,-0.171892,2.60816,0.634546
0.775979,0.279553,0.429696,-2.34578,-0.171893,2.60816,0.634549
0.775982,0.27955,0.429692,-2.34579,-0.171895,2.60816,0.634546
0.775988,0.279556,0.429691,-2.34579,-0.171897,2.60816,0.634546
0.775985,0.279556,0.429694,-2.34579,-0.171898,2.60816,0.634545
0.775979,0.279553,0.4297,-2.34579,-0.171897,2.60816,0.634549
0.775988,0.279546,0.4297,-2.34579,-0.171898,2.60816,0.634546
0.775988,0.279555,0.429692,-2.34579,-0.171898,2.60816,0.634546
0.775982,0.27955,0.429694,-2.34579,-0.171898,2.60816,0.634546
0.775988,0.279553,0.429694,-2.34579,-0.171898,2.60816,0.634548
0.775985,0.279548,0.429696,-2.34579,-0.1719,2.60816,0.634546
0.775979,0.279555,0.429699,-2.34579,-0.171901,2.60816,0.634549
0.775987,0.27955,0.429697,-2.34579,-0.171902,2.60816,0.634548
0.775991,0.279547,0.429699,-2.34579,-0.171902,2.60816,0.634544
0.775995,0.279553,0.429694,-2.3458,-0.171899,2.60816,0.634549
0.775988,0.279553,0.429699,-2.3458,-0.171902,2.60815,0.634544
0.775988,0.27955,0.4297,-2.3458,-0.171904,2.60816,0.634549
0.775985,0.279553,0.429692,-2.3458,-0.171903,2.60816,0.634549
0.775983,0.279547,0.429694,-2.3458,-0.171902,2.60816,0.634544
0.77598,0.279553,0.429694,-2.3458,-0.171908,2.60816,0.634548
0.775985,0.279552,0.429697,-2.3458,-0.171906,2.60815,0.634548
0.775982,0.279553,0.429694,-2.34581,-0.171909,2.60816,0.634543
0.77598,0.279555,0.429694,-2.3458,-0.171906,2.60816,0.634546
0.775985,0.27955,0.429692,-2.3458,-0.17191,2.60816,0.634548
0.775979,0.279548,0.429694,-2.34581,-0.171907,2.60815,0.634541
0.77598,0.279558,0.429689,-2.34581,-0.171908,2.60816,0.634547
0.775982,0.279556,0.429687,-2.34581,-0.171906,2.60816,0.634543
0.775975,0.279553,0.429689,-2.34581,-0.171907,2.60816,0.63454
0.77598,0.279553,0.429687,-2.34581,-0.171906,2.60816,0.634545
0.775977,0.279553,0.429688,-2.34581,-0.171907,2.60816,0.634545
0.77598,0.279555,0.429682,-2.34581,-0.171911,2.60815,0.634542
0.775978,0.279553,0.429683,-2.34581,-0.171907,2.60815,0.634546
0.775979,0.279557,0.429686,-2.34581,-0.171909,2.60816,0.634545
0.775974,0.279556,0.429678,-2.34581,-0.171911,2.60816,0.634543
0.775974,0.279557,0.429676,-2.34582,-0.17191,2.60815,0.634546
0.775972,0.279559,0.429683,-2.34582,-0.171909,2.60815,0.634545
0.775972,0.27956,0.429678,-2.34581,-0.171907,2.60815,0.63454
0.775972,0.279563,0.429678,-2.34581,-0.171911,2.60815,0.634541
0.775972,0.279561,0.429678,-2.34581,-0.171911,2.60815,0.634547
0.775966,0.279563,0.429681,-2.34582,-0.171911,2.60815,0.634538
0.775972,0.279566,0.429684,-2.34581,-0.171913,2.60815,0.634545
0.775969,0.279563,0.429676,-2.34582,-0.171912,2.60815,0.634543
0.775966,0.279563,0.429673,-2.34582,-0.17191,2.60815,0.634541
0.775969,0.279569,0.429675,-2.34581,-0.171908,2.60815,0.634543
0.775974,0.279569,0.429678,-2.34581,-0.17191,2.60815,0.634545
0.775967,0.279563,0.42968,-2.34582,-0.171912,2.60815,0.634543
0.775967,0.279574,0.429675,-2.34582,-0.171909,2.60815,0.634542
0.775966,0.279569,0.429676,-2.34581,-0.171911,2.60815,0.634543
0.775966,0.279571,0.429678,-2.34581,-0.171909,2.60815,0.634543
0.775966,0.279569,0.429678,-2.34581,-0.171912,2.60815,0.634539
0.775972,0.279571,0.429671,-2.34582,-0.171913,2.60815,0.634541
0.775962,0.279574,0.429675,-2.34581,-0.17191,2.60815,0.634541
0.775964,0.279572,0.429672,-2.34581,-0.171913,2.60815,0.634538
0.775968,0.279574,0.429672,-2.34581,-0.171915,2.60815,0.634544
0.775964,0.279574,0.429675,-2.34582,-0.171911,2.60816,0.634543
0.775961,0.279575,0.429672,-2.34581,-0.171912,2.60815,0.634538
0.775963,0.279574,0.42967,-2.34581,-0.17191,2.60815,0.634538
0.775964,0.279574,0.42967,-2.34582,-0.171913,2.60816,0.634539
0.775961,0.279574,0.42967,-2.34581,-0.171911,2.60815,0.634541
0.775962,0.279574,0.42967,-2.34581,-0.17191,2.60816,0.634539
0.775963,0.279574,0.429669,-2.34581,-0.171914,2.60816,0.634536
0.775964,0.279574,0.429669,-2.34581,-0.171911,2.60815,0.634538
0.775962,0.279574,0.429672,-2.34581,-0.171915,2.60815,0.634539
0.775966,0.279576,0.429672,-2.34581,-0.171912,2.60815,0.634532
0.775966,0.279575,0.429669,-2.34581,-0.171916,2.60816,0.634539
0.775961,0.279572,0.429671,-2.34582,-0.171916,2.60815,0.634536
0.775966,0.279577,0.429672,-2.34581,-0.171916,2.60815,0.634536
0.775966,0.279573,0.429673,-2.34581,-0.171915,2.60815,0.634538
0.775963,0.279574,0.429667,-2.34581,-0.171916,2.60816,0.634535
0.775966,0.279571,0.429672,-2.34581,-0.171917,2.60816,0.634538
0.775964,0.279571,0.429673,-2.34581,-0.171916,2.60815,0.634534
0.775966,0.279572,0.429674,-2.34581,-0.171917,2.60816,0.634534
0.775963,0.279577,0.429675,-2.34581,-0.171916,2.60815,0.634536
0.775961,0.279572,0.429677,-2.34581,-0.171917,2.60815,0.634536
0.775966,0.279569,0.429675,-2.34581,-0.171915,2.60816,0.634539
0.775963,0.27957,0.429669,-2.34581,-0.171914,2.60816,0.634536
0.775971,0.279572,0.429674,-2.34581,-0.171914,2.60816,0.634538
0.775971,0.279574,0.429672,-2.34581,-0.171914,2.60816,0.634538
0.775969,0.27957,0.429674,-2.34581,-0.171914,2.60816,0.634536
0.775966,0.279567,0.429672,-2.34581,-0.171919,2.60816,0.634539
0.775968,0.279572,0.429674,-2.34581,-0.171916,2.60816,0.634538
0.775968,0.279574,0.429675,-2.34581,-0.171916,2.60816,0.634534
0.775968,0.27957,0.429677,-2.34581,-0.171915,2.60816,0.634536
0.775968,0.279571,0.429677,-2.34581,-0.171911,2.60816,0.634537
0.775968,0.279572,0.429673,-2.34581,-0.171914,2.60816,0.634537
0.775971,0.279578,0.429675,-2.34581,-0.171916,2.60816,0.634537
0.775969,0.279575,0.429677,-2.34581,-0.171916,2.60816,0.634539
0.775979,0.279573,0.42968,-2.34581,-0.171915,2.60816,0.634536
0.775974,0.279574,0.429683,-2.34581,-0.171914,2.60816,0.634535
0.775979,0.27957,0.429677,-2.34581,-0.171917,2.60816,0.634538
0.775977,0.279572,0.429682,-2.34581,-0.171916,2.60816,0.634536
0.775976,0.279568,0.429683,-2.34581,-0.171915,2.60816,0.634538
0.775977,0.279574,0.429681,-2.34581,-0.171911,2.60816,0.634534
0.775977,0.279573,0.429682,-2.34582,-0.171915,2.60816,0.634535
0.775974,0.279577,0.42968,-2.34582,-0.171915,2.60816,0.634536
0.775974,0.279572,0.429685,-2.34582,-0.171915,2.60816,0.634533
0.775983,0.279573,0.429685,-2.34581,-0.171914,2.60816,0.634539
0.775979,0.279572,0.429688,-2.34582,-0.171914,2.60816,0.634538
0.775979,0.279571,0.429688,-2.34582,-0.171913,2.60816,0.634536
0.775979,0.279572,0.429683,-2.34581,-0.171916,2.60816,0.634541
0.775982,0.279575,0.429683,-2.34582,-0.171917,2.60816,0.634535
0.775982,0.279572,0.429688,-2.34582,-0.171917,2.60816,0.634535
0.775982,0.279575,0.42969,-2.34582,-0.171919,2.60816,0.634538
0.775988,0.279573,0.42969,-2.34582,-0.171918,2.60816,0.634537
0.775985,0.279577,0.429693,-2.34582,-0.171918,2.60817,0.634537
0.775985,0.279573,0.429694,-2.34583,-0.171918,2.60816,0.63454
0.775987,0.279581,0.42969,-2.34583,-0.171921,2.60816,0.63454
0.775988,0.279576,0.429696,-2.34584,-0.171921,2.60817,0.634535
0.775987,0.279578,0.429696,-2.34583,-0.171922,2.60817,0.634539
0.775992,0.279592,0.429697,-2.34583,-0.171925,2.60817,0.634536
0.775986,0.279598,0.429697,-2.34584,-0.171929,2.60817,0.634538
0.775994,0.279605,0.429702,-2.34583,-0.17193,2.60817,0.634535
0.775992,0.279617,0.429703,-2.34583,-0.171932,2.60817,0.634538
0.775993,0.279617,0.429704,-2.34582,-0.171932,2.60817,0.634542
0.776001,0.279621,0.42971,-2.34582,-0.171932,2.60818,0.634536
0.775996,0.27963,0.429711,-2.34582,-0.171942,2.60818,0.634542
0.775994,0.279632,0.429719,-2.34582,-0.171946,2.60818,0.634538
0.775994,0.27963,0.429719,-2.34582,-0.171946,2.60818,0.634534
0.776007,0.279633,0.429725,-2.34582,-0.171952,2.60818,0.634533
0.775999,0.279638,0.429737,-2.34582,-0.171954,2.60818,0.634531
0.776003,0.279633,0.429737,-2.34582,-0.171956,2.60818,0.634531
0.776008,0.279631,0.429741,-2.34582,-0.171962,2.60818,0.634535
0.776006,0.279631,0.429747,-2.34582,-0.171964,2.60818,0.634532
0.776013,0.279628,0.429751,-2.34581,-0.171968,2.60818,0.634529
0.776011,0.279625,0.429757,-2.34581,-0.17197,2.60818,0.634529
0.776012,0.279628,0.429761,-2.34582,-0.171979,2.60818,0.634534
0.776019,0.27963,0.429767,-2.34581,-0.171984,2.60818,0.634531
0.776018,0.279632,0.429772,-2.34581,-0.17199,2.60818,0.634529
0.776021,0.279633,0.429777,-2.3458,-0.171994,2.60818,0.634527
0.776027,0.279628,0.429786,-2.3458,-0.172002,2.60818,0.634528
0.77603,0.27963,0.429789,-2.3458,-0.172008,2.60818,0.63453
0.776028,0.279625,0.429793,-2.34579,-0.172013,2.60818,0.634528
0.776033,0.279628,0.429802,-2.34579,-0.172025,2.60818,0.634533
0.776033,0.279622,0.429804,-2.34579,-0.172034,2.60818,0.63453
0.776034,0.27963,0.429807,-2.34579,-0.172041,2.60818,0.634527
0.776037,0.279633,0.429816,-2.34579,-0.172052,2.60818,0.63453
0.77604,0.27963,0.429824,-2.34579,-0.172064,2.60818,0.63453
0.776046,0.279628,0.429826,-2.34578,-0.172076,2.60818,0.634524
0.776049,0.279641,0.42983,-2.34578,-0.172087,2.60818,0.634523
0.776047,0.279633,0.42983,-2.34577,-0.172097,2.60818,0.634529
0.776051,0.279635,0.429834,-2.34577,-0.172108,2.60818,0.634529
0.776064,0.279638,0.429842,-2.34577,-0.172121,2.60818,0.634523
0.77606,0.279641,0.429845,-2.34577,-0.172131,2.60818,0.634523
0.776065,0.279646,0.429844,-2.34577,-0.172142,2.60818,0.634528
0.776074,0.279644,0.429846,-2.34576,-0.172152,2.60818,0.634529
0.776083,0.279641,0.429844,-2.34576,-0.172164,2.60818,0.634524
0.776084,0.279644,0.429847,-2.34576,-0.172174,2.60818,0.634525
0.776093,0.279639,0.42985,-2.34576,-0.172184,2.60817,0.634528
0.776104,0.279646,0.429854,-2.34575,-0.172192,2.60817,0.634525
0.776109,0.279646,0.429854,-2.34575,-0.172202,2.60817,0.634526
0.77612,0.279639,0.429854,-2.34575,-0.172211,2.60817,0.634528
0.776122,0.279645,0.429857,-2.34575,-0.172219,2.60817,0.634526
0.776127,0.279639,0.429854,-2.34575,-0.17223,2.60818,0.634525
0.776138,0.279641,0.429855,-2.34575,-0.172241,2.60817,0.634524
0.776139,0.279641,0.429857,-2.34575,-0.172249,2.60817,0.634528
0.776153,0.279643,0.429857,-2.34575,-0.172258,2.60817,0.634524
0.776155,0.279647,0.429855,-2.34575,-0.172266,2.60817,0.634523
0.776163,0.279641,0.429857,-2.34574,-0.172277,2.60817,0.634532
0.77617,0.279644,0.429857,-2.34575,-0.172288,2.60817,0.63453
0.776177,0.279644,0.429858,-2.34575,-0.172297,2.60817,0.634523
0.776177,0.279651,0.429858,-2.34575,-0.172304,2.60817,0.634524
0.776188,0.279645,0.429858,-2.34575,-0.172312,2.60817,0.63453
0.776194,0.279644,0.429868,-2.34575,-0.172318,2.60817,0.634526
0.77619,0.27965,0.429866,-2.34575,-0.172328,2.60817,0.634523
0.776196,0.279647,0.429863,-2.34575,-0.17234,2.60817,0.634526
0.776198,0.279651,0.429871,-2.34575,-0.172346,2.60817,0.634531
0.776202,0.279645,0.429874,-2.34575,-0.172354,2.60817,0.634529
0.776206,0.279652,0.429874,-2.34575,-0.172359,2.60817,0.634525
0.776212,0.27965,0.429879,-2.34575,-0.172368,2.60817,0.634529
0.776214,0.279656,0.429881,-2.34575,-0.172376,2.60817,0.63453
0.776219,0.279656,0.429887,-2.34575,-0.172391,2.60817,0.63453
0.77622,0.279656,0.42989,-2.34575,-0.172401,2.60817,0.634525
0.776229,0.279651,0.429893,-2.34576,-0.172404,2.60817,0.634529
0.776234,0.279656,0.429894,-2.34576,-0.172412,2.60817,0.634532
0.77624,0.279654,0.429897,-2.34576,-0.172417,2.60817,0.634529
0.776244,0.279659,0.4299,-2.34576,-0.172423,2.60817,0.634529
0.776245,0.279657,0.429903,-2.34576,-0.172427,2.60817,0.63453
0.776251,0.279657,0.429907,-2.34576,-0.172431,2.60817,0.634528
0.776251,0.279659,0.429912,-2.34576,-0.172436,2.60817,0.634525
0.77625,0.27966,0.429913,-2.34576,-0.172438,2.60817,0.63453
0.776257,0.279663,0.429911,-2.34576,-0.172441,2.60817,0.634533
0.776258,0.279661,0.429916,-2.34576,-0.172443,2.60817,0.634525
0.776261,0.279665,0.429919,-2.34576,-0.172446,2.60817,0.634524
0.776267,0.27966,0.429918,-2.34576,-0.172445,2.60817,0.634525
0.776264,0.279665,0.42992,-2.34576,-0.172449,2.60817,0.634524
0.776263,0.279667,0.429924,-2.34575,-0.172452,2.60817,0.634526
0.776268,0.279663,0.429929,-2.34575,-0.172452,2.60817,0.634528
0.776268,0.279668,0.429922,-2.34576,-0.172452,2.60817,0.634528
0.776263,0.279663,0.429926,-2.34575,-0.172455,2.60817,0.634528
0.776268,0.279663,0.429927,-2.34575,-0.172455,2.60817,0.634528
0.776269,0.279666,0.42993,-2.34575,-0.172453,2.60817,0.63453
0.776274,0.279669,0.429928,-2.34576,-0.172452,2.60817,0.634527
0.776277,0.279669,0.429928,-2.34575,-0.172452,2.60817,0.634527
0.776275,0.279669,0.429933,-2.34575,-0.172456,2.60817,0.634528
0.776273,0.279668,0.429933,-2.34575,-0.172457,2.60817,0.634529
0.776276,0.279669,0.429928,-2.34575,-0.172458,2.60817,0.634524
0.776276,0.279666,0.429931,-2.34575,-0.172462,2.60817,0.634525
0.776273,0.279669,0.429933,-2.34575,-0.172464,2.60817,0.63453
0.776276,0.279675,0.429934,-2.34574,-0.172459,2.60817,0.634528
0.776282,0.279675,0.429932,-2.34575,-0.172463,2.60817,0.634525
0.776282,0.279672,0.429935,-2.34575,-0.172462,2.60817,0.634528
0.776276,0.27968,0.429937,-2.34575,-0.172463,2.60817,0.634525
0.776276,0.279678,0.429931,-2.34575,-0.172465,2.60817,0.634526
0.776282,0.279676,0.429934,-2.34575,-0.172465,2.60817,0.634528
0.776279,0.27968,0.429934,-2.34575,-0.172467,2.60817,0.634527
0.776278,0.279681,0.429937,-2.34575,-0.172467,2.60817,0.634525
0.776282,0.279676,0.429942,-2.34575,-0.172469,2.60817,0.634528
0.776279,0.279681,0.429938,-2.34575,-0.172469,2.60817,0.63453
0.776281,0.279675,0.429935,-2.34574,-0.172469,2.60817,0.634528
0.776282,0.279683,0.429934,-2.34575,-0.172473,2.60817,0.634525
0.776283,0.279682,0.429934,-2.34575,-0.172474,2.60817,0.634528
0.776279,0.279679,0.429939,-2.34575,-0.172473,2.60817,0.63453
0.776282,0.279679,0.429932,-2.34575,-0.172474,2.60817,0.634528
0.776284,0.279679,0.429929,-2.34576,-0.172473,2.60817,0.634525
0.776282,0.279681,0.429932,-2.34575,-0.172476,2.60817,0.634528
0.776279,0.279676,0.429937,-2.34576,-0.172478,2.60817,0.63453
0.77628,0.279684,0.429934,-2.34575,-0.17248,2.60817,0.634528
0.776276,0.279679,0.429933,-2.34575,-0.172482,2.60817,0.634526
0.776279,0.279677,0.429929,-2.34576,-0.172483,2.60817,0.634524
0.776279,0.279676,0.429934,-2.34576,-0.172484,2.60817,0.634522
0.776282,0.279673,0.429932,-2.34575,-0.172488,2.60817,0.634529
0.77628,0.27968,0.429937,-2.34575,-0.172488,2.60817,0.634523
0.776275,0.279671,0.429929,-2.34575,-0.172487,2.60817,0.634525
0.776271,0.279674,0.429932,-2.34576,-0.172489,2.60817,0.634526
0.776273,0.279671,0.429931,-2.34576,-0.172488,2.60817,0.634529
0.77628,0.279668,0.429927,-2.34575,-0.172491,2.60817,0.634526
0.776277,0.279671,0.429929,-2.34576,-0.172491,2.60817,0.634525
0.776276,0.27967,0.429931,-2.34576,-0.172493,2.60817,0.63453
0.776274,0.279671,0.429929,-2.34576,-0.172494,2.60817,0.634529
0.776276,0.279673,0.429928,-2.34576,-0.172493,2.60816,0.634525
0.776274,0.279679,0.429931,-2.34576,-0.172496,2.60817,0.634523
0.776279,0.279674,0.429929,-2.34576,-0.172498,2.60816,0.634528
0.776272,0.279671,0.429929,-2.34576,-0.172499,2.60817,0.634528
0.776273,0.279671,0.429928,-2.34576,-0.172498,2.60817,0.634529
0.776274,0.279668,0.429929,-2.34576,-0.172503,2.60816,0.634525
0.776274,0.279671,0.429926,-2.34576,-0.172502,2.60817,0.634522
0.776276,0.279671,0.429926,-2.34576,-0.172503,2.60817,0.634524
0.776274,0.279671,0.429929,-2.34576,-0.172504,2.60817,0.63453
0.776276,0.279671,0.429928,-2.34577,-0.172507,2.60817,0.634531
0.776277,0.279668,0.429928,-2.34577,-0.172509,2.60817,0.634523
0.77627,0.279671,0.429928,-2.34576,-0.172512,2.60817,0.634525
0.776276,0.279668,0.429928,-2.34576,-0.172514,2.60817,0.634531
0.776271,0.279671,0.429928,-2.34577,-0.172514,2.60816,0.634525
0.776276,0.279676,0.429931,-2.34577,-0.172516,2.60816,0.634528
0.776274,0.279679,0.429926,-2.34576,-0.172519,2.60816,0.634528
0.776276,0.279671,0.429921,-2.34577,-0.172521,2.60817,0.634526
0.776274,0.279674,0.429929,-2.34577,-0.172525,2.60817,0.634528
0.776274,0.279671,0.429925,-2.34577,-0.172528,2.60817,0.634527
0.776269,0.279675,0.429928,-2.34576,-0.172527,2.60816,0.634522
0.776271,0.279676,0.429929,-2.34576,-0.172527,2.60816,0.634531
0.776273,0.279673,0.429931,-2.34577,-0.172532,2.60817,0.634528
0.776275,0.279676,0.429928,-2.34576,-0.172532,2.60817,0.634526
0.776274,0.279671,0.429926,-2.34576,-0.172536,2.60817,0.634528
0.776274,0.279676,0.429923,-2.34576,-0.172535,2.60817,0.634531
0.77627,0.279674,0.429926,-2.34576,-0.172539,2.60817,0.634528
0.776274,0.279671,0.429928,-2.34576,-0.172544,2.60817,0.634528
0.776279,0.279676,0.429926,-2.34576,-0.172544,2.60817,0.634528
0.776272,0.279678,0.429928,-2.34576,-0.172549,2.60817,0.634528
0.776276,0.279677,0.429926,-2.34576,-0.172551,2.60817,0.634524
0.776275,0.279679,0.429925,-2.34576,-0.17255,2.60817,0.634529
0.776274,0.279684,0.429931,-2.34575,-0.172552,2.60816,0.63453
0.776273,0.279682,0.429928,-2.34575,-0.172555,2.60816,0.634525
0.776271,0.279679,0.429928,-2.34575,-0.172556,2.60816,0.634527
0.776265,0.279684,0.429923,-2.34575,-0.172561,2.60817,0.634531
0.776273,0.279685,0.429924,-2.34575,-0.172561,2.60817,0.634528
0.776271,0.279685,0.429926,-2.34575,-0.172559,2.60817,0.634525
0.776271,0.279689,0.429926,-2.34575,-0.172565,2.60817,0.634525
0.776268,0.279683,0.429928,-2.34574,-0.172565,2.60817,0.634524
0.776273,0.279685,0.429923,-2.34574,-0.172565,2.60817,0.634528
0.776268,0.279689,0.429924,-2.34574,-0.172565,2.60817,0.63453
0.776268,0.279689,0.429923,-2.34574,-0.172568,2.60816,0.634528
0.776271,0.27969,0.42992,-2.34574,-0.172569,2.60817,0.634528
0.776273,0.279693,0.429923,-2.34574,-0.17257,2.60817,0.634524
0.776273,0.27969,0.429921,-2.34574,-0.17257,2.60817,0.634525
0.776271,0.27969,0.429922,-2.34574,-0.172569,2.60817,0.634522
0.776263,0.279694,0.42992,-2.34574,-0.172572,2.60817,0.634521
0.77627,0.279695,0.429922,-2.34574,-0.17257,2.60817,0.634529
0.77627,0.279696,0.42992,-2.34574,-0.172571,2.60817,0.634529
0.776265,0.279699,0.429922,-2.34573,-0.172568,2.60817,0.634526
0.776262,0.279693,0.429922,-2.34574,-0.172569,2.60817,0.634525
0.776265,0.279696,0.429922,-2.34574,-0.172569,2.60817,0.634527
0.776265,0.279702,0.429922,-2.34573,-0.172567,2.60817,0.634527
0.776265,0.279696,0.42992,-2.34573,-0.172567,2.60817,0.634529
0.776263,0.279702,0.429917,-2.34573,-0.17257,2.60817,0.634529
0.776259,0.279705,0.429917,-2.34573,-0.172568,2.60817,0.634525
0.776264,0.279702,0.429917,-2.34572,-0.172568,2.60817,0.63453
0.776259,0.27971,0.429917,-2.34572,-0.172571,2.60817,0.63453
0.776261,0.279711,0.429914,-2.34572,-0.172568,2.60817,0.634524
0.776259,0.279714,0.429917,-2.34572,-0.172571,2.60817,0.634529
0.776259,0.279712,0.42992,-2.34572,-0.172568,2.60817,0.634528
0.776259,0.279709,0.42992,-2.34572,-0.172566,2.60817,0.634529
0.776256,0.279712,0.429914,-2.34572,-0.172567,2.60817,0.634529
0.776261,0.279715,0.42992,-2.34571,-0.172566,2.60817,0.634524
0.776259,0.279717,0.429919,-2.34571,-0.172566,2.60817,0.634526
0.776261,0.279718,0.429919,-2.34571,-0.172567,2.60817,0.634532
0.776259,0.279723,0.429916,-2.3457,-0.172569,2.60817,0.634528
0.776261,0.279719,0.429916,-2.3457,-0.172569,2.60817,0.634528
0.776259,0.279723,0.429918,-2.3457,-0.172568,2.60817,0.634528
0.776263,0.279725,0.429919,-2.34569,-0.172569,2.60817,0.634528
0.776261,0.279724,0.429916,-2.34569,-0.172568,2.60817,0.63453
0.776262,0.27973,0.429917,-2.34569,-0.172566,2.60816,0.634529
0.776264,0.279728,0.429918,-2.34568,-0.172566,2.60816,0.634526
0.776266,0.279734,0.429918,-2.34568,-0.172565,2.60816,0.634531
0.776261,0.279733,0.429919,-2.34569,-0.172568,2.60816,0.63453
0.776265,0.279736,0.429916,-2.34568,-0.172567,2.60817,0.634528
0.776261,0.279739,0.429916,-2.34567,-0.172566,2.60816,0.634528
0.776258,0.279735,0.429917,-2.34567,-0.172566,2.60817,0.634531
0.776261,0.279745,0.429918,-2.34567,-0.172567,2.60817,0.634526
0.77626,0.279741,0.429913,-2.34566,-0.172567,2.60817,0.634529
0.776262,0.279743,0.429913,-2.34567,-0.172565,2.60816,0.634528
0.776263,0.279753,0.429916,-2.34566,-0.172566,2.60817,0.634528
0.776266,0.279758,0.42992,-2.34566,-0.172569,2.60816,0.634532
0.77627,0.279756,0.429919,-2.34565,-0.172566,2.60816,0.634526
0.77627,0.279757,0.429919,-2.34565,-0.172566,2.60816,0.634529
0.776269,0.279762,0.429924,-2.34565,-0.172566,2.60816,0.634529
0.776265,0.279765,0.429924,-2.34564,-0.172566,2.60816,0.634525
0.77627,0.279769,0.429923,-2.34564,-0.172567,2.60816,0.634528
0.776277,0.279772,0.429921,-2.34564,-0.172567,2.60817,0.634529
0.776272,0.279775,0.429927,-2.34564,-0.172566,2.60816,0.634529
0.776273,0.279781,0.429925,-2.34564,-0.172567,2.60816,0.634526
0.776273,0.279785,0.429927,-2.34563,-0.172566,2.60816,0.634528
0.776272,0.279788,0.429925,-2.34563,-0.172566,2.60817,0.634526
0.776276,0.279794,0.429925,-2.34563,-0.172568,2.60816,0.63453
0.776278,0.279798,0.429929,-2.34563,-0.17257,2.60816,0.634527
0.776284,0.2798,0.429925,-2.34563,-0.172572,2.60816,0.634529
0.776282,0.279802,0.429921,-2.34562,-0.172572,2.60816,0.634529
0.776281,0.279804,0.429927,-2.34563,-0.17257,2.60817,0.634529
0.776289,0.279808,0.429925,-2.34562,-0.172571,2.60816,0.634524
0.776285,0.279811,0.429928,-2.34562,-0.17257,2.60816,0.634529
0.77629,0.279817,0.42993,-2.34562,-0.172571,2.60816,0.634527
0.77629,0.279812,0.429933,-2.34562,-0.172569,2.60816,0.634525
0.776288,0.279814,0.429931,-2.34562,-0.172573,2.60816,0.63453
0.776296,0.279813,0.429936,-2.34562,-0.172574,2.60816,0.634532
0.776293,0.279818,0.429939,-2.34562,-0.172574,2.60816,0.634528
0.776293,0.27982,0.429934,-2.34562,-0.172576,2.60816,0.634529
0.776296,0.279821,0.429939,-2.34562,-0.172575,2.60816,0.634522
0.776291,0.279822,0.429942,-2.34562,-0.172575,2.60816,0.634525
0.776299,0.279824,0.429935,-2.34562,-0.172575,2.60816,0.634529
0.776296,0.279824,0.429935,-2.34562,-0.172576,2.60817,0.634525
0.7763,0.279822,0.429937,-2.34562,-0.172576,2.60816,0.634526
0.7763,0.279824,0.429935,-2.34562,-0.172575,2.60816,0.63453
0.776302,0.27982,0.429939,-2.34562,-0.172577,2.60816,0.634529
0.776303,0.279822,0.42994,-2.34562,-0.17258,2.60816,0.634523
0.776305,0.279824,0.429935,-2.34562,-0.17258,2.60816,0.634525
0.776309,0.279825,0.42994,-2.34562,-0.172581,2.60816,0.634531
0.776306,0.27983,0.429943,-2.34562,-0.172582,2.60816,0.634529
0.776304,0.279825,0.429938,-2.34562,-0.172584,2.60816,0.634525
0.776309,0.279825,0.429942,-2.34562,-0.172586,2.60816,0.634525
0.776305,0.279828,0.429938,-2.34562,-0.172582,2.60817,0.63453
0.776307,0.279828,0.42994,-2.34562,-0.172581,2.60816,0.634528
0.776309,0.279825,0.429945,-2.34562,-0.172585,2.60817,0.634527
0.776313,0.279825,0.429943,-2.34563,-0.172585,2.60816,0.634529
0.776313,0.27983,0.429946,-2.34562,-0.172589,2.60816,0.63453
0.776316,0.279827,0.429936,-2.34562,-0.172588,2.60816,0.634527
0.77631,0.279831,0.429938,-2.34563,-0.172589,2.60816,0.634529
0.77631,0.279826,0.42994,-2.34562,-0.172591,2.60816,0.63453
0.776316,0.279823,0.429945,-2.34563,-0.172591,2.60816,0.634525
0.776313,0.279823,0.429943,-2.34562,-0.172591,2.60816,0.634525
0.776316,0.279825,0.429943,-2.34563,-0.17259,2.60816,0.634532
0.776316,0.279826,0.429941,-2.34563,-0.172595,2.60816,0.634527
0.776319,0.279821,0.429941,-2.34563,-0.172595,2.60816,0.634528
0.776322,0.279825,0.429941,-2.34563,-0.172596,2.60816,0.634529
0.776317,0.279825,0.429943,-2.34563,-0.172599,2.60816,0.634528
0.776312,0.279826,0.429943,-2.34563,-0.172601,2.60816,0.634526
0.776319,0.279823,0.429936,-2.34563,-0.172603,2.60816,0.634528
0.776317,0.279823,0.429946,-2.34563,-0.172603,2.60816,0.634529
0.776314,0.279818,0.429938,-2.34563,-0.1726,2.60816,0.634522
0.776314,0.279821,0.42994,-2.34562,-0.172603,2.60816,0.634526
0.776314,0.27982,0.429947,-2.34562,-0.172607,2.60817,0.634531
0.77632,0.279823,0.429941,-2.34562,-0.172606,2.60816,0.634527
0.776315,0.279822,0.429943,-2.34562,-0.172608,2.60816,0.634525
0.776315,0.27982,0.429941,-2.34562,-0.172613,2.60816,0.634528
0.776319,0.279818,0.429938,-2.34562,-0.172615,2.60816,0.634532
0.776315,0.279823,0.429938,-2.34562,-0.172617,2.60816,0.634525
0.776315,0.279825,0.429943,-2.34562,-0.172616,2.60816,0.634526
0.776314,0.27982,0.429939,-2.34562,-0.172618,2.60816,0.634529
0.776312,0.279818,0.429939,-2.34562,-0.17262,2.60816,0.634527
0.776314,0.27982,0.42994,-2.34562,-0.172622,2.60816,0.634526
0.776314,0.279818,0.429941,-2.34562,-0.172624,2.60816,0.634529
0.776312,0.279822,0.429933,-2.34563,-0.172627,2.60816,0.634529
0.776312,0.27982,0.429935,-2.34562,-0.172629,2.60816,0.634531
0.776312,0.279818,0.429932,-2.34562,-0.172629,2.60816,0.634532
0.776308,0.279823,0.429933,-2.34562,-0.172631,2.60816,0.634527
0.776312,0.279822,0.429933,-2.34562,-0.172633,2.60816,0.634526
0.776309,0.279818,0.429932,-2.34562,-0.172634,2.60816,0.634531
0.776312,0.279822,0.429938,-2.34562,-0.172636,2.60816,0.634532
0.776307,0.279828,0.429935,-2.34562,-0.172637,2.60816,0.634525
0.776303,0.27982,0.429925,-2.34562,-0.172641,2.60816,0.634527
0.776303,0.279826,0.429932,-2.34561,-0.172642,2.60816,0.63453
0.776303,0.279823,0.429932,-2.34562,-0.172643,2.60816,0.63453
0.776303,0.279824,0.429927,-2.34561,-0.172642,2.60816,0.634525
0.776308,0.279822,0.42993,-2.34562,-0.172646,2.60816,0.634531
0.7763,0.279826,0.429929,-2.34561,-0.172646,2.60816,0.634531
0.776307,0.279828,0.429929,-2.34562,-0.172647,2.60816,0.634524
0.776303,0.279826,0.429926,-2.34561,-0.172646,2.60816,0.634526
0.776306,0.279826,0.429924,-2.34561,-0.172649,2.60816,0.634529
0.7763,0.279831,0.429926,-2.34561,-0.17265,2.60817,0.634524
0.776303,0.279828,0.429919,-2.34561,-0.172651,2.60817,0.634525
0.776303,0.279828,0.42992,-2.3456,-0.172652,2.60817,0.634529
0.776297,0.279836,0.429916,-2.34561,-0.172654,2.60817,0.634527
0.776303,0.279831,0.42992,-2.3456,-0.172653,2.60817,0.634526
0.776303,0.279833,0.429923,-2.3456,-0.172655,2.60817,0.634531
0.7763,0.279838,0.429922,-2.3456,-0.172655,2.60816,0.634526
0.776303,0.279837,0.42992,-2.3456,-0.172654,2.60816,0.634528
0.776294,0.279842,0.429925,-2.3456,-0.172655,2.60817,0.634529
0.776291,0.279846,0.429917,-2.34559,-0.172655,2.60817,0.634529
0.776294,0.279849,0.429917,-2.34559,-0.172657,2.60817,0.634528
0.776294,0.279848,0.42992,-2.34559,-0.172657,2.60817,0.634531
0.776293,0.279857,0.42992,-2.34558,-0.172659,2.60817,0.63453
0.776296,0.279852,0.429917,-2.34558,-0.17266,2.60817,0.634528
0.776291,0.279857,0.429916,-2.34558,-0.172656,2.60817,0.634531
0.776296,0.279861,0.429914,-2.34557,-0.172654,2.60817,0.634529
0.776293,0.279853,0.429911,-2.34557,-0.172655,2.60817,0.634526
0.776291,0.279864,0.429911,-2.34557,-0.172657,2.60817,0.634528
0.776293,0.279866,0.429915,-2.34556,-0.172658,2.60817,0.634532
0.776296,0.279869,0.429911,-2.34555,-0.172658,2.60817,0.634525
0.776293,0.279873,0.429908,-2.34556,-0.172658,2.60817,0.634528
0.776291,0.279875,0.429909,-2.34554,-0.172654,2.60817,0.634532
0.776294,0.279879,0.429911,-2.34554,-0.172657,2.60817,0.634528
0.776293,0.279888,0.42991,-2.34553,-0.172658,2.60817,0.634525
0.776298,0.279886,0.429918,-2.34552,-0.172655,2.60817,0.63453
0.776293,0.279892,0.429911,-2.34552,-0.172657,2.60817,0.634527
0.776293,0.279898,0.429913,-2.34551,-0.172654,2.60817,0.634529
0.776296,0.279901,0.42991,-2.34551,-0.172656,2.60816,0.634528
0.776299,0.279909,0.429913,-2.34551,-0.172656,2.60816,0.63453
0.776289,0.279908,0.429912,-2.3455,-0.172657,2.60816,0.63453
0.776293,0.279911,0.429911,-2.34549,-0.172654,2.60816,0.63453
0.776296,0.279918,0.429913,-2.34549,-0.172656,2.60816,0.63453
0.776301,0.27992,0.429913,-2.34548,-0.172657,2.60816,0.634525
0.776299,0.279924,0.429913,-2.34547,-0.172657,2.60816,0.63453
0.776293,0.279929,0.429913,-2.34547,-0.172658,2.60816,0.634532
0.776299,0.279935,0.429916,-2.34546,-0.172657,2.60816,0.634529
0.776302,0.279942,0.429918,-2.34546,-0.172654,2.60816,0.634524
0.776304,0.279943,0.429916,-2.34545,-0.172657,2.60816,0.634529
0.776304,0.279949,0.429915,-2.34544,-0.172657,2.60816,0.634532
0.776307,0.279951,0.429916,-2.34543,-0.172656,2.60816,0.634528
0.776305,0.279958,0.429921,-2.34543,-0.172653,2.60816,0.634527
0.776307,0.279967,0.429916,-2.34543,-0.172654,2.60816,0.63453
0.776308,0.279969,0.429922,-2.34541,-0.172656,2.60815,0.634528
0.77631,0.279978,0.429924,-2.3454,-0.172656,2.60815,0.63453
0.776308,0.279988,0.429919,-2.3454,-0.172657,2.60815,0.634534
0.776313,0.279988,0.429921,-2.34539,-0.172654,2.60815,0.634531
0.776316,0.279994,0.429927,-2.34539,-0.172656,2.60815,0.634531
0.776309,0.279995,0.429922,-2.34538,-0.172654,2.60815,0.634525
0.776315,0.280001,0.429927,-2.34538,-0.172657,2.60815,0.634525
0.776316,0.280013,0.429924,-2.34537,-0.172657,2.60815,0.634533
0.776314,0.280014,0.429928,-2.34536,-0.172658,2.60815,0.634526
0.776316,0.280017,0.42993,-2.34536,-0.172655,2.60815,0.634524
0.776323,0.280025,0.429933,-2.34535,-0.172658,2.60815,0.634531
0.776321,0.280029,0.429931,-2.34534,-0.172653,2.60815,0.634526
0.776319,0.280044,0.429934,-2.34533,-0.172658,2.60815,0.634532
0.776325,0.280049,0.429934,-2.34532,-0.172658,2.60815,0.634527
0.776322,0.280055,0.429937,-2.34531,-0.172658,2.60815,0.634531
0.776322,0.280063,0.429939,-2.34531,-0.172658,2.60815,0.634533
0.776325,0.28007,0.42994,-2.3453,-0.172658,2.60815,0.634534
0.776334,0.28008,0.429946,-2.34529,-0.172656,2.60815,0.634526
0.776331,0.280084,0.429943,-2.34528,-0.172658,2.60815,0.634533
0.776334,0.280087,0.429951,-2.34528,-0.172659,2.60815,0.634534
0.77634,0.280099,0.429952,-2.34526,-0.172658,2.60815,0.634527
0.776343,0.280105,0.42995,-2.34526,-0.172659,2.60815,0.63453
0.776341,0.28011,0.429955,-2.34525,-0.172659,2.60815,0.634531
0.776346,0.280112,0.42995,-2.34525,-0.172659,2.60815,0.63453
0.776341,0.280113,0.429957,-2.34524,-0.172659,2.60815,0.634529
0.776344,0.280124,0.429955,-2.34523,-0.172658,2.60815,0.634534
0.776347,0.280124,0.429963,-2.34523,-0.17266,2.60815,0.634536
0.77635,0.280133,0.429958,-2.34522,-0.172656,2.60815,0.634531
0.776352,0.280134,0.429963,-2.34522,-0.172656,2.60815,0.634529
0.776353,0.280138,0.429954,-2.34521,-0.172659,2.60815,0.63453
0.776353,0.280144,0.429964,-2.3452,-0.172658,2.60815,0.634529
0.776357,0.280147,0.429965,-2.34519,-0.172659,2.60815,0.634528
0.776362,0.280156,0.429965,-2.34519,-0.172658,2.60816,0.634532
0.77636,0.280159,0.429967,-2.34518,-0.172658,2.60816,0.63453
0.776365,0.280161,0.429967,-2.34518,-0.172658,2.60816,0.634532
0.776366,0.280166,0.429973,-2.34517,-0.172658,2.60815,0.634533
0.776366,0.280173,0.429976,-2.34516,-0.172658,2.60815,0.634538
0.776372,0.280183,0.429972,-2.34515,-0.172658,2.60816,0.634527
0.77637,0.28018,0.42998,-2.34515,-0.172657,2.60816,0.63453
0.776375,0.280192,0.429978,-2.34514,-0.172658,2.60816,0.634533
0.776378,0.280195,0.42998,-2.34513,-0.172658,2.60816,0.634533
0.776377,0.280203,0.429978,-2.34512,-0.172658,2.60816,0.634529
0.77639,0.280205,0.429989,-2.34511,-0.172658,2.60816,0.634531
0.776388,0.280208,0.429979,-2.3451,-0.172658,2.60816,0.634534
0.776386,0.280217,0.429981,-2.3451,-0.172653,2.60815,0.634535
0.776391,0.280228,0.429984,-2.34508,-0.172655,2.60815,0.634529
0.776394,0.28023,0.429989,-2.34508,-0.172656,2.60816,0.634531
0.7764,0.280238,0.429988,-2.34507,-0.172657,2.60816,0.634532
0.776404,0.280242,0.429995,-2.34506,-0.172657,2.60816,0.63453
0.776406,0.280249,0.429993,-2.34505,-0.172658,2.60816,0.634532
0.77641,0.280255,0.429996,-2.34504,-0.172661,2.60816,0.63453
0.776416,0.28026,0.430002,-2.34504,-0.172659,2.60816,0.634534
0.776417,0.280263,0.429999,-2.34503,-0.172657,2.60816,0.634529
0.77642,0.280272,0.430003,-2.34502,-0.172658,2.60816,0.634532
0.776428,0.280276,0.430003,-2.34501,-0.172654,2.60816,0.634528
0.776429,0.280281,0.430004,-2.34499,-0.172657,2.60816,0.634529
0.776435,0.280288,0.430009,-2.34498,-0.172657,2.60816,0.634534
0.776433,0.280294,0.430014,-2.34498,-0.172654,2.60816,0.634535
0.776439,0.2803,0.430012,-2.34497,-0.172656,2.60816,0.634533
0.776442,0.280306,0.430013,-2.34496,-0.172657,2.60816,0.634531
0.77645,0.28031,0.430016,-2.34495,-0.172657,2.60816,0.634536
0.776449,0.280319,0.430021,-2.34494,-0.172658,2.60816,0.634536
0.776449,0.280325,0.430027,-2.34493,-0.172658,2.60816,0.634533
0.776457,0.280328,0.43003,-2.34492,-0.172657,2.60816,0.634532
0.776458,0.280337,0.430033,-2.34492,-0.172657,2.60816,0.634535
0.776461,0.280341,0.430039,-2.3449,-0.172659,2.60816,0.634537
0.77647,0.280342,0.43004,-2.3449,-0.172659,2.60816,0.634532
0.776474,0.280348,0.430045,-2.34489,-0.172658,2.60816,0.634529
0.77648,0.28036,0.43005,-2.34487,-0.172657,2.60816,0.634531
0.776481,0.280366,0.430056,-2.34486,-0.172658,2.60816,0.634532
0.776485,0.280372,0.430056,-2.34484,-0.172658,2.60816,0.634537
0.776492,0.28038,0.430055,-2.34483,-0.172659,2.60816,0.634533
0.776496,0.280383,0.430063,-2.34483,-0.172659,2.60816,0.634531
0.776501,0.280391,0.430066,-2.34482,-0.172659,2.60816,0.634536
0.7765,0.280396,0.430072,-2.34481,-0.172663,2.60816,0.634539
0.776506,0.280405,0.43007,-2.3448,-0.17266,2.60816,0.63453
0.776511,0.280411,0.430078,-2.34478,-0.17266,2.60816,0.634531
0.77651,0.280418,0.430078,-2.34478,-0.172663,2.60816,0.634535
0.776518,0.280432,0.430079,-2.34477,-0.172661,2.60816,0.634536
0.776522,0.280441,0.43009,-2.34476,-0.172661,2.60816,0.634534
0.77653,0.280454,0.430092,-2.34473,-0.17266,2.60816,0.634532
0.776532,0.280467,0.430103,-2.34471,-0.17266,2.60816,0.634531
0.776547,0.280484,0.430106,-2.34469,-0.172664,2.60816,0.634528
0.776551,0.28051,0.430113,-2.34467,-0.172664,2.60816,0.634532
0.776554,0.280512,0.430117,-2.34466,-0.172666,2.60816,0.634535
0.776552,0.280522,0.430121,-2.34465,-0.172666,2.60816,0.634528
0.776566,0.280534,0.430123,-2.34463,-0.172667,2.60817,0.634532
0.776569,0.280544,0.430129,-2.34462,-0.17267,2.60816,0.634534
0.776573,0.280563,0.430131,-2.3446,-0.172668,2.60816,0.634532
0.776579,0.280572,0.430128,-2.34459,-0.172671,2.60817,0.63453
0.776584,0.280582,0.430134,-2.34458,-0.172669,2.60816,0.634535
0.77658,0.280589,0.430139,-2.34456,-0.172672,2.60816,0.634533
0.776587,0.280598,0.43014,-2.34456,-0.172672,2.60817,0.63453
0.776586,0.280611,0.430141,-2.34454,-0.172676,2.60817,0.634532
0.776596,0.280627,0.430149,-2.34452,-0.172677,2.60817,0.634527
0.776602,0.280631,0.43015,-2.34451,-0.172677,2.60817,0.63453
0.776607,0.280655,0.430156,-2.34448,-0.17268,2.60817,0.634533
0.776613,0.280671,0.430158,-2.34446,-0.172682,2.60816,0.634534
0.776613,0.280684,0.430157,-2.34445,-0.172685,2.60816,0.634532
0.776623,0.280693,0.430162,-2.34443,-0.172686,2.60816,0.63453
0.776628,0.280707,0.430167,-2.34441,-0.172691,2.60817,0.634531
0.77663,0.280721,0.430169,-2.3444,-0.172692,2.60817,0.634532
0.776635,0.28073,0.430167,-2.34438,-0.172694,2.60817,0.634532
0.77664,0.280746,0.430172,-2.34437,-0.172699,2.60817,0.634533
0.776642,0.280748,0.430174,-2.34436,-0.1727,2.60816,0.634529
0.776649,0.280763,0.430175,-2.34435,-0.172701,2.60816,0.634532
0.77665,0.280765,0.430181,-2.34433,-0.172704,2.60816,0.634529
0.77665,0.280782,0.430184,-2.34432,-0.172704,2.60816,0.634531
0.776656,0.280792,0.430184,-2.3443,-0.172709,2.60816,0.634532
0.776656,0.280808,0.430188,-2.34429,-0.17271,2.60816,0.634533
0.776666,0.280827,0.430188,-2.34426,-0.172715,2.60816,0.634536
0.776672,0.280837,0.430191,-2.34425,-0.172718,2.60816,0.634531
0.77667,0.280849,0.430197,-2.34423,-0.172718,2.60816,0.634532
0.776676,0.280859,0.430195,-2.34422,-0.172726,2.60816,0.634536
0.776677,0.280872,0.430198,-2.34421,-0.172728,2.60816,0.634528
0.776684,0.280881,0.430201,-2.34419,-0.172731,2.60817,0.634528
0.776693,0.280894,0.430203,-2.34418,-0.172736,2.60817,0.634537
0.776686,0.280906,0.430202,-2.34417,-0.172738,2.60816,0.634536
0.776692,0.280916,0.430212,-2.34416,-0.172742,2.60816,0.634532
0.776692,0.280931,0.43021,-2.34415,-0.172748,2.60816,0.634533
0.7767,0.280941,0.430216,-2.34413,-0.172752,2.60816,0.634533
0.776702,0.280949,0.430213,-2.34412,-0.172756,2.60816,0.634534
0.776706,0.280958,0.430224,-2.34411,-0.17276,2.60816,0.634533
0.776704,0.28097,0.430226,-2.34409,-0.172766,2.60816,0.634534
0.776715,0.28098,0.430225,-2.34407,-0.172767,2.60816,0.634536
0.776714,0.28099,0.430232,-2.34406,-0.172765,2.60816,0.634534
0.776714,0.281,0.430235,-2.34405,-0.172773,2.60816,0.634532
0.776717,0.281015,0.430236,-2.34403,-0.172775,2.60816,0.63453
0.776723,0.281025,0.430241,-2.34402,-0.17278,2.60816,0.634534
0.776724,0.28104,0.430242,-2.34401,-0.172786,2.60816,0.634533
0.77673,0.281048,0.430247,-2.34399,-0.172788,2.60816,0.634536
0.776741,0.281073,0.430254,-2.34397,-0.172791,2.60816,0.634528
0.776736,0.28109,0.430257,-2.34395,-0.172794,2.60816,0.634532
0.776742,0.281101,0.430261,-2.34393,-0.172797,2.60816,0.634534
0.776743,0.281108,0.430264,-2.34392,-0.1728,2.60816,0.634535
0.776751,0.281123,0.430267,-2.34391,-0.172802,2.60816,0.63453
0.776757,0.281136,0.430268,-2.34389,-0.172802,2.60816,0.634534
0.77676,0.281151,0.430276,-2.34388,-0.172801,2.60816,0.634539
0.776765,0.281164,0.430279,-2.34386,-0.172808,2.60816,0.634535
0.776764,0.281178,0.430283,-2.34385,-0.17281,2.60816,0.634531
0.776774,0.281197,0.430289,-2.34382,-0.172814,2.60816,0.634532
0.776777,0.281211,0.430292,-2.3438,-0.172815,2.60816,0.634532
0.776784,0.281223,0.430299,-2.34379,-0.172817,2.60816,0.634529
0.77679,0.281246,0.430306,-2.34375,-0.172818,2.60816,0.634536
0.776796,0.281261,0.430311,-2.34374,-0.17282,2.60816,0.634532
0.776802,0.281276,0.43031,-2.34372,-0.172823,2.60816,0.634531
0.776805,0.281286,0.430321,-2.3437,-0.172822,2.60816,0.634533
0.776818,0.281315,0.430324,-2.34367,-0.172821,2.60816,0.634532
0.776816,0.281331,0.430331,-2.34365,-0.172826,2.60816,0.634535
0.776824,0.281343,0.430331,-2.34363,-0.172825,2.60816,0.634537
0.776828,0.281356,0.430332,-2.34361,-0.172826,2.60816,0.634532
0.776834,0.281386,0.430348,-2.34358,-0.172827,2.60816,0.634533
0.77684,0.281401,0.430353,-2.34356,-0.172825,2.60816,0.634535
0.776847,0.281427,0.430359,-2.34353,-0.172829,2.60816,0.634532
0.776849,0.281442,0.430366,-2.34351,-0.17283,2.60816,0.634532
0.776851,0.281453,0.430371,-2.3435,-0.172831,2.60816,0.634535
0.77686,0.281471,0.430375,-2.34348,-0.172832,2.60816,0.634532
0.776866,0.281494,0.430383,-2.34345,-0.172833,2.60816,0.634535
0.776868,0.281533,0.430389,-2.34341,-0.172832,2.60816,0.63453
0.776874,0.281547,0.430398,-2.34339,-0.172835,2.60816,0.634534
0.776882,0.281562,0.430401,-2.34337,-0.172837,2.60816,0.634537
0.776892,0.281594,0.430408,-2.34333,-0.172836,2.60815,0.634534
0.77689,0.281605,0.430414,-2.34332,-0.172835,2.60816,0.634536
0.776893,0.281621,0.430421,-2.3433,-0.172836,2.60815,0.634535
0.776893,0.281638,0.430428,-2.34328,-0.172836,2.60816,0.634527
0.776901,0.281652,0.430436,-2.34326,-0.172839,2.60815,0.634531
0.776899,0.281673,0.430436,-2.34324,-0.17284,2.60816,0.634535
0.776905,0.281685,0.430445,-2.34322,-0.17284,2.60816,0.634533
0.776909,0.281705,0.430452,-2.34321,-0.17284,2.60816,0.634527
0.77691,0.281716,0.430448,-2.34319,-0.172841,2.60816,0.634534
0.776915,0.281732,0.430459,-2.34317,-0.172841,2.60816,0.634533
0.776915,0.281765,0.430465,-2.34313,-0.172839,2.60815,0.634531
0.776916,0.28178,0.430472,-2.34311,-0.172839,2.60816,0.634531
0.77692,0.281792,0.430481,-2.34309,-0.172839,2.60816,0.634533
0.776925,0.281815,0.430476,-2.34307,-0.172841,2.60815,0.634529
0.776929,0.281843,0.430485,-2.34303,-0.17284,2.60815,0.634536
0.776929,0.281856,0.430493,-2.34301,-0.17284,2.60816,0.634531
0.776931,0.281874,0.430495,-2.343,-0.17284,2.60816,0.634528
0.776931,0.281892,0.430498,-2.34298,-0.172838,2.60815,0.634534
0.776937,0.281904,0.430501,-2.34295,-0.172842,2.60816,0.634535
0.776933,0.281923,0.430512,-2.34294,-0.172839,2.60816,0.634532
0.77694,0.281941,0.430506,-2.34292,-0.172838,2.60816,0.63453
0.776939,0.281952,0.430517,-2.34289,-0.172838,2.60816,0.634535
0.776938,0.281965,0.430525,-2.34288,-0.172839,2.60816,0.634534
0.776945,0.281994,0.430531,-2.34284,-0.172836,2.60815,0.634531
0.776945,0.282024,0.430536,-2.3428,-0.172842,2.60815,0.634538
0.776945,0.282044,0.430545,-2.34278,-0.172841,2.60816,0.634532
0.776954,0.282063,0.43055,-2.34276,-0.172838,2.60816,0.634532
0.776949,0.282079,0.430556,-2.34274,-0.172842,2.60815,0.634537
0.776954,0.282097,0.430558,-2.34272,-0.172838,2.60816,0.634532
0.776955,0.282108,0.430556,-2.3427,-0.172837,2.60816,0.634532
0.776957,0.282124,0.430565,-2.34268,-0.17284,2.60816,0.634532
0.77696,0.282138,0.430573,-2.34266,-0.172841,2.60816,0.634537
0.776958,0.282155,0.430574,-2.34264,-0.172837,2.60815,0.634529
0.776955,0.282178,0.430577,-2.34262,-0.172835,2.60816,0.634532
0.776961,0.282188,0.430588,-2.3426,-0.172838,2.60816,0.634535
0.776961,0.282206,0.430587,-2.34258,-0.172842,2.60816,0.634537
0.776963,0.282225,0.430593,-2.34257,-0.172837,2.60816,0.634534
0.776961,0.282233,0.430596,-2.34254,-0.172835,2.60816,0.634534
0.776967,0.282254,0.430599,-2.34252,-0.172837,2.60815,0.634539
0.776964,0.282271,0.430603,-2.34251,-0.172834,2.60815,0.634534
0.776967,0.282281,0.430606,-2.34248,-0.172836,2.60816,0.634533
0.77697,0.282299,0.430612,-2.34246,-0.172832,2.60816,0.634536
0.776967,0.282316,0.430613,-2.34245,-0.172835,2.60816,0.634538
0.776963,0.282332,0.430622,-2.34242,-0.172834,2.60816,0.634534
0.776971,0.282346,0.430625,-2.3424,-0.172834,2.60815,0.634536
0.776968,0.282364,0.430632,-2.34238,-0.172834,2.60815,0.634539
0.776968,0.282382,0.430638,-2.34236,-0.172835,2.60816,0.634536
0.776971,0.282395,0.430638,-2.34234,-0.172832,2.60815,0.634536
0.776968,0.282412,0.430642,-2.34232,-0.172833,2.60815,0.634538
0.776973,0.282428,0.430645,-2.34231,-0.172834,2.60815,0.634539
0.776971,0.282438,0.430651,-2.34228,-0.172833,2.60816,0.634534
0.776972,0.282459,0.430656,-2.34227,-0.172834,2.60816,0.634541
0.776977,0.282469,0.430661,-2.34225,-0.172835,2.60815,0.63454
0.776976,0.282488,0.430666,-2.34222,-0.172834,2.60816,0.634537
0.776975,0.282504,0.430664,-2.34221,-0.172831,2.60816,0.634536
0.776976,0.282519,0.430668,-2.34219,-0.172829,2.60816,0.634541
0.776979,0.28253,0.430676,-2.34217,-0.172833,2.60815,0.634542
0.776978,0.282545,0.430674,-2.34214,-0.172831,2.60816,0.634539
0.776985,0.282556,0.43068,-2.34213,-0.17283,2.60815,0.634536
0.776979,0.282576,0.430683,-2.34211,-0.172833,2.60815,0.63454
0.776981,0.282588,0.430684,-2.34209,-0.172834,2.60815,0.634542
0.77698,0.282609,0.43069,-2.34206,-0.172833,2.60816,0.63454
0.776983,0.282619,0.43069,-2.34205,-0.172831,2.60816,0.634541
0.776988,0.282635,0.430699,-2.34203,-0.172829,2.60815,0.634543
0.776984,0.282651,0.4307,-2.34201,-0.17283,2.60816,0.634537
0.776989,0.282664,0.430703,-2.34198,-0.172829,2.60816,0.634539
0.77699,0.282682,0.430709,-2.34196,-0.172832,2.60815,0.634544
0.776992,0.282693,0.430711,-2.34194,-0.172834,2.60815,0.634543
0.776995,0.282712,0.430715,-2.34192,-0.172834,2.60815,0.634541
0.77699,0.28273,0.430724,-2.3419,-0.172834,2.60815,0.634541
0.77699,0.282746,0.430727,-2.34187,-0.17283,2.60815,0.634546
0.776993,0.282762,0.430729,-2.34185,-0.172833,2.60815,0.634545
0.776995,0.282775,0.430729,-2.34184,-0.172833,2.60815,0.634543
0.776994,0.282796,0.430736,-2.34182,-0.172834,2.60815,0.634543
0.776996,0.282812,0.430733,-2.34179,-0.172833,2.60815,0.634544
0.776993,0.282826,0.430741,-2.34178,-0.172834,2.60815,0.634541
0.776999,0.28284,0.430747,-2.34176,-0.172834,2.60815,0.634542
0.776996,0.282855,0.430748,-2.34174,-0.17283,2.60815,0.634544
0.776996,0.282873,0.430756,-2.34172,-0.172833,2.60815,0.634544
0.776997,0.282889,0.430759,-2.3417,-0.172833,2.60815,0.634541
0.776999,0.282903,0.430758,-2.34168,-0.172829,2.60815,0.634542
0.777005,0.282923,0.430766,-2.34166,-0.172833,2.60815,0.634545
0.777003,0.282932,0.430767,-2.34164,-0.17283,2.60815,0.63454
0.777003,0.282952,0.43077,-2.34162,-0.172833,2.60815,0.634544
0.777,0.282966,0.430775,-2.3416,-0.172833,2.60815,0.634547
0.777003,0.282979,0.430779,-2.34158,-0.17283,2.60815,0.634547
0.777002,0.282997,0.430777,-2.34156,-0.172829,2.60815,0.634542
0.777003,0.28301,0.430781,-2.34155,-0.172832,2.60815,0.634543
0.777001,0.283026,0.430789,-2.34153,-0.172833,2.60815,0.634552
0.777008,0.283042,0.43079,-2.3415,-0.17283,2.60815,0.63455
0.777006,0.283059,0.430799,-2.34149,-0.172832,2.60815,0.634543
0.777003,0.283074,0.430799,-2.34146,-0.172829,2.60815,0.634546
0.777008,0.28309,0.430803,-2.34145,-0.17283,2.60815,0.634548
0.777007,0.283111,0.430804,-2.34143,-0.172828,2.60815,0.634546
0.777006,0.283128,0.430808,-2.34141,-0.172829,2.60815,0.634543
0.777001,0.283141,0.430812,-2.34139,-0.172831,2.60815,0.634548
0.777006,0.283154,0.430815,-2.34137,-0.172834,2.60815,0.63455
0.777006,0.283169,0.430821,-2.34135,-0.172834,2.60815,0.634546
0.777009,0.283188,0.430827,-2.34134,-0.172831,2.60815,0.634544
0.777004,0.283199,0.430829,-2.34131,-0.17283,2.60815,0.634549
0.777004,0.283217,0.430826,-2.3413,-0.172834,2.60815,0.634544
0.777006,0.283248,0.430832,-2.34125,-0.172829,2.60815,0.63455
0.777006,0.283265,0.430835,-2.34124,-0.172829,2.60815,0.63455
0.777006,0.283281,0.430835,-2.34122,-0.172829,2.60815,0.634542
0.777012,0.283308,0.430844,-2.34118,-0.172829,2.60815,0.634551
0.777009,0.283327,0.430841,-2.34116,-0.172829,2.60815,0.63455
0.777007,0.283345,0.430844,-2.34113,-0.172829,2.60815,0.634543
0.777004,0.283361,0.430848,-2.34112,-0.172829,2.60815,0.634545
0.777014,0.283375,0.43085,-2.3411,-0.17283,2.60815,0.63455
0.77701,0.283393,0.430851,-2.34108,-0.172829,2.60815,0.634549
0.777013,0.283407,0.430859,-2.34106,-0.172828,2.60815,0.634544
0.777012,0.283428,0.430849,-2.34104,-0.172829,2.60815,0.634546
0.777009,0.283441,0.430859,-2.34102,-0.172828,2.60815,0.63455
0.77701,0.283455,0.43086,-2.341,-0.172827,2.60815,0.634548
0.777015,0.283475,0.430861,-2.34098,-0.17283,2.60815,0.634545
0.77701,0.283489,0.430863,-2.34096,-0.17283,2.60815,0.634548
0.777007,0.283507,0.430869,-2.34094,-0.172827,2.60815,0.634542
