ubt-ai3/franka-proxy/tools/visual_studio_2017/projects/record_save3.csv
j0,j1,j2,j3,j4,j5,j6
-1.63515,1.51612,1.38824,-2.02992,-1.59988,1.75771,-0.346151
-1.63515,1.51612,1.38824,-2.02992,-1.59987,1.75771,-0.346149
-1.63515,1.51612,1.38823,-2.02993,-1.59987,1.75771,-0.346149
-1.63516,1.51612,1.38824,-2.02992,-1.59987,1.75772,-0.346153
-1.63515,1.51612,1.38823,-2.02992,-1.59987,1.75772,-0.346149
-1.63516,1.51612,1.38824,-2.02993,-1.59988,1.75771,-0.346148
-1.63516,1.51612,1.38823,-2.02992,-1.59987,1.75772,-0.346149
-1.63515,1.51612,1.38823,-2.02993,-1.59987,1.75772,-0.346151
-1.63516,1.51612,1.38824,-2.02992,-1.59987,1.75771,-0.346152
-1.63515,1.51612,1.38823,-2.02992,-1.59987,1.75772,-0.346148
-1.63516,1.51612,1.38823,-2.02992,-1.59987,1.75772,-0.346148
-1.63515,1.51612,1.38824,-2.02992,-1.59987,1.75772,-0.346152
-1.63516,1.51612,1.38824,-2.02993,-1.59987,1.75772,-0.346154
-1.63515,1.51612,1.38824,-2.02992,-1.59987,1.75772,-0.34615
-1.63515,1.51612,1.38824,-2.02992,-1.59987,1.75772,-0.346149
-1.63515,1.51612,1.38824,-2.02992,-1.59987,1.75772,-0.34615
-1.63515,1.51612,1.38824,-2.02992,-1.59987,1.75772,-0.346152
-1.63515,1.51612,1.38823,-2.02992,-1.59987,1.75771,-0.34615
-1.63515,1.51613,1.38823,-2.02992,-1.59988,1.75772,-0.346147
-1.63515,1.51613,1.38824,-2.02993,-1.59987,1.75772,-0.346149
-1.63515,1.51612,1.38823,-2.02992,-1.59987,1.75772,-0.346155
-1.63515,1.51612,1.38823,-2.02993,-1.59988,1.75772,-0.346153
-1.63515,1.51613,1.38823,-2.02992,-1.59987,1.75772,-0.346147
-1.63515,1.51612,1.38823,-2.02992,-1.59987,1.75772,-0.346147
-1.63515,1.51612,1.38823,-2.02992,-1.59987,1.75772,-0.346152
-1.63515,1.51612,1.38824,-2.02992,-1.59987,1.75772,-0.346148
-1.63515,1.51613,1.38824,-2.02992,-1.59988,1.75772,-0.346148
-1.63515,1.51613,1.38823,-2.02992,-1.59987,1.75772,-0.346154
-1.63515,1.51612,1.38823,-2.02992,-1.59987,1.75772,-0.346152
-1.63515,1.51612,1.38824,-2.02992,-1.59987,1.75772,-0.34615
-1.63515,1.51613,1.38823,-2.02992,-1.59987,1.75772,-0.346145
-1.63514,1.51612,1.38823,-2.02992,-1.59987,1.75772,-0.346149
-1.63515,1.51612,1.38824,-2.02993,-1.59987,1.75772,-0.346153
-1.63515,1.51613,1.38823,-2.02992,-1.59987,1.75772,-0.34615
-1.63515,1.51612,1.38823,-2.02992,-1.59987,1.75772,-0.346148
-1.63515,1.51612,1.38823,-2.02992,-1.59987,1.75772,-0.34615
-1.63515,1.51612,1.38823,-2.02992,-1.59987,1.75772,-0.346153
-1.63515,1.51612,1.38824,-2.02992,-1.59987,1.75772,-0.34615
-1.63515,1.51612,1.38823,-2.02992,-1.59987,1.75772,-0.34615
-1.63516,1.51612,1.38823,-2.02993,-1.59987,1.75771,-0.346149
-1.63515,1.51612,1.38824,-2.02992,-1.59987,1.75771,-0.346149
-1.63515,1.51612,1.38823,-2.02993,-1.59987,1.75772,-0.34615
-1.63515,1.51612,1.38824,-2.02993,-1.59987,1.75772,-0.346154
-1.63515,1.51612,1.38823,-2.02993,-1.59987,1.75772,-0.346153
-1.63516,1.51612,1.38823,-2.02993,-1.59987,1.75772,-0.346148
-1.63515,1.51612,1.38823,-2.02993,-1.59987,1.75772,-0.346148
-1.63516,1.51612,1.38823,-2.02992,-1.59987,1.75772,-0.346153
-1.63515,1.51612,1.38823,-2.02992,-1.59987,1.75771,-0.346154
-1.63516,1.51612,1.38823,-2.02992,-1.59987,1.75772,-0.346148
-1.63515,1.51612,1.38823,-2.02992,-1.59987,1.75772,-0.346148
-1.63515,1.51612,1.38823,-2.02992,-1.59987,1.75772,-0.346153
-1.63516,1.51612,1.38824,-2.02993,-1.59987,1.75772,-0.346156
-1.63515,1.51612,1.38823,-2.02992,-1.59987,1.75772,-0.346151
-1.63516,1.51612,1.38823,-2.02993,-1.59987,1.75771,-0.346148
-1.63515,1.51612,1.38823,-2.02992,-1.59987,1.75771,-0.346153
-1.63515,1.51612,1.38823,-2.02992,-1.59987,1.75771,-0.346153
-1.63516,1.51612,1.38823,-2.02992,-1.59987,1.75771,-0.34615
-1.63516,1.51612,1.38824,-2.02993,-1.59988,1.75771,-0.346148
-1.63516,1.51612,1.38823,-2.02992,-1.59987,1.75771,-0.346151
-1.63516,1.51612,1.38823,-2.02992,-1.59987,1.75771,-0.346151
-1.63516,1.51612,1.38823,-2.02992,-1.59987,1.75771,-0.346152
-1.63515,1.51612,1.38823,-2.02992,-1.59987,1.75771,-0.34615
-1.63516,1.51612,1.38823,-2.02992,-1.59987,1.75771,-0.346152
-1.63516,1.51613,1.38823,-2.02992,-1.59988,1.75771,-0.346151
-1.63516,1.51612,1.38824,-2.02993,-1.59987,1.75771,-0.34615
-1.63516,1.51612,1.38823,-2.02993,-1.59987,1.75771,-0.34615
-1.63516,1.51612,1.38823,-2.02992,-1.59987,1.75771,-0.346152
-1.63516,1.51612,1.38823,-2.02992,-1.59987,1.75771,-0.346151
-1.63516,1.51613,1.38823,-2.02992,-1.59987,1.75772,-0.346148
-1.63516,1.51612,1.38823,-2.02992,-1.59987,1.75771,-0.34615
-1.63516,1.51612,1.38823,-2.02992,-1.59987,1.75772,-0.346151
-1.63516,1.51612,1.38823,-2.02992,-1.59987,1.75772,-0.346151
-1.63516,1.51613,1.38823,-2.02992,-1.59987,1.75771,-0.346146
-1.63517,1.51612,1.38823,-2.02993,-1.59987,1.75771,-0.34615
-1.63516,1.51612,1.38823,-2.02992,-1.59987,1.75772,-0.346152
-1.63516,1.51612,1.38823,-2.02992,-1.59987,1.75771,-0.346151
-1.63516,1.51612,1.38823,-2.02992,-1.59987,1.75771,-0.346149
-1.63516,1.51612,1.38823,-2.02992,-1.59987,1.75772,-0.346154
-1.63516,1.51612,1.38823,-2.02992,-1.59987,1.75772,-0.346151
-1.63516,1.51612,1.38823,-2.02993,-1.59987,1.75772,-0.34615
-1.63516,1.51612,1.38823,-2.02992,-1.59987,1.75772,-0.346148
-1.63516,1.51612,1.38823,-2.02992,-1.59987,1.75771,-0.346154
-1.63516,1.51613,1.38823,-2.02992,-1.59987,1.75772,-0.346151
-1.63516,1.51613,1.38823,-2.02992,-1.59987,1.75771,-0.34615
-1.63516,1.51612,1.38823,-2.02992,-1.59987,1.75772,-0.346148
-1.63516,1.51612,1.38823,-2.02992,-1.59987,1.75772,-0.346153
-1.63516,1.51612,1.38823,-2.02992,-1.59987,1.75771,-0.346152
-1.63516,1.51612,1.38823,-2.02992,-1.59987,1.75772,-0.34615
-1.63515,1.51612,1.38823,-2.02992,-1.59987,1.75771,-0.346148
-1.63516,1.51612,1.38823,-2.02993,-1.59987,1.75771,-0.34615
-1.63516,1.51613,1.38823,-2.02992,-1.59987,1.75771,-0.346155
-1.63516,1.51612,1.38823,-2.02992,-1.59987,1.75771,-0.346152
-1.63515,1.51612,1.38823,-2.02992,-1.59987,1.75771,-0.34615
-1.63516,1.51612,1.38823,-2.02992,-1.59987,1.75771,-0.346149
-1.63515,1.51612,1.38823,-2.02992,-1.59987,1.75771,-0.34615
-1.63516,1.51612,1.38823,-2.02993,-1.59987,1.75771,-0.34615
-1.63516,1.51612,1.38823,-2.02993,-1.59987,1.75771,-0.346147
-1.63516,1.51611,1.38823,-2.02993,-1.59987,1.75771,-0.346152
-1.63516,1.51612,1.38823,-2.02992,-1.59987,1.75771,-0.346152
-1.63515,1.51612,1.38823,-2.02993,-1.59987,1.75771,-0.34615
-1.63515,1.51612,1.38823,-2.02992,-1.59987,1.75771,-0.346146
-1.63516,1.51612,1.38823,-2.02992,-1.59987,1.75772,-0.346152
-1.63515,1.51612,1.38823,-2.02993,-1.59987,1.75771,-0.346152
-1.63515,1.51612,1.38823,-2.02993,-1.59988,1.75771,-0.346152
-1.63515,1.51612,1.38823,-2.02992,-1.59987,1.75771,-0.346148
-1.63515,1.51612,1.38823,-2.02992,-1.59988,1.75771,-0.346148
-1.63516,1.51612,1.38823,-2.02992,-1.59987,1.75771,-0.346148
-1.63516,1.51612,1.38823,-2.02992,-1.59988,1.75771,-0.34615
-1.63515,1.51611,1.38824,-2.02992,-1.59988,1.75771,-0.346149
-1.63515,1.51611,1.38823,-2.02992,-1.59987,1.75771,-0.346148
-1.63515,1.51611,1.38823,-2.02992,-1.59987,1.75771,-0.346149
-1.63515,1.51612,1.38823,-2.02992,-1.59987,1.75771,-0.346149
-1.63515,1.51612,1.38823,-2.02992,-1.59987,1.75771,-0.34615
-1.63516,1.51612,1.38823,-2.02992,-1.59987,1.75771,-0.346153
-1.63515,1.51611,1.38824,-2.02992,-1.59987,1.75771,-0.34615
-1.63515,1.51611,1.38823,-2.02993,-1.59987,1.75771,-0.346151
-1.63516,1.51611,1.38823,-2.02993,-1.59987,1.75771,-0.346148
-1.63516,1.51611,1.38823,-2.02992,-1.59987,1.75771,-0.346153
-1.63515,1.51611,1.38824,-2.02992,-1.59987,1.75771,-0.346151
-1.63515,1.51611,1.38823,-2.02993,-1.59987,1.75771,-0.346152
-1.63515,1.51611,1.38824,-2.02993,-1.59987,1.75771,-0.346149
-1.63516,1.51611,1.38823,-2.02992,-1.59987,1.75771,-0.346149
-1.63515,1.51611,1.38823,-2.02992,-1.59987,1.75771,-0.346148
-1.63516,1.51611,1.38823,-2.02993,-1.59987,1.75771,-0.346149
-1.63515,1.51611,1.38824,-2.02993,-1.59987,1.75771,-0.34615
-1.63515,1.51611,1.38823,-2.02992,-1.59988,1.75771,-0.346153
-1.63516,1.51612,1.38823,-2.02992,-1.59987,1.75771,-0.34615
-1.63515,1.51612,1.38823,-2.02993,-1.59987,1.75771,-0.346151
-1.63516,1.51611,1.38823,-2.02992,-1.59987,1.75771,-0.346147
-1.63516,1.51612,1.38823,-2.02992,-1.59987,1.75771,-0.346153
-1.63516,1.51612,1.38823,-2.02992,-1.59988,1.75771,-0.346154
-1.63516,1.51612,1.38823,-2.02993,-1.59988,1.75771,-0.346148
-1.63516,1.51612,1.38823,-2.02993,-1.59988,1.75771,-0.346149
-1.63516,1.51612,1.38823,-2.02993,-1.59988,1.75771,-0.346154
-1.63516,1.51612,1.38823,-2.02992,-1.59987,1.75771,-0.34615
-1.63515,1.51612,1.38823,-2.02992,-1.59987,1.75771,-0.346149
-1.63515,1.51612,1.38823,-2.02993,-1.59987,1.75771,-0.346144
-1.63516,1.51612,1.38823,-2.02993,-1.59987,1.75771,-0.346153
-1.63516,1.51612,1.38824,-2.02992,-1.59987,1.75771,-0.346153
-1.63516,1.51612,1.38823,-2.02992,-1.59987,1.75771,-0.34615
-1.63516,1.51612,1.38823,-2.02992,-1.59987,1.75771,-0.34615
-1.63516,1.51612,1.38823,-2.02992,-1.59988,1.75771,-0.34615
-1.63516,1.51612,1.38823,-2.02992,-1.59988,1.75772,-0.346151
-1.63516,1.51612,1.38823,-2.02992,-1.59987,1.75771,-0.346149
-1.63516,1.51612,1.38823,-2.02992,-1.59988,1.75771,-0.346148
-1.63516,1.51612,1.38823,-2.02992,-1.59987,1.75771,-0.346157
-1.63516,1.51612,1.38823,-2.02992,-1.59988,1.75771,-0.346155
-1.63516,1.51612,1.38823,-2.02992,-1.59988,1.75771,-0.346151
-1.63516,1.51612,1.38823,-2.02992,-1.59987,1.75771,-0.346148
-1.63516,1.51612,1.38823,-2.02992,-1.59987,1.75771,-0.346153
-1.63516,1.51612,1.38823,-2.02992,-1.59987,1.75771,-0.346154
-1.63515,1.51612,1.38823,-2.02992,-1.59987,1.75771,-0.346154
-1.63516,1.51612,1.38823,-2.02992,-1.59987,1.75771,-0.34615
-1.63516,1.51612,1.38823,-2.02992,-1.59987,1.75771,-0.346152
-1.63516,1.51612,1.38823,-2.02992,-1.59987,1.75771,-0.346155
-1.63516,1.51612,1.38823,-2.02992,-1.59987,1.75772,-0.346153
-1.63516,1.51612,1.38823,-2.02992,-1.59987,1.75771,-0.346148
-1.63516,1.51612,1.38823,-2.02992,-1.59987,1.75771,-0.346148
-1.63516,1.51612,1.38823,-2.02992,-1.59987,1.75771,-0.346152
-1.63516,1.51612,1.38823,-2.02992,-1.59988,1.75771,-0.346149
-1.63515,1.51612,1.38823,-2.02993,-1.59987,1.75771,-0.346149
-1.63516,1.51612,1.38823,-2.02992,-1.59987,1.75771,-0.346153
-1.63516,1.51612,1.38823,-2.02992,-1.59987,1.75772,-0.346153
-1.63516,1.51612,1.38823,-2.02993,-1.59988,1.75772,-0.34615
-1.63516,1.51612,1.38823,-2.02993,-1.59987,1.75771,-0.346149
-1.63516,1.51612,1.38823,-2.02993,-1.59987,1.75771,-0.346153
-1.63516,1.51612,1.38823,-2.02992,-1.59987,1.75771,-0.346153
-1.63516,1.51612,1.38823,-2.02992,-1.59987,1.75771,-0.346149
-1.63516,1.51612,1.38823,-2.02993,-1.59987,1.75771,-0.34615
-1.63516,1.51612,1.38823,-2.02993,-1.59987,1.75771,-0.346155
-1.63516,1.51612,1.38823,-2.02993,-1.59987,1.75771,-0.346157
-1.63516,1.51612,1.38823,-2.02992,-1.59987,1.75771,-0.346153
-1.63516,1.51613,1.38823,-2.02992,-1.59987,1.75771,-0.346153
-1.63515,1.51612,1.38823,-2.02993,-1.59987,1.75771,-0.34615
-1.63516,1.51612,1.38823,-2.02992,-1.59987,1.75772,-0.346152
-1.63516,1.51613,1.38823,-2.02992,-1.59987,1.75771,-0.346153
-1.63516,1.51613,1.38823,-2.02992,-1.59987,1.75772,-0.346153
-1.63516,1.51612,1.38823,-2.02993,-1.59987,1.75771,-0.346145
-1.63516,1.51612,1.38823,-2.02992,-1.59987,1.75772,-0.346148
-1.63516,1.51613,1.38823,-2.02992,-1.59987,1.75772,-0.346154
-1.63516,1.51612,1.38823,-2.02993,-1.59987,1.75771,-0.346153
-1.63516,1.51612,1.38823,-2.02993,-1.59987,1.75772,-0.34615
-1.63516,1.51612,1.38823,-2.02992,-1.59987,1.75772,-0.346148
-1.63516,1.51612,1.38823,-2.02993,-1.59987,1.75771,-0.346154
-1.63515,1.51613,1.38823,-2.02992,-1.59987,1.75772,-0.346154
-1.63516,1.51612,1.38823,-2.02992,-1.59987,1.75772,-0.346148
-1.63515,1.51612,1.38823,-2.02993,-1.59987,1.75771,-0.346148
-1.63515,1.51612,1.38824,-2.02992,-1.59987,1.75771,-0.346152
-1.63516,1.51612,1.38823,-2.02992,-1.59987,1.75771,-0.346154
-1.63515,1.51613,1.38823,-2.02992,-1.59987,1.75772,-0.34615
-1.63515,1.51612,1.38824,-2.02993,-1.59987,1.75772,-0.346152
-1.63516,1.51612,1.38823,-2.02993,-1.59987,1.75771,-0.346151
-1.63515,1.51612,1.38823,-2.02993,-1.59987,1.75771,-0.346153
-1.63515,1.51613,1.38823,-2.02993,-1.59987,1.75771,-0.346149
-1.63515,1.51612,1.38823,-2.02993,-1.59987,1.75771,-0.34615
-1.63515,1.51612,1.38823,-2.02993,-1.59987,1.75771,-0.346148
-1.63515,1.51612,1.38823,-2.02992,-1.59987,1.75771,-0.346149
-1.63515,1.51612,1.38823,-2.02993,-1.59987,1.75771,-0.346149
-1.63515,1.51612,1.38823,-2.02993,-1.59987,1.75771,-0.346152
-1.63515,1.51612,1.38823,-2.02993,-1.59987,1.75771,-0.346151
-1.63515,1.51612,1.38823,-2.02993,-1.59987,1.75771,-0.346148
-1.63515,1.51612,1.38823,-2.02993,-1.59987,1.75772,-0.346146
-1.63515,1.51612,1.38823,-2.02993,-1.59987,1.75771,-0.346153
-1.63515,1.51612,1.38823,-2.02993,-1.59987,1.75771,-0.346149
-1.63515,1.51613,1.38823,-2.02994,-1.59987,1.75771,-0.346146
-1.63515,1.51613,1.38823,-2.02993,-1.59987,1.75771,-0.346147
-1.63515,1.51612,1.38823,-2.02993,-1.59987,1.75771,-0.346155
-1.63515,1.51613,1.38823,-2.02993,-1.59987,1.75771,-0.346153
-1.63515,1.51612,1.38824,-2.02993,-1.59987,1.75771,-0.346148
-1.63514,1.51612,1.38823,-2.02993,-1.59987,1.75772,-0.346145
-1.63514,1.51612,1.38823,-2.02993,-1.59987,1.75772,-0.346151
-1.63515,1.51612,1.38823,-2.02993,-1.59987,1.75771,-0.346147
-1.63515,1.51612,1.38823,-2.02993,-1.59987,1.75771,-0.346148
-1.63515,1.51612,1.38823,-2.02994,-1.59987,1.75771,-0.34615
-1.63515,1.51612,1.38823,-2.02993,-1.59987,1.75771,-0.346152
-1.63515,1.51612,1.38823,-2.02993,-1.59987,1.75771,-0.346151
-1.63515,1.51612,1.38823,-2.02993,-1.59987,1.75771,-0.34615
-1.63515,1.51612,1.38823,-2.02993,-1.59987,1.75771,-0.346149
-1.63515,1.51612,1.38823,-2.02993,-1.59987,1.75771,-0.346156
-1.63515,1.51612,1.38823,-2.02993,-1.59987,1.75771,-0.346151
-1.63515,1.51612,1.38823,-2.02993,-1.59987,1.75771,-0.34615
-1.63515,1.51612,1.38823,-2.02993,-1.59987,1.75771,-0.346149
-1.63515,1.51612,1.38824,-2.02993,-1.59987,1.75771,-0.346149
-1.63515,1.51612,1.38823,-2.02993,-1.59987,1.75771,-0.346154
-1.63515,1.51612,1.38823,-2.02994,-1.59987,1.75771,-0.346152
-1.63515,1.51612,1.38823,-2.02993,-1.59987,1.75771,-0.346144
-1.63515,1.51612,1.38823,-2.02993,-1.59987,1.75771,-0.346151
-1.63515,1.51612,1.38823,-2.02993,-1.59987,1.75771,-0.346154
-1.63516,1.51612,1.38824,-2.02993,-1.59987,1.75771,-0.34615
-1.63515,1.51612,1.38823,-2.02994,-1.59987,1.75771,-0.34615
-1.63515,1.51612,1.38824,-2.02993,-1.59987,1.75771,-0.346151
-1.63515,1.51612,1.38823,-2.02993,-1.59987,1.75771,-0.346149
-1.63516,1.51612,1.38823,-2.02993,-1.59987,1.75771,-0.34615
-1.63515,1.51612,1.38824,-2.02993,-1.59987,1.75771,-0.34615
-1.63515,1.51612,1.38823,-2.02993,-1.59987,1.75771,-0.346153
-1.63515,1.51612,1.38823,-2.02993,-1.59987,1.75771,-0.346153
-1.63515,1.51612,1.38823,-2.02993,-1.59987,1.75771,-0.34615
-1.63515,1.51612,1.38823,-2.02993,-1.59987,1.75771,-0.34615
-1.63515,1.51612,1.38823,-2.02993,-1.59987,1.75771,-0.346153
-1.63515,1.51612,1.38823,-2.02993,-1.59987,1.75771,-0.34615
-1.63515,1.51612,1.38823,-2.02993,-1.59987,1.75771,-0.346149
-1.63515,1.51612,1.38823,-2.02993,-1.59987,1.75771,-0.346149
-1.63516,1.51612,1.38823,-2.02993,-1.59987,1.75771,-0.346153
-1.63516,1.51612,1.38823,-2.02993,-1.59987,1.75771,-0.34615
-1.63516,1.51612,1.38823,-2.02993,-1.59987,1.75771,-0.346148
-1.63516,1.51612,1.38823,-2.02992,-1.59987,1.75771,-0.346153
-1.63516,1.51612,1.38823,-2.02993,-1.59987,1.75771,-0.346152
-1.63516,1.51612,1.38823,-2.02993,-1.59987,1.75771,-0.346149
-1.63515,1.51612,1.38823,-2.02993,-1.59987,1.75771,-0.346147
-1.63516,1.51612,1.38823,-2.02993,-1.59987,1.75771,-0.34615
-1.63516,1.51612,1.38823,-2.02993,-1.59987,1.75771,-0.346149
-1.63516,1.51612,1.38823,-2.02992,-1.59987,1.75771,-0.346149
-1.63516,1.51612,1.38823,-2.02992,-1.59987,1.75771,-0.346147
-1.63515,1.51612,1.38823,-2.02993,-1.59987,1.75771,-0.346149
-1.63515,1.51612,1.38823,-2.02993,-1.59987,1.75771,-0.346154
-1.63516,1.51612,1.38824,-2.02992,-1.59987,1.75771,-0.34615
-1.63516,1.51612,1.38823,-2.02992,-1.59987,1.75771,-0.346147
-1.63516,1.51612,1.38823,-2.02993,-1.59987,1.75771,-0.346148
-1.63516,1.51612,1.38823,-2.02993,-1.59987,1.75771,-0.346154
-1.63515,1.51612,1.38823,-2.02992,-1.59987,1.75771,-0.346146
-1.63516,1.51612,1.38823,-2.02993,-1.59987,1.75771,-0.346149
-1.63515,1.51612,1.38823,-2.02992,-1.59987,1.75771,-0.346147
-1.63516,1.51612,1.38823,-2.02992,-1.59987,1.75772,-0.34615
-1.63516,1.51612,1.38823,-2.02992,-1.59987,1.75771,-0.346148
-1.63516,1.51612,1.38823,-2.02993,-1.59987,1.75771,-0.346149
-1.63515,1.51612,1.38823,-2.02992,-1.59987,1.75771,-0.346152
-1.63516,1.51612,1.38823,-2.02992,-1.59987,1.75771,-0.346151
-1.63516,1.51612,1.38823,-2.02992,-1.59987,1.75771,-0.346149
-1.63516,1.51612,1.38823,-2.02992,-1.59987,1.75771,-0.346151
-1.63516,1.51612,1.38823,-2.02993,-1.59987,1.75771,-0.346153
-1.63516,1.51612,1.38823,-2.02992,-1.59987,1.75771,-0.346149
-1.63516,1.51612,1.38823,-2.02992,-1.59988,1.75771,-0.34615
-1.63516,1.51612,1.38823,-2.02993,-1.59988,1.75771,-0.346149
-1.63516,1.51612,1.38823,-2.02993,-1.59987,1.75771,-0.346153
-1.63516,1.51612,1.38823,-2.02993,-1.59987,1.75771,-0.346148
-1.63516,1.51612,1.38823,-2.02992,-1.59987,1.75771,-0.34615
-1.63515,1.51612,1.38823,-2.02992,-1.59987,1.75771,-0.346151
-1.63515,1.51612,1.38823,-2.02993,-1.59988,1.75771,-0.346147
-1.63516,1.51612,1.38823,-2.02992,-1.59988,1.75771,-0.34615
-1.63515,1.51612,1.38823,-2.02993,-1.59987,1.75771,-0.346155
-1.63516,1.51612,1.38823,-2.02993,-1.59987,1.75771,-0.346147
-1.63515,1.51612,1.38823,-2.02993,-1.59987,1.75771,-0.346146
-1.63516,1.51612,1.38823,-2.02993,-1.59987,1.75771,-0.34615
-1.63515,1.51612,1.38823,-2.02993,-1.59987,1.75771,-0.346152
-1.63516,1.51612,1.38823,-2.02993,-1.59987,1.75771,-0.346152
-1.63516,1.51612,1.38823,-2.02992,-1.59987,1.75771,-0.346148
-1.63515,1.51612,1.38823,-2.02993,-1.59987,1.75771,-0.346149
-1.63516,1.51612,1.38823,-2.02993,-1.59987,1.75771,-0.346154
-1.63516,1.51612,1.38823,-2.02993,-1.59987,1.75771,-0.346152
-1.63516,1.51612,1.38823,-2.02993,-1.59987,1.75771,-0.346148
-1.63515,1.51613,1.38823,-2.02993,-1.59987,1.75771,-0.346149
-1.63516,1.51612,1.38823,-2.02992,-1.59987,1.75771,-0.346153
-1.63515,1.51612,1.38823,-2.02992,-1.59987,1.75771,-0.346154
-1.63515,1.51612,1.38823,-2.02992,-1.59987,1.75771,-0.34615
-1.63515,1.51612,1.38823,-2.02993,-1.59987,1.75771,-0.346148
-1.63516,1.51612,1.38823,-2.02993,-1.59987,1.75771,-0.34615
-1.63515,1.51612,1.38823,-2.02993,-1.59987,1.75771,-0.346149
-1.63515,1.51612,1.38823,-2.02993,-1.59987,1.75771,-0.346148
-1.63516,1.51612,1.38824,-2.02993,-1.59987,1.75771,-0.34615
-1.63516,1.51612,1.38823,-2.02992,-1.59987,1.75771,-0.346149
-1.63516,1.51612,1.38823,-2.02992,-1.59987,1.75771,-0.346151
-1.63516,1.51612,1.38823,-2.02993,-1.59987,1.75771,-0.346149
-1.63515,1.51612,1.38823,-2.02992,-1.59987,1.75771,-0.346147
-1.63516,1.51612,1.38823,-2.02992,-1.59987,1.75771,-0.346152
-1.63516,1.51612,1.38824,-2.02993,-1.59987,1.75771,-0.346151
-1.63515,1.51612,1.38823,-2.02993,-1.59987,1.75772,-0.34615
-1.63515,1.51612,1.38823,-2.02993,-1.59987,1.75772,-0.346149
-1.63516,1.51612,1.38823,-2.02992,-1.59987,1.75771,-0.346152
-1.63516,1.51612,1.38823,-2.02993,-1.59987,1.75771,-0.346154
-1.63516,1.51612,1.38823,-2.02993,-1.59987,1.75771,-0.346151
-1.63515,1.51612,1.38823,-2.02993,-1.59987,1.75771,-0.34615
-1.63515,1.51612,1.38823,-2.02992,-1.59987,1.75771,-0.346153
-1.63516,1.51612,1.38823,-2.02993,-1.59987,1.75771,-0.34615
-1.63516,1.51612,1.38823,-2.02993,-1.59987,1.75771,-0.34615
-1.63515,1.51612,1.38823,-2.02993,-1.59987,1.75771,-0.346148
-1.63515,1.51612,1.38823,-2.02993,-1.59987,1.75771,-0.346153
-1.63516,1.51612,1.38824,-2.02993,-1.59987,1.75771,-0.346151
-1.63515,1.51612,1.38823,-2.02992,-1.59987,1.75771,-0.34615
-1.63515,1.51612,1.38823,-2.02993,-1.59987,1.75771,-0.346149
-1.63515,1.51612,1.38824,-2.02993,-1.59987,1.75771,-0.34615
-1.63516,1.51612,1.38823,-2.02993,-1.59987,1.75771,-0.346149
-1.63516,1.51612,1.38823,-2.02993,-1.59987,1.75771,-0.346151
-1.63516,1.51612,1.38823,-2.02992,-1.59987,1.75771,-0.346149
-1.63515,1.51612,1.38823,-2.02993,-1.59987,1.75771,-0.34615
-1.63515,1.51612,1.38823,-2.02993,-1.59987,1.75771,-0.346146
-1.63516,1.51612,1.38823,-2.02993,-1.59987,1.75771,-0.34615
-1.63515,1.51612,1.38823,-2.02992,-1.59987,1.75771,-0.346148
-1.63515,1.51612,1.38823,-2.02993,-1.59987,1.75771,-0.346153
-1.63515,1.51612,1.38823,-2.02993,-1.59987,1.75772,-0.346149
-1.63515,1.51612,1.38823,-2.02993,-1.59987,1.75771,-0.34615
-1.63516,1.51612,1.38823,-2.02993,-1.59987,1.75771,-0.34615
-1.63515,1.51612,1.38823,-2.02993,-1.59987,1.75771,-0.346151
-1.63515,1.51612,1.38823,-2.02993,-1.59987,1.75771,-0.34615
-1.63515,1.51612,1.38823,-2.02993,-1.59987,1.75771,-0.346153
-1.63516,1.51612,1.38823,-2.02993,-1.59987,1.75771,-0.346149
-1.63516,1.51612,1.38823,-2.02993,-1.59987,1.75771,-0.346151
-1.63516,1.51612,1.38823,-2.02993,-1.59987,1.75771,-0.346151
-1.63515,1.51612,1.38823,-2.02993,-1.59987,1.75771,-0.346151
-1.63515,1.51612,1.38823,-2.02993,-1.59987,1.75771,-0.346148
-1.63515,1.51612,1.38823,-2.02993,-1.59987,1.75771,-0.346151
-1.63515,1.51612,1.38823,-2.02993,-1.59987,1.75771,-0.346153
-1.63515,1.51612,1.38823,-2.02993,-1.59987,1.75771,-0.346152
-1.63515,1.51612,1.38823,-2.02993,-1.59987,1.75771,-0.346151
-1.63515,1.51612,1.38823,-2.02993,-1.59987,1.75771,-0.346153
-1.63515,1.51612,1.38823,-2.02993,-1.59987,1.75771,-0.346153
-1.63515,1.51612,1.38823,-2.02993,-1.59987,1.75771,-0.346148
-1.63515,1.51612,1.38823,-2.02993,-1.59987,1.75771,-0.346153
-1.63516,1.51612,1.38823,-2.02993,-1.59987,1.75771,-0.34615
-1.63516,1.51612,1.38823,-2.02993,-1.59987,1.75771,-0.346149
-1.63515,1.51612,1.38823,-2.02993,-1.59987,1.75771,-0.346145
-1.63515,1.51612,1.38823,-2.02993,-1.59987,1.75771,-0.346152
-1.63515,1.51612,1.38823,-2.02993,-1.59987,1.75771,-0.346151
-1.63516,1.51612,1.38823,-2.02993,-1.59987,1.75771,-0.346146
-1.63515,1.51612,1.38823,-2.02993,-1.59987,1.75771,-0.346146
-1.63515,1.51612,1.38823,-2.02993,-1.59987,1.75771,-0.346151
-1.63515,1.51612,1.38823,-2.02993,-1.59987,1.75771,-0.346153
-1.63515,1.51612,1.38823,-2.02993,-1.59987,1.75771,-0.34615
-1.63515,1.51612,1.38823,-2.02993,-1.59987,1.75771,-0.346152
-1.63516,1.51612,1.38823,-2.02993,-1.59987,1.75771,-0.346153
-1.63515,1.51612,1.38823,-2.02993,-1.59987,1.75771,-0.346151
-1.63516,1.51612,1.38823,-2.02993,-1.59987,1.75771,-0.346145
-1.63516,1.51612,1.38823,-2.02993,-1.59987,1.75771,-0.346149
-1.63516,1.51612,1.38823,-2.02993,-1.59987,1.75771,-0.346151
-1.63516,1.51612,1.38823,-2.02993,-1.59987,1.75771,-0.34615
-1.63516,1.51613,1.38823,-2.02993,-1.59987,1.75771,-0.34615
-1.63515,1.51612,1.38823,-2.02993,-1.59987,1.75771,-0.346151
-1.63516,1.51612,1.38823,-2.02993,-1.59987,1.75771,-0.346154
-1.63516,1.51612,1.38823,-2.02993,-1.59987,1.75771,-0.346154
-1.63516,1.51612,1.38823,-2.02993,-1.59987,1.75771,-0.346152
-1.63515,1.51612,1.38823,-2.02993,-1.59987,1.75771,-0.346149
-1.63515,1.51612,1.38823,-2.02993,-1.59987,1.75771,-0.346153
-1.63515,1.51612,1.38823,-2.02993,-1.59987,1.75771,-0.346153
-1.63516,1.51612,1.38823,-2.02993,-1.59987,1.75771,-0.346153
-1.63515,1.51612,1.38823,-2.02993,-1.59987,1.75771,-0.346149
-1.63515,1.51612,1.38823,-2.02993,-1.59987,1.75771,-0.346148
-1.63515,1.51612,1.38823,-2.02993,-1.59987,1.75771,-0.346152
-1.63515,1.51612,1.38823,-2.02993,-1.59987,1.75771,-0.346154
-1.63515,1.51612,1.38823,-2.02993,-1.59987,1.75771,-0.346153
-1.63515,1.51612,1.38823,-2.02993,-1.59987,1.75771,-0.346153
-1.63515,1.51612,1.38823,-2.02993,-1.59987,1.75771,-0.34615
-1.63515,1.51612,1.38823,-2.02993,-1.59987,1.75771,-0.34615
-1.63515,1.51612,1.38823,-2.02993,-1.59987,1.75771,-0.346154
-1.63515,1.51612,1.38823,-2.02993,-1.59987,1.75771,-0.346154
-1.63515,1.51612,1.38823,-2.02993,-1.59987,1.75771,-0.346149
-1.63515,1.51612,1.38823,-2.02993,-1.59987,1.75771,-0.346147
-1.63515,1.51612,1.38823,-2.02993,-1.59987,1.75771,-0.34615
-1.63516,1.51612,1.38823,-2.02993,-1.59987,1.75771,-0.346153
-1.63516,1.51612,1.38823,-2.02993,-1.59987,1.75771,-0.34615
-1.63516,1.51612,1.38823,-2.02993,-1.59987,1.75771,-0.346148
-1.63515,1.51612,1.38823,-2.02993,-1.59987,1.75771,-0.346149
-1.63516,1.51612,1.38823,-2.02993,-1.59987,1.75771,-0.346153
-1.63515,1.51612,1.38823,-2.02993,-1.59987,1.75771,-0.34615
-1.63515,1.51612,1.38823,-2.02993,-1.59987,1.75771,-0.34615
-1.63515,1.51612,1.38823,-2.02993,-1.59987,1.75772,-0.346152
-1.63516,1.51612,1.38823,-2.02993,-1.59987,1.75771,-0.34615
-1.63515,1.51612,1.38823,-2.02993,-1.59987,1.75771,-0.346147
-1.63515,1.51612,1.38823,-2.02993,-1.59987,1.75771,-0.346146
-1.63515,1.51612,1.38823,-2.02993,-1.59987,1.75771,-0.346151
-1.63515,1.51612,1.38823,-2.02993,-1.59987,1.75771,-0.346154
-1.63515,1.51612,1.38823,-2.02993,-1.59987,1.75771,-0.346149
-1.63516,1.51612,1.38823,-2.02993,-1.59987,1.75771,-0.346148
-1.63515,1.51612,1.38823,-2.02993,-1.59987,1.75772,-0.346148
-1.63516,1.51612,1.38823,-2.02993,-1.59987,1.75771,-0.346155
-1.63516,1.51612,1.38823,-2.02993,-1.59987,1.75771,-0.346154
-1.63515,1.51612,1.38823,-2.02993,-1.59987,1.75771,-0.346151
-1.63515,1.51612,1.38823,-2.02993,-1.59987,1.75771,-0.346148
-1.63516,1.51612,1.38823,-2.02993,-1.59987,1.75771,-0.346153
-1.63515,1.51612,1.38823,-2.02993,-1.59987,1.75771,-0.346151
-1.63515,1.51612,1.38823,-2.02993,-1.59987,1.75771,-0.346148
-1.63516,1.51612,1.38823,-2.02993,-1.59987,1.75771,-0.346148
-1.63516,1.51612,1.38823,-2.02993,-1.59987,1.75771,-0.346154
-1.63515,1.51612,1.38823,-2.02993,-1.59987,1.75771,-0.34615
-1.63516,1.51612,1.38823,-2.02993,-1.59987,1.75771,-0.346148
-1.63516,1.51612,1.38823,-2.02993,-1.59987,1.75772,-0.34615
-1.63516,1.51612,1.38823,-2.02993,-1.59987,1.75771,-0.346153
-1.63516,1.51612,1.38823,-2.02992,-1.59987,1.75771,-0.34615
-1.63516,1.51612,1.38823,-2.02992,-1.59987,1.75771,-0.346149
-1.63516,1.51612,1.38823,-2.02993,-1.59987,1.75772,-0.346148
-1.63516,1.51612,1.38823,-2.02993,-1.59987,1.75771,-0.346154
-1.63516,1.51612,1.38823,-2.02993,-1.59987,1.75771,-0.346151
-1.63516,1.51612,1.38823,-2.02993,-1.59987,1.75771,-0.34615
-1.63516,1.51612,1.38823,-2.02993,-1.59987,1.75771,-0.34615
-1.63516,1.51612,1.38823,-2.02993,-1.59987,1.75771,-0.346153
-1.63516,1.51612,1.38823,-2.02992,-1.59987,1.75771,-0.346152
-1.63516,1.51612,1.38823,-2.02993,-1.59987,1.75771,-0.34615
-1.63516,1.51612,1.38823,-2.02993,-1.59987,1.75771,-0.346148
-1.63516,1.51612,1.38823,-2.02993,-1.59987,1.75771,-0.34615
-1.63516,1.51612,1.38823,-2.02993,-1.59987,1.75771,-0.34615
-1.63516,1.51612,1.38823,-2.02993,-1.59987,1.75771,-0.346151
-1.63516,1.51612,1.38823,-2.02993,-1.59987,1.75771,-0.34615
-1.63516,1.51612,1.38823,-2.02993,-1.59987,1.75771,-0.346151
-1.63516,1.51612,1.38823,-2.02993,-1.59987,1.75772,-0.34615
-1.63515,1.51612,1.38823,-2.02993,-1.59987,1.75771,-0.346148
-1.63516,1.51612,1.38823,-2.02992,-1.59987,1.75771,-0.346149
-1.63516,1.51612,1.38823,-2.02992,-1.59987,1.75771,-0.346153
-1.63516,1.51612,1.38823,-2.02992,-1.59987,1.75771,-0.346148
-1.63516,1.51612,1.38823,-2.02993,-1.59987,1.75771,-0.34615
-1.63516,1.51612,1.38823,-2.02992,-1.59987,1.75771,-0.346151
-1.63516,1.51612,1.38823,-2.02993,-1.59987,1.75771,-0.346153
-1.63516,1.51612,1.38823,-2.02992,-1.59987,1.75771,-0.346146
-1.63516,1.51612,1.38823,-2.02992,-1.59987,1.75771,-0.346149
-1.63516,1.51612,1.38823,-2.02993,-1.59987,1.75771,-0.346149
-1.63515,1.51612,1.38823,-2.02993,-1.59987,1.75771,-0.34615
-1.63516,1.51612,1.38823,-2.02992,-1.59987,1.75771,-0.34615
-1.63516,1.51612,1.38823,-2.02993,-1.59987,1.75771,-0.346148
-1.63515,1.51612,1.38823,-2.02992,-1.59987,1.75771,-0.346154
-1.63516,1.51612,1.38823,-2.02993,-1.59987,1.75771,-0.346152
-1.63516,1.51612,1.38823,-2.02993,-1.59987,1.75771,-0.346144
-1.63515,1.51612,1.38823,-2.02992,-1.59987,1.75771,-0.346146
-1.63516,1.51612,1.38823,-2.02993,-1.59987,1.75771,-0.346152
-1.63516,1.51612,1.38823,-2.02992,-1.59987,1.75771,-0.346152
-1.63516,1.51612,1.38823,-2.02993,-1.59987,1.75771,-0.346146
-1.63515,1.51612,1.38823,-2.02992,-1.59987,1.75771,-0.346147
-1.63516,1.51612,1.38823,-2.02992,-1.59987,1.75771,-0.346148
-1.63516,1.51612,1.38823,-2.02993,-1.59987,1.75771,-0.346153
-1.63515,1.51612,1.38823,-2.02993,-1.59987,1.75771,-0.346148
-1.63515,1.51612,1.38823,-2.02993,-1.59987,1.75771,-0.34615
-1.63515,1.51612,1.38823,-2.02993,-1.59987,1.75771,-0.34615
-1.63515,1.51612,1.38823,-2.02993,-1.59987,1.75771,-0.346153
-1.63516,1.51612,1.38823,-2.02993,-1.59987,1.75771,-0.346151
-1.63516,1.51612,1.38823,-2.02993,-1.59987,1.75771,-0.346144
-1.63515,1.51612,1.38823,-2.02993,-1.59987,1.75771,-0.346153
-1.63515,1.51611,1.38823,-2.02993,-1.59987,1.75771,-0.346151
-1.63516,1.51612,1.38823,-2.02993,-1.59987,1.75771,-0.346149
-1.63516,1.51612,1.38823,-2.02992,-1.59987,1.75771,-0.346147
-1.63515,1.51612,1.38824,-2.02993,-1.59987,1.75771,-0.34615
-1.63515,1.51611,1.38823,-2.02993,-1.59987,1.75771,-0.346154
-1.63515,1.51612,1.38823,-2.02993,-1.59987,1.75771,-0.346148
-1.63515,1.51612,1.38824,-2.02993,-1.59987,1.75771,-0.346148
-1.63516,1.51612,1.38823,-2.02992,-1.59987,1.75771,-0.346148
-1.63515,1.51612,1.38823,-2.02993,-1.59987,1.75771,-0.346155
-1.63515,1.51612,1.38823,-2.02993,-1.59987,1.75771,-0.346151
-1.63516,1.51612,1.38823,-2.02993,-1.59987,1.75771,-0.34615
-1.63515,1.51612,1.38823,-2.02993,-1.59987,1.75771,-0.346149
-1.63515,1.51612,1.38823,-2.02993,-1.59987,1.75771,-0.346152
-1.63515,1.51612,1.38823,-2.02992,-1.59987,1.75771,-0.34615
-1.63515,1.51612,1.38823,-2.02992,-1.59987,1.75771,-0.346148
-1.63515,1.51612,1.38823,-2.02993,-1.59987,1.75771,-0.346149
-1.63515,1.51612,1.38823,-2.02993,-1.59987,1.75771,-0.346153
-1.63515,1.51612,1.38823,-2.02993,-1.59987,1.75771,-0.34615
-1.63515,1.51612,1.38823,-2.02993,-1.59987,1.75771,-0.346148
-1.63515,1.51612,1.38823,-2.02992,-1.59987,1.75771,-0.34615
-1.63515,1.51612,1.38823,-2.02993,-1.59987,1.75771,-0.346154
-1.63515,1.51612,1.38823,-2.02993,-1.59987,1.75771,-0.34615
-1.63515,1.51612,1.38823,-2.02993,-1.59987,1.75771,-0.346148
-1.63516,1.51612,1.38823,-2.02993,-1.59987,1.75771,-0.346148
-1.63515,1.51612,1.38823,-2.02993,-1.59987,1.75771,-0.346152
-1.63515,1.51612,1.38823,-2.02993,-1.59987,1.75771,-0.34615
-1.63516,1.51612,1.38823,-2.02993,-1.59987,1.75771,-0.346149
-1.63515,1.51612,1.38823,-2.02993,-1.59987,1.75771,-0.346149
-1.63515,1.51612,1.38823,-2.02993,-1.59987,1.75771,-0.346152
-1.63515,1.51612,1.38823,-2.02993,-1.59987,1.75771,-0.346149
-1.63515,1.51612,1.38824,-2.02993,-1.59987,1.75771,-0.346152
-1.63515,1.51613,1.38823,-2.02993,-1.59987,1.75771,-0.346154
-1.63515,1.51612,1.38823,-2.02992,-1.59987,1.75771,-0.34615
-1.63515,1.51612,1.38823,-2.02993,-1.59987,1.75771,-0.346149
-1.63515,1.51612,1.38823,-2.02993,-1.59987,1.75771,-0.346146
-1.63516,1.51612,1.38823,-2.02993,-1.59987,1.75771,-0.346151
-1.63515,1.51612,1.38823,-2.02993,-1.59987,1.75771,-0.346151
-1.63515,1.51612,1.38823,-2.02993,-1.59987,1.75771,-0.34615
-1.63516,1.51612,1.38823,-2.02993,-1.59987,1.75771,-0.34615
-1.63516,1.51612,1.38823,-2.02993,-1.59987,1.75771,-0.346151
-1.63516,1.51612,1.38823,-2.02993,-1.59987,1.75771,-0.346154
-1.63515,1.51612,1.38823,-2.02993,-1.59987,1.75771,-0.346151
-1.63515,1.51612,1.38823,-2.02993,-1.59987,1.75771,-0.346152
-1.63516,1.51612,1.38823,-2.02993,-1.59987,1.75771,-0.346149
-1.63515,1.51612,1.38823,-2.02993,-1.59987,1.75771,-0.346149
-1.63516,1.51612,1.38823,-2.02993,-1.59987,1.75771,-0.346153
-1.63515,1.51612,1.38823,-2.02993,-1.59987,1.75771,-0.346153
-1.63516,1.51612,1.38823,-2.02993,-1.59987,1.75771,-0.346151
-1.63516,1.51612,1.38823,-2.02993,-1.59987,1.75771,-0.346148
-1.63515,1.51612,1.38823,-2.02993,-1.59987,1.75771,-0.346151
-1.63516,1.51612,1.38823,-2.02993,-1.59987,1.75771,-0.34615
-1.63516,1.51613,1.38823,-2.02993,-1.59987,1.75771,-0.346152
-1.63516,1.51613,1.38823,-2.02993,-1.59987,1.75771,-0.346154
-1.63515,1.51612,1.38823,-2.02993,-1.59987,1.75771,-0.34615
-1.63516,1.51613,1.38823,-2.02993,-1.59987,1.75771,-0.346148
-1.63516,1.51613,1.38823,-2.02993,-1.59987,1.75771,-0.346149
-1.63515,1.51613,1.38823,-2.02993,-1.59987,1.75771,-0.346153
-1.63516,1.51613,1.38823,-2.02993,-1.59987,1.75771,-0.346152
-1.63515,1.51613,1.38823,-2.02993,-1.59987,1.75771,-0.34615
-1.63516,1.51613,1.38823,-2.02993,-1.59987,1.75771,-0.34615
-1.63516,1.51612,1.38823,-2.02993,-1.59987,1.75771,-0.346153
-1.63515,1.51613,1.38823,-2.02993,-1.59987,1.75771,-0.34615
-1.63516,1.51612,1.38823,-2.02993,-1.59987,1.75771,-0.346151
-1.63516,1.51613,1.38823,-2.02993,-1.59987,1.75771,-0.346149
-1.63516,1.51612,1.38823,-2.02993,-1.59987,1.75771,-0.346155
-1.63516,1.51613,1.38823,-2.02993,-1.59987,1.75771,-0.346151
-1.63516,1.51612,1.38823,-2.02993,-1.59987,1.75771,-0.346147
-1.63516,1.51612,1.38823,-2.02993,-1.59987,1.75771,-0.346152
-1.63516,1.51612,1.38823,-2.02993,-1.59987,1.75771,-0.34615
-1.63516,1.51612,1.38823,-2.02993,-1.59987,1.75771,-0.34615
-1.63516,1.51612,1.38823,-2.02993,-1.59987,1.75771,-0.346146
-1.63516,1.51612,1.38823,-2.02993,-1.59987,1.75771,-0.346149
-1.63516,1.51613,1.38823,-2.02993,-1.59987,1.75771,-0.346152
-1.63516,1.51613,1.38823,-2.02993,-1.59987,1.75771,-0.346153
-1.63517,1.51612,1.38823,-2.02993,-1.59987,1.75771,-0.346149
-1.63516,1.51612,1.38823,-2.02993,-1.59987,1.75771,-0.346148
-1.63516,1.51612,1.38823,-2.02992,-1.59987,1.75771,-0.346156
-1.63516,1.51612,1.38823,-2.02993,-1.59987,1.75771,-0.346154
-1.63515,1.51612,1.38823,-2.02993,-1.59987,1.75771,-0.346149
-1.63516,1.51612,1.38823,-2.02993,-1.59987,1.75771,-0.346145
-1.63516,1.51612,1.38823,-2.02993,-1.59987,1.75771,-0.346151
-1.63516,1.51612,1.38823,-2.02992,-1.59987,1.75771,-0.346154
-1.63516,1.51612,1.38823,-2.02993,-1.59987,1.75771,-0.34615
-1.63516,1.51612,1.38823,-2.02993,-1.59987,1.75771,-0.34615
-1.63516,1.51612,1.38823,-2.02993,-1.59987,1.75771,-0.346151
-1.63516,1.51612,1.38823,-2.02993,-1.59987,1.75771,-0.346151
-1.63516,1.51612,1.38823,-2.02993,-1.59987,1.7577,-0.346149
-1.63515,1.51612,1.38823,-2.02993,-1.59987,1.75771,-0.346151
-1.63516,1.51612,1.38823,-2.02992,-1.59987,1.7577,-0.346152
-1.63516,1.51612,1.38823,-2.02992,-1.59987,1.75771,-0.346152
-1.63515,1.51612,1.38823,-2.02993,-1.59987,1.75771,-0.346149
-1.63515,1.51612,1.38823,-2.02992,-1.59987,1.75771,-0.34615
-1.63515,1.51612,1.38823,-2.02993,-1.59987,1.75771,-0.346152
-1.63515,1.51612,1.38823,-2.02993,-1.59987,1.75771,-0.346153
-1.63516,1.51612,1.38823,-2.02993,-1.59987,1.75771,-0.346149
-1.63515,1.51612,1.38823,-2.02993,-1.59987,1.75771,-0.346149
-1.63516,1.51612,1.38823,-2.02993,-1.59987,1.75771,-0.34615
-1.63515,1.51612,1.38823,-2.02993,-1.59987,1.75771,-0.346151
-1.63515,1.51612,1.38823,-2.02993,-1.59987,1.75771,-0.346148
-1.63516,1.51612,1.38823,-2.02993,-1.59987,1.75771,-0.346153
-1.63515,1.51612,1.38823,-2.02993,-1.59987,1.75771,-0.34615
-1.63516,1.51612,1.38823,-2.02993,-1.59987,1.75771,-0.34615
-1.63515,1.51612,1.38823,-2.02993,-1.59988,1.75771,-0.346148
-1.63516,1.51612,1.38823,-2.02993,-1.59987,1.75771,-0.346152
-1.63515,1.51612,1.38823,-2.02993,-1.59987,1.75771,-0.346151
-1.63516,1.51612,1.38823,-2.02993,-1.59987,1.75771,-0.34615
-1.63516,1.51612,1.38823,-2.02993,-1.59987,1.75771,-0.346147
-1.63515,1.51612,1.38823,-2.02993,-1.59987,1.75771,-0.34615
-1.63515,1.51612,1.38823,-2.02993,-1.59987,1.75771,-0.346153
-1.63515,1.51612,1.38823,-2.02993,-1.59987,1.75771,-0.346154
-1.63516,1.51612,1.38823,-2.02993,-1.59987,1.75771,-0.34615
-1.63516,1.51612,1.38823,-2.02993,-1.59987,1.75771,-0.346149
-1.63516,1.51612,1.38823,-2.02993,-1.59987,1.75771,-0.346151
-1.63516,1.51612,1.38823,-2.02993,-1.59987,1.75771,-0.346153
-1.63516,1.51612,1.38823,-2.02993,-1.59987,1.75771,-0.346146
-1.63516,1.51612,1.38823,-2.02992,-1.59987,1.75771,-0.346148
-1.63516,1.51612,1.38823,-2.02993,-1.59987,1.75771,-0.346153
-1.63516,1.51612,1.38823,-2.02993,-1.59987,1.75771,-0.346151
-1.63516,1.51612,1.38823,-2.02993,-1.59987,1.75771,-0.346148
-1.63516,1.51612,1.38823,-2.02993,-1.59987,1.75771,-0.346149
-1.63516,1.51612,1.38823,-2.02993,-1.59987,1.75771,-0.346153
-1.63516,1.51612,1.38824,-2.02993,-1.59987,1.75771,-0.346154
-1.63516,1.51612,1.38823,-2.02992,-1.59987,1.75771,-0.346149
-1.63516,1.51612,1.38823,-2.02992,-1.59987,1.75771,-0.346149
-1.63516,1.51612,1.38823,-2.02992,-1.59987,1.75771,-0.346152
-1.63516,1.51612,1.38823,-2.02993,-1.59987,1.75771,-0.346152
-1.63516,1.51612,1.38823,-2.02993,-1.59987,1.75771,-0.34615
-1.63516,1.51612,1.38823,-2.02993,-1.59987,1.75771,-0.34615
-1.63516,1.51612,1.38823,-2.02993,-1.59987,1.75771,-0.346151
-1.63516,1.51612,1.38823,-2.02993,-1.59987,1.75771,-0.346152
-1.63516,1.51612,1.38824,-2.02993,-1.59987,1.75771,-0.346152
-1.63516,1.51612,1.38823,-2.02993,-1.59987,1.75771,-0.34615
-1.63516,1.51612,1.38823,-2.02992,-1.59987,1.75771,-0.346153
-1.63516,1.51612,1.38823,-2.02993,-1.59987,1.75771,-0.346153
-1.63516,1.51612,1.38823,-2.02993,-1.59987,1.75771,-0.34615
-1.63516,1.51612,1.38823,-2.02993,-1.59987,1.75771,-0.346148
-1.63516,1.51612,1.38823,-2.02992,-1.59987,1.75771,-0.346151
-1.63515,1.51612,1.38823,-2.02993,-1.59988,1.75771,-0.346153
-1.63516,1.51612,1.38823,-2.02993,-1.59987,1.75771,-0.34615
-1.63515,1.51612,1.38823,-2.02992,-1.59987,1.75771,-0.346149
-1.63516,1.51612,1.38823,-2.02993,-1.59987,1.75771,-0.34615
-1.63516,1.51612,1.38823,-2.02993,-1.59987,1.75771,-0.34615
-1.63515,1.51612,1.38823,-2.02993,-1.59987,1.75771,-0.346154
-1.63516,1.51612,1.38823,-2.02993,-1.59987,1.75771,-0.346149
-1.63516,1.51612,1.38823,-2.02993,-1.59987,1.75771,-0.346148
-1.63515,1.51612,1.38823,-2.02993,-1.59987,1.75771,-0.346154
-1.63515,1.51612,1.38823,-2.02993,-1.59987,1.75771,-0.346151
-1.63516,1.51612,1.38823,-2.02993,-1.59987,1.75771,-0.346148
-1.63515,1.51612,1.38823,-2.02993,-1.59987,1.75771,-0.346152
-1.63515,1.51612,1.38823,-2.02993,-1.59987,1.75771,-0.346153
-1.63516,1.51612,1.38823,-2.02993,-1.59987,1.75771,-0.346152
-1.63515,1.51612,1.38823,-2.02994,-1.59987,1.75771,-0.346148
-1.63516,1.51612,1.38822,-2.02993,-1.59987,1.75771,-0.346148
-1.63515,1.51612,1.38823,-2.02992,-1.59987,1.75771,-0.346153
-1.63515,1.51612,1.38823,-2.02993,-1.59987,1.75771,-0.346153
-1.63516,1.51612,1.38823,-2.02993,-1.59987,1.75771,-0.346149
-1.63516,1.51612,1.38823,-2.02993,-1.59987,1.75771,-0.346148
-1.63515,1.51612,1.38823,-2.02993,-1.59987,1.75771,-0.346154
-1.63516,1.51612,1.38823,-2.02994,-1.59987,1.75771,-0.346156
-1.63515,1.51612,1.38823,-2.02993,-1.59987,1.75771,-0.34615
-1.63515,1.51612,1.38823,-2.02992,-1.59987,1.75771,-0.346148
-1.63516,1.51612,1.38823,-2.02993,-1.59987,1.75771,-0.34615
-1.63516,1.51612,1.38823,-2.02993,-1.59987,1.75771,-0.346155
-1.63515,1.51612,1.38823,-2.02993,-1.59987,1.75771,-0.346148
-1.63515,1.51612,1.38823,-2.02993,-1.59987,1.75771,-0.346147
-1.63515,1.51612,1.38823,-2.02993,-1.59987,1.75771,-0.346153
-1.63516,1.51612,1.38823,-2.02993,-1.59987,1.75771,-0.346149
-1.63515,1.51612,1.38823,-2.02993,-1.59987,1.75771,-0.346148
-1.63516,1.51612,1.38823,-2.02993,-1.59987,1.75771,-0.346152
-1.63516,1.51612,1.38823,-2.02993,-1.59987,1.75771,-0.346153
-1.63516,1.51612,1.38823,-2.02993,-1.59987,1.75771,-0.346149
-1.63516,1.51612,1.38823,-2.02992,-1.59987,1.75771,-0.346147
-1.63515,1.51612,1.38823,-2.02993,-1.59987,1.75771,-0.346151
-1.63516,1.51612,1.38823,-2.02993,-1.59987,1.75771,-0.346152
-1.63516,1.51612,1.38823,-2.02992,-1.59987,1.75771,-0.346149
-1.63516,1.51612,1.38823,-2.02993,-1.59987,1.75771,-0.346148
-1.63515,1.51612,1.38823,-2.02993,-1.59987,1.75771,-0.346152
-1.63516,1.51612,1.38823,-2.02993,-1.59987,1.75771,-0.346151
-1.63516,1.51612,1.38823,-2.02993,-1.59987,1.75771,-0.346151
-1.63516,1.51612,1.38823,-2.02993,-1.59987,1.75771,-0.346148
-1.63516,1.51612,1.38823,-2.02993,-1.59987,1.75771,-0.346149
-1.63515,1.51612,1.38824,-2.02992,-1.59987,1.75771,-0.346153
-1.63516,1.51613,1.38823,-2.02993,-1.59987,1.75771,-0.346153
-1.63516,1.51612,1.38823,-2.02992,-1.59987,1.75771,-0.346145
-1.63515,1.51612,1.38823,-2.02993,-1.59987,1.75771,-0.346154
-1.63516,1.51612,1.38823,-2.02993,-1.59987,1.75771,-0.346153
-1.63515,1.51612,1.38823,-2.02993,-1.59987,1.75771,-0.346149
-1.63515,1.51612,1.38823,-2.02993,-1.59987,1.75771,-0.346147
-1.63515,1.51613,1.38823,-2.02993,-1.59987,1.75771,-0.346154
-1.63516,1.51612,1.38823,-2.02993,-1.59987,1.75771,-0.346154
-1.63516,1.51612,1.38823,-2.02993,-1.59987,1.75771,-0.34615
-1.63516,1.51612,1.38824,-2.02993,-1.59987,1.75771,-0.346148
-1.63516,1.51613,1.38823,-2.02994,-1.59987,1.75771,-0.346151
-1.63515,1.51612,1.38823,-2.02993,-1.59987,1.75771,-0.346153
-1.63516,1.51612,1.38823,-2.02993,-1.59987,1.75771,-0.346153
-1.63516,1.51612,1.38823,-2.02993,-1.59987,1.75771,-0.346149
-1.63516,1.51612,1.38823,-2.02993,-1.59987,1.75771,-0.346149
-1.63515,1.51612,1.38823,-2.02993,-1.59987,1.75771,-0.34615
-1.63515,1.51612,1.38823,-2.02993,-1.59987,1.75771,-0.346153
-1.63515,1.51612,1.38823,-2.02993,-1.59987,1.75771,-0.34615
-1.63516,1.51612,1.38823,-2.02993,-1.59987,1.75771,-0.346148
-1.63515,1.51612,1.38823,-2.02993,-1.59987,1.75771,-0.346153
-1.63515,1.51613,1.38823,-2.02993,-1.59987,1.75771,-0.346148
-1.63516,1.51613,1.38823,-2.02993,-1.59987,1.75771,-0.34615
-1.63516,1.51612,1.38823,-2.02994,-1.59987,1.75771,-0.346153
-1.63515,1.51612,1.38823,-2.02993,-1.59987,1.75771,-0.346153
-1.63516,1.51612,1.38823,-2.02993,-1.59987,1.75771,-0.346151
-1.63515,1.51612,1.38823,-2.02993,-1.59987,1.75771,-0.34615
-1.63515,1.51613,1.38823,-2.02993,-1.59987,1.75771,-0.346152
-1.63515,1.51612,1.38823,-2.02993,-1.59987,1.75771,-0.346151
-1.63515,1.51612,1.38823,-2.02993,-1.59987,1.75771,-0.34615
-1.63516,1.51612,1.38823,-2.02993,-1.59987,1.75771,-0.34615
-1.63516,1.51612,1.38823,-2.02993,-1.59987,1.75771,-0.346153
-1.63515,1.51613,1.38823,-2.02993,-1.59987,1.75771,-0.346153
-1.63516,1.51612,1.38824,-2.02993,-1.59987,1.75771,-0.346148
-1.63516,1.51612,1.38823,-2.02994,-1.59987,1.75771,-0.346149
-1.63515,1.51612,1.38822,-2.02993,-1.59987,1.75771,-0.346151
-1.63516,1.51612,1.38822,-2.02993,-1.59987,1.75771,-0.346153
-1.63516,1.51612,1.38823,-2.02993,-1.59987,1.75771,-0.346145
-1.63516,1.51612,1.38823,-2.02993,-1.59987,1.75771,-0.346148
-1.63516,1.51612,1.38823,-2.02993,-1.59987,1.75771,-0.346153
-1.63516,1.51612,1.38823,-2.02993,-1.59987,1.75771,-0.346155
-1.63516,1.51612,1.38823,-2.02993,-1.59987,1.75771,-0.346149
-1.63516,1.51612,1.38823,-2.02993,-1.59987,1.75771,-0.346148
-1.63516,1.51612,1.38823,-2.02993,-1.59987,1.75771,-0.346151
-1.63516,1.51612,1.38823,-2.02993,-1.59987,1.75771,-0.346153
-1.63516,1.51612,1.38823,-2.02993,-1.59987,1.75771,-0.346151
-1.63516,1.51612,1.38823,-2.02993,-1.59987,1.75771,-0.346148
-1.63516,1.51612,1.38823,-2.02993,-1.59987,1.75771,-0.346151
-1.63516,1.51612,1.38823,-2.02993,-1.59987,1.75771,-0.346152
-1.63516,1.51612,1.38823,-2.02993,-1.59987,1.75771,-0.346151
-1.63516,1.51612,1.38823,-2.02993,-1.59987,1.75771,-0.346148
-1.63516,1.51612,1.38823,-2.02993,-1.59987,1.75771,-0.346153
-1.63516,1.51612,1.38823,-2.02992,-1.59987,1.75771,-0.346152
-1.63515,1.51612,1.38823,-2.02993,-1.59987,1.75771,-0.346154
-1.63516,1.51612,1.38823,-2.02993,-1.59987,1.75771,-0.346148
-1.63516,1.51612,1.38823,-2.02993,-1.59987,1.75771,-0.346152
-1.63516,1.51612,1.38823,-2.02993,-1.59987,1.75771,-0.346152
-1.63515,1.51612,1.38823,-2.02993,-1.59987,1.75771,-0.346151
-1.63516,1.51612,1.38823,-2.02993,-1.59987,1.75771,-0.346145
-1.63516,1.51612,1.38823,-2.02993,-1.59987,1.75771,-0.34615
-1.63516,1.51612,1.38823,-2.02993,-1.59987,1.75771,-0.346152
-1.63516,1.51612,1.38823,-2.02993,-1.59987,1.75771,-0.346151
-1.63516,1.51612,1.38823,-2.02993,-1.59987,1.75771,-0.346144
-1.63515,1.51612,1.38823,-2.02993,-1.59987,1.75771,-0.346149
-1.63516,1.51612,1.38823,-2.02993,-1.59987,1.75771,-0.34615
-1.63516,1.51612,1.38823,-2.02993,-1.59987,1.75771,-0.346152
-1.63515,1.51612,1.38824,-2.02993,-1.59987,1.75771,-0.34615
-1.63515,1.51612,1.38823,-2.02993,-1.59987,1.75771,-0.34615
-1.63516,1.51612,1.38823,-2.02993,-1.59987,1.75771,-0.34615
-1.63516,1.51612,1.38823,-2.02993,-1.59987,1.75771,-0.346148
-1.63515,1.51612,1.38823,-2.02993,-1.59987,1.75771,-0.34615
-1.63516,1.51612,1.38823,-2.02993,-1.59987,1.75771,-0.346153
-1.63515,1.51612,1.38823,-2.02993,-1.59987,1.75771,-0.346152
-1.63515,1.51612,1.38823,-2.02993,-1.59987,1.75771,-0.34615
-1.63515,1.51612,1.38823,-2.02992,-1.59987,1.75771,-0.346149
-1.63515,1.51612,1.38823,-2.02993,-1.59987,1.75771,-0.346154
-1.63516,1.51612,1.38823,-2.02992,-1.59987,1.75771,-0.346156
-1.63515,1.51612,1.38823,-2.02993,-1.59987,1.75771,-0.346149
-1.63515,1.51612,1.38823,-2.02993,-1.59987,1.75771,-0.346149
-1.63516,1.51612,1.38823,-2.02993,-1.59987,1.75771,-0.346153
-1.63515,1.51612,1.38823,-2.02993,-1.59987,1.75771,-0.346152
-1.63516,1.51612,1.38823,-2.02993,-1.59987,1.75771,-0.34615
-1.63516,1.51612,1.38823,-2.02993,-1.59987,1.75771,-0.346147
-1.63516,1.51612,1.38823,-2.02993,-1.59987,1.75771,-0.346147
-1.63516,1.51612,1.38823,-2.02993,-1.59987,1.75771,-0.346152
-1.63516,1.51612,1.38823,-2.02992,-1.59987,1.75771,-0.34615
-1.63516,1.51612,1.38823,-2.02993,-1.59987,1.75771,-0.346149
-1.63516,1.51612,1.38823,-2.02993,-1.59987,1.75771,-0.34615
-1.63516,1.51612,1.38823,-2.02993,-1.59987,1.75771,-0.346154
-1.63516,1.51612,1.38823,-2.02993,-1.59987,1.75771,-0.346149
-1.63516,1.51612,1.38823,-2.02993,-1.59987,1.75771,-0.346148
-1.63516,1.51612,1.38823,-2.02993,-1.59987,1.75771,-0.346148
-1.63516,1.51612,1.38823,-2.02993,-1.59987,1.75771,-0.346154
-1.63516,1.51612,1.38823,-2.02993,-1.59987,1.75771,-0.346149
-1.63516,1.51612,1.38823,-2.02993,-1.59987,1.75771,-0.346146
-1.63516,1.51611,1.38823,-2.02993,-1.59987,1.75771,-0.346148
-1.63516,1.51612,1.38823,-2.02993,-1.59987,1.75771,-0.346154
-1.63516,1.51612,1.38823,-2.02993,-1.59987,1.75771,-0.34615
-1.63516,1.51612,1.38823,-2.02993,-1.59987,1.75771,-0.346148
-1.63516,1.51612,1.38823,-2.02993,-1.59987,1.75771,-0.346149
-1.63516,1.51612,1.38823,-2.02993,-1.59987,1.75771,-0.346151
-1.63516,1.51612,1.38823,-2.02993,-1.59987,1.75771,-0.346153
-1.63516,1.51612,1.38823,-2.02993,-1.59987,1.75771,-0.346148
-1.63516,1.51612,1.38823,-2.02992,-1.59987,1.75771,-0.346153
-1.63515,1.51612,1.38823,-2.02992,-1.59987,1.75771,-0.34615
-1.63516,1.51612,1.38823,-2.02992,-1.59987,1.75771,-0.34615
-1.63516,1.51612,1.38823,-2.02992,-1.59987,1.75771,-0.346148
-1.63516,1.51612,1.38823,-2.02993,-1.59987,1.75771,-0.346148
-1.63516,1.51612,1.38823,-2.02993,-1.59987,1.75771,-0.346153
-1.63516,1.51612,1.38823,-2.02993,-1.59987,1.75771,-0.34615
-1.63516,1.51612,1.38823,-2.02993,-1.59987,1.75771,-0.346148
-1.63515,1.51612,1.38823,-2.02993,-1.59987,1.75771,-0.346148
-1.63516,1.51612,1.38823,-2.02993,-1.59987,1.75771,-0.346152
-1.63516,1.51612,1.38823,-2.02993,-1.59987,1.75771,-0.34615
-1.63515,1.51612,1.38823,-2.02993,-1.59987,1.75771,-0.346149
-1.63516,1.51612,1.38823,-2.02993,-1.59987,1.75771,-0.34615
-1.63516,1.51612,1.38823,-2.02993,-1.59987,1.75771,-0.346152
-1.63516,1.51612,1.38823,-2.02993,-1.59987,1.75771,-0.346152
-1.63516,1.51612,1.38823,-2.02993,-1.59987,1.75771,-0.346151
-1.63516,1.51612,1.38823,-2.02993,-1.59987,1.75771,-0.346144
-1.63515,1.51612,1.38823,-2.02993,-1.59987,1.75771,-0.34615
-1.63515,1.51612,1.38823,-2.02992,-1.59987,1.75771,-0.346147
-1.63516,1.51612,1.38823,-2.02993,-1.59987,1.75771,-0.346151
-1.63516,1.51612,1.38823,-2.02993,-1.59987,1.75771,-0.346152
-1.63516,1.51612,1.38823,-2.02993,-1.59987,1.75771,-0.346153
-1.63515,1.51612,1.38823,-2.02993,-1.59987,1.75771,-0.346149
-1.63516,1.51612,1.38823,-2.02993,-1.59987,1.75771,-0.346148
-1.63515,1.51612,1.38823,-2.02993,-1.59987,1.75771,-0.34615
-1.63516,1.51612,1.38823,-2.02993,-1.59987,1.75771,-0.346152
-1.63515,1.51612,1.38823,-2.02992,-1.59987,1.75771,-0.346148
-1.63515,1.51612,1.38823,-2.02992,-1.59987,1.75771,-0.346148
-1.63516,1.51612,1.38823,-2.02993,-1.59987,1.75771,-0.34615
-1.63516,1.51612,1.38822,-2.02993,-1.59987,1.75771,-0.346153
-1.63516,1.51612,1.38823,-2.02992,-1.59987,1.75771,-0.346149
-1.63516,1.51612,1.38824,-2.02993,-1.59987,1.75771,-0.346148
-1.63516,1.51612,1.38823,-2.02993,-1.59987,1.75771,-0.34615
-1.63516,1.51612,1.38823,-2.02993,-1.59987,1.75771,-0.34615
-1.63516,1.51612,1.38823,-2.02993,-1.59987,1.75771,-0.34615
-1.63516,1.51612,1.38823,-2.02993,-1.59987,1.75771,-0.346149
-1.63516,1.51612,1.38823,-2.02993,-1.59987,1.75771,-0.346156
-1.63516,1.51612,1.38823,-2.02993,-1.59987,1.75771,-0.346152
-1.63516,1.51612,1.38823,-2.02993,-1.59987,1.75771,-0.346149
-1.63515,1.51612,1.38823,-2.02993,-1.59987,1.75771,-0.34615
-1.63516,1.51612,1.38823,-2.02992,-1.59987,1.75771,-0.346149
-1.63516,1.51612,1.38823,-2.02992,-1.59987,1.75771,-0.346152
-1.63516,1.51613,1.38823,-2.02993,-1.59987,1.75771,-0.346149
-1.63515,1.51612,1.38823,-2.02993,-1.59987,1.75771,-0.346148
-1.63516,1.51612,1.38823,-2.02993,-1.59987,1.75771,-0.346153
-1.63516,1.51612,1.38823,-2.02993,-1.59987,1.75771,-0.346155
-1.63516,1.51612,1.38823,-2.02993,-1.59987,1.75771,-0.346151
-1.63516,1.51612,1.38823,-2.02993,-1.59987,1.75771,-0.346148
-1.63516,1.51612,1.38823,-2.02993,-1.59987,1.75771,-0.34615
-1.63516,1.51612,1.38823,-2.02992,-1.59987,1.75771,-0.346152
-1.63516,1.51612,1.38823,-2.02993,-1.59987,1.75771,-0.346153
-1.63516,1.51612,1.38823,-2.02993,-1.59987,1.75771,-0.346148
-1.63516,1.51613,1.38823,-2.02993,-1.59987,1.75771,-0.346148
-1.63516,1.51612,1.38824,-2.02993,-1.59987,1.75771,-0.346154
-1.63515,1.51612,1.38823,-2.02993,-1.59987,1.75771,-0.346147
-1.63516,1.51612,1.38823,-2.02993,-1.59987,1.75771,-0.346146
-1.63515,1.51612,1.38823,-2.02993,-1.59987,1.75772,-0.346149
-1.63516,1.51612,1.38823,-2.02993,-1.59988,1.75772,-0.346157
-1.63516,1.51612,1.38823,-2.02993,-1.59987,1.75771,-0.346149
-1.63516,1.51612,1.38823,-2.02993,-1.59987,1.75771,-0.346148
-1.63516,1.51612,1.38823,-2.02993,-1.59987,1.75771,-0.346149
-1.63515,1.51612,1.38823,-2.02993,-1.59987,1.75771,-0.346152
-1.63515,1.51612,1.38823,-2.02993,-1.59987,1.75771,-0.346154
-1.63516,1.51612,1.38823,-2.02992,-1.59987,1.75771,-0.346149
-1.63516,1.51612,1.38823,-2.02993,-1.59987,1.75771,-0.346149
-1.63516,1.51612,1.38823,-2.02992,-1.59987,1.75771,-0.346149
-1.63516,1.51613,1.38823,-2.02993,-1.59987,1.75771,-0.346154
-1.63516,1.51612,1.38823,-2.02993,-1.59987,1.75771,-0.346147
-1.63515,1.51612,1.38823,-2.02993,-1.59987,1.75771,-0.346149
-1.63516,1.51612,1.38823,-2.02993,-1.59987,1.75771,-0.346155
-1.63516,1.51612,1.38823,-2.02993,-1.59987,1.75771,-0.346152
-1.63516,1.51612,1.38823,-2.02993,-1.59987,1.75772,-0.346147
-1.63515,1.51612,1.38823,-2.02993,-1.59987,1.75772,-0.346149
-1.63516,1.51612,1.38823,-2.02993,-1.59987,1.75771,-0.346154
-1.63516,1.51612,1.38823,-2.02993,-1.59987,1.75771,-0.346152
-1.63516,1.51612,1.38823,-2.02993,-1.59987,1.75771,-0.346148
-1.63516,1.51612,1.38823,-2.02993,-1.59987,1.75771,-0.34615
-1.63516,1.51612,1.38823,-2.02993,-1.59987,1.75771,-0.346147
-1.63515,1.51612,1.38823,-2.02993,-1.59987,1.75771,-0.346152
-1.63515,1.51612,1.38823,-2.02993,-1.59987,1.75771,-0.346147
-1.63516,1.51612,1.38822,-2.02992,-1.59987,1.75771,-0.346148
-1.63515,1.51612,1.38823,-2.02993,-1.59987,1.75771,-0.346148
-1.63516,1.51612,1.38823,-2.02993,-1.59987,1.75771,-0.34615
-1.63515,1.51612,1.38823,-2.02993,-1.59987,1.75771,-0.346148
-1.63516,1.51612,1.38823,-2.02993,-1.59987,1.75771,-0.346149
-1.63516,1.51612,1.38823,-2.02993,-1.59987,1.75771,-0.346151
-1.63516,1.51612,1.38823,-2.02993,-1.59987,1.75771,-0.346152
-1.63515,1.51612,1.38823,-2.02993,-1.59987,1.75771,-0.346148
-1.63515,1.51612,1.38823,-2.02993,-1.59987,1.75771,-0.346149
-1.63515,1.51612,1.38823,-2.02993,-1.59987,1.75771,-0.346148
-1.63515,1.51612,1.38823,-2.02993,-1.59987,1.75771,-0.346153
-1.63516,1.51612,1.38823,-2.02993,-1.59987,1.75771,-0.34615
-1.63515,1.51612,1.38823,-2.02992,-1.59987,1.75771,-0.346151
-1.63515,1.51612,1.38823,-2.02993,-1.59987,1.75771,-0.346149
-1.63516,1.51612,1.38823,-2.02993,-1.59987,1.75771,-0.346151
-1.63515,1.51611,1.38823,-2.02993,-1.59987,1.75771,-0.346151
-1.63515,1.51612,1.38823,-2.02993,-1.59987,1.75771,-0.346155
-1.63516,1.51612,1.38822,-2.02993,-1.59987,1.75771,-0.34615
-1.63516,1.51612,1.38823,-2.02993,-1.59987,1.75771,-0.346154
-1.63515,1.51612,1.38823,-2.02993,-1.59987,1.75771,-0.346154
-1.63515,1.51612,1.38823,-2.02993,-1.59987,1.75771,-0.34615
-1.63515,1.51612,1.38823,-2.02993,-1.59987,1.75771,-0.346154
-1.63515,1.51612,1.38823,-2.02993,-1.59987,1.75771,-0.346152
-1.63516,1.51612,1.38823,-2.02993,-1.59987,1.75771,-0.346151
-1.63515,1.51612,1.38823,-2.02993,-1.59987,1.75771,-0.346151
-1.63516,1.51612,1.38823,-2.02993,-1.59987,1.75771,-0.346149
-1.63515,1.51612,1.38823,-2.02993,-1.59987,1.75771,-0.346154
-1.63515,1.51612,1.38823,-2.02993,-1.59987,1.75771,-0.346153
-1.63516,1.51612,1.38823,-2.02993,-1.59987,1.75771,-0.346151
-1.63516,1.51612,1.38823,-2.02993,-1.59987,1.75771,-0.34615
-1.63516,1.51612,1.38823,-2.02992,-1.59987,1.75771,-0.346151
-1.63516,1.51612,1.38823,-2.02993,-1.59987,1.75771,-0.346148
-1.63516,1.51612,1.38823,-2.02993,-1.59987,1.75771,-0.346151
-1.63515,1.51612,1.38823,-2.02993,-1.59987,1.75771,-0.346151
-1.63516,1.51612,1.38823,-2.02993,-1.59987,1.75771,-0.34615
-1.63516,1.51612,1.38823,-2.02993,-1.59987,1.75771,-0.346152
-1.63515,1.51612,1.38823,-2.02993,-1.59987,1.75771,-0.34615
-1.63516,1.51612,1.38823,-2.02993,-1.59987,1.75771,-0.346149
-1.63516,1.51612,1.38823,-2.02993,-1.59987,1.75771,-0.346154
-1.63516,1.51612,1.38823,-2.02993,-1.59987,1.75771,-0.346148
-1.63516,1.51612,1.38823,-2.02993,-1.59987,1.75771,-0.34615
-1.63516,1.51612,1.38823,-2.02993,-1.59987,1.75771,-0.346149
-1.63516,1.51612,1.38823,-2.02993,-1.59987,1.75771,-0.346154
-1.63516,1.51612,1.38823,-2.02993,-1.59987,1.75771,-0.346148
-1.63516,1.51612,1.38822,-2.02993,-1.59987,1.75771,-0.346149
-1.63516,1.51612,1.38823,-2.02993,-1.59987,1.75771,-0.34615
-1.63516,1.51612,1.38823,-2.02993,-1.59987,1.75771,-0.346156
-1.63516,1.51612,1.38823,-2.02993,-1.59987,1.75771,-0.34615
-1.63516,1.51612,1.38822,-2.02993,-1.59987,1.75771,-0.346149
-1.63516,1.51612,1.38823,-2.02993,-1.59987,1.75772,-0.34615
-1.63516,1.51612,1.38823,-2.02993,-1.59987,1.75771,-0.346153
-1.63516,1.51612,1.38823,-2.02993,-1.59987,1.75772,-0.346149
-1.63516,1.51612,1.38822,-2.02993,-1.59987,1.75772,-0.346149
-1.63516,1.51612,1.38823,-2.02993,-1.59988,1.75772,-0.346149
-1.63516,1.51612,1.38822,-2.02993,-1.59988,1.75772,-0.346151
-1.63516,1.51612,1.38823,-2.02993,-1.59988,1.75772,-0.346148
-1.63516,1.51613,1.38823,-2.02993,-1.59988,1.75772,-0.346148
-1.63516,1.51612,1.38822,-2.02993,-1.59987,1.75772,-0.346154
-1.63516,1.51613,1.38823,-2.02993,-1.59987,1.75772,-0.346151
-1.63516,1.51613,1.38822,-2.02993,-1.59988,1.75772,-0.346145
-1.63516,1.51612,1.38822,-2.02993,-1.59988,1.75772,-0.346145
-1.63516,1.51612,1.38823,-2.02993,-1.59988,1.75772,-0.34615
-1.63516,1.51613,1.38823,-2.02993,-1.59988,1.75772,-0.346149
-1.63515,1.51613,1.38822,-2.02993,-1.59987,1.75772,-0.346149
-1.63516,1.51612,1.38823,-2.02993,-1.59988,1.75772,-0.34615
-1.63516,1.51612,1.38822,-2.02992,-1.59988,1.75772,-0.346151
-1.63516,1.51613,1.38823,-2.02993,-1.59988,1.75772,-0.34615
-1.63517,1.51613,1.38823,-2.02993,-1.59988,1.75772,-0.346148
-1.63516,1.51613,1.38823,-2.02993,-1.59988,1.75772,-0.346149
-1.63516,1.51613,1.38822,-2.02993,-1.59987,1.75772,-0.346148
-1.63516,1.51614,1.38823,-2.02993,-1.59988,1.75772,-0.34615
-1.63516,1.51613,1.38823,-2.02992,-1.59988,1.75772,-0.34615
-1.63516,1.51613,1.38822,-2.02993,-1.59988,1.75772,-0.346153
-1.63516,1.51613,1.38822,-2.02992,-1.59988,1.75772,-0.346148
-1.63516,1.51613,1.38822,-2.02993,-1.59988,1.75772,-0.34615
-1.63516,1.51613,1.38822,-2.02992,-1.59988,1.75772,-0.346155
-1.63516,1.51613,1.38823,-2.02993,-1.59987,1.75772,-0.346153
-1.63516,1.51613,1.38823,-2.02993,-1.59987,1.75772,-0.34615
-1.63517,1.51613,1.38823,-2.02992,-1.59988,1.75772,-0.346146
-1.63517,1.51613,1.38822,-2.02992,-1.59987,1.75772,-0.346151
-1.63516,1.51613,1.38822,-2.02993,-1.59987,1.75772,-0.346152
-1.63516,1.51614,1.38823,-2.02993,-1.59987,1.75772,-0.346152
-1.63517,1.51613,1.38823,-2.02993,-1.59987,1.75772,-0.34615
-1.63516,1.51613,1.38823,-2.02992,-1.59988,1.75772,-0.346148
-1.63516,1.51613,1.38822,-2.02993,-1.59987,1.75772,-0.346148
-1.63516,1.51613,1.38822,-2.02993,-1.59987,1.75772,-0.346153
-1.63517,1.51613,1.38823,-2.02992,-1.59987,1.75772,-0.346152
-1.63516,1.51613,1.38823,-2.02992,-1.59987,1.75772,-0.346151
-1.63517,1.51612,1.38822,-2.02992,-1.59987,1.75773,-0.346151
-1.63517,1.51613,1.38823,-2.02992,-1.59987,1.75773,-0.346149
-1.63516,1.51613,1.38822,-2.02993,-1.59987,1.75773,-0.346147
-1.63516,1.51613,1.38823,-2.02992,-1.59987,1.75772,-0.34615
-1.63516,1.51612,1.38823,-2.02993,-1.59987,1.75772,-0.346152
-1.63516,1.51613,1.38822,-2.02992,-1.59987,1.75772,-0.346153
-1.63516,1.51613,1.38823,-2.02992,-1.59987,1.75772,-0.34615
-1.63516,1.51613,1.38823,-2.02992,-1.59987,1.75772,-0.34615
-1.63517,1.51612,1.38823,-2.02992,-1.59987,1.75772,-0.346149
-1.63516,1.51612,1.38822,-2.02992,-1.59987,1.75772,-0.346152
-1.63516,1.51613,1.38823,-2.02992,-1.59987,1.75772,-0.346152
-1.63516,1.51613,1.38822,-2.02992,-1.59987,1.75772,-0.346149
-1.63516,1.51612,1.38822,-2.02992,-1.59987,1.75772,-0.346149
-1.63516,1.51613,1.38823,-2.02993,-1.59987,1.75772,-0.346155
-1.63516,1.51612,1.38822,-2.02992,-1.59987,1.75772,-0.346147
-1.63516,1.51612,1.38823,-2.02993,-1.59987,1.75772,-0.346153
-1.63516,1.51612,1.38822,-2.02992,-1.59987,1.75772,-0.346147
-1.63516,1.51613,1.38823,-2.02993,-1.59987,1.75772,-0.346149
-1.63516,1.51613,1.38822,-2.02992,-1.59987,1.75772,-0.346149
-1.63516,1.51613,1.38822,-2.02992,-1.59987,1.75772,-0.346148
-1.63516,1.51612,1.38822,-2.02992,-1.59987,1.75772,-0.346152
-1.63516,1.51613,1.38822,-2.02992,-1.59987,1.75772,-0.346148
-1.63516,1.51612,1.38822,-2.02992,-1.59987,1.75772,-0.346149
-1.63516,1.51612,1.38823,-2.02992,-1.59987,1.75772,-0.346147
-1.63516,1.51612,1.38823,-2.02992,-1.59987,1.75772,-0.346152
-1.63516,1.51612,1.38823,-2.02993,-1.59987,1.75772,-0.346152
-1.63516,1.51613,1.38822,-2.02992,-1.59987,1.75772,-0.34615
-1.63516,1.51613,1.38822,-2.02992,-1.59987,1.75772,-0.346148
-1.63516,1.51613,1.38822,-2.02992,-1.59987,1.75772,-0.346146
-1.63516,1.51613,1.38823,-2.02992,-1.59987,1.75772,-0.346153
-1.63516,1.51613,1.38823,-2.02992,-1.59987,1.75772,-0.346149
-1.63516,1.51613,1.38823,-2.02993,-1.59987,1.75772,-0.34615
-1.63516,1.51613,1.38823,-2.02992,-1.59987,1.75772,-0.346146
-1.63516,1.51613,1.38823,-2.02992,-1.59987,1.75772,-0.346149
-1.63516,1.51613,1.38823,-2.02992,-1.59987,1.75772,-0.346148
-1.63516,1.51613,1.38822,-2.02992,-1.59987,1.75772,-0.34615
-1.63516,1.51612,1.38823,-2.02992,-1.59987,1.75772,-0.346152
-1.63516,1.51613,1.38822,-2.02992,-1.59987,1.75772,-0.346152
-1.63516,1.51613,1.38823,-2.02993,-1.59987,1.75772,-0.346152
-1.63516,1.51613,1.38823,-2.02993,-1.59987,1.75772,-0.346148
-1.63516,1.51613,1.38823,-2.02993,-1.59987,1.75772,-0.34615
-1.63516,1.51613,1.38822,-2.02992,-1.59987,1.75772,-0.346155
-1.63516,1.51613,1.38823,-2.02993,-1.59987,1.75772,-0.34615
-1.63516,1.51613,1.38822,-2.02993,-1.59987,1.75772,-0.346148
-1.63516,1.51613,1.38823,-2.02992,-1.59987,1.75772,-0.34615
-1.63516,1.51613,1.38823,-2.02992,-1.59987,1.75772,-0.34615
-1.63516,1.51613,1.38823,-2.02993,-1.59987,1.75772,-0.346151
-1.63516,1.51613,1.38822,-2.02993,-1.59987,1.75772,-0.346145
-1.63516,1.51613,1.38823,-2.02993,-1.59987,1.75772,-0.346151
-1.63516,1.51613,1.38823,-2.02992,-1.59987,1.75772,-0.346153
-1.63516,1.51613,1.38823,-2.02992,-1.59987,1.75772,-0.34615
-1.63516,1.51613,1.38823,-2.02992,-1.59986,1.75772,-0.346148
-1.63516,1.51613,1.38823,-2.02992,-1.59986,1.75772,-0.346151
-1.63516,1.51613,1.38823,-2.02992,-1.59986,1.75772,-0.346154
-1.63516,1.51613,1.38822,-2.02992,-1.59986,1.75772,-0.34615
-1.63516,1.51613,1.38822,-2.02992,-1.59986,1.75772,-0.346149
-1.63516,1.51613,1.38823,-2.02992,-1.59986,1.75772,-0.346149
-1.63516,1.51613,1.38822,-2.02992,-1.59986,1.75772,-0.346153
-1.63517,1.51613,1.38822,-2.02991,-1.59986,1.75772,-0.34615
-1.63517,1.51613,1.38823,-2.02991,-1.59986,1.75772,-0.34615
-1.63517,1.51613,1.38823,-2.02991,-1.59986,1.75772,-0.34615
-1.63516,1.51613,1.38822,-2.02991,-1.59986,1.75772,-0.346152
-1.63517,1.51613,1.38823,-2.02991,-1.59986,1.75772,-0.346155
-1.63517,1.51612,1.38823,-2.02991,-1.59986,1.75772,-0.346152
-1.63517,1.51613,1.38822,-2.02991,-1.59986,1.75772,-0.346151
-1.63517,1.51612,1.38822,-2.02991,-1.59986,1.75772,-0.34615
-1.63517,1.51612,1.38823,-2.0299,-1.59986,1.75772,-0.34615
-1.63518,1.51612,1.38822,-2.02991,-1.59986,1.75772,-0.34615
-1.63517,1.51613,1.38823,-2.02991,-1.59986,1.75772,-0.34615
-1.63518,1.51613,1.38822,-2.0299,-1.59986,1.75772,-0.346155
-1.63517,1.51613,1.38823,-2.0299,-1.59986,1.75772,-0.346152
-1.63518,1.51612,1.38823,-2.0299,-1.59986,1.75772,-0.34615
-1.63518,1.51613,1.38823,-2.02989,-1.59986,1.75772,-0.346152
-1.63518,1.51613,1.38822,-2.0299,-1.59986,1.75772,-0.346154
-1.63518,1.51613,1.38822,-2.0299,-1.59986,1.75772,-0.346152
-1.63518,1.51613,1.38823,-2.0299,-1.59986,1.75772,-0.346152
-1.63518,1.51613,1.38823,-2.0299,-1.59986,1.75772,-0.34615
-1.63518,1.51614,1.38822,-2.0299,-1.59986,1.75772,-0.346153
-1.63518,1.51613,1.38822,-2.0299,-1.59986,1.75772,-0.346151
-1.63519,1.51614,1.38822,-2.02989,-1.59986,1.75772,-0.346147
-1.63518,1.51613,1.38822,-2.02989,-1.59986,1.75773,-0.346146
-1.63518,1.51614,1.38822,-2.02989,-1.59986,1.75772,-0.346149
-1.63519,1.51614,1.38822,-2.02989,-1.59986,1.75772,-0.346151
-1.63519,1.51614,1.38822,-2.0299,-1.59986,1.75772,-0.346149
-1.63519,1.51614,1.38823,-2.02989,-1.59986,1.75772,-0.346149
-1.63519,1.51614,1.38822,-2.02989,-1.59986,1.75772,-0.346155
-1.63519,1.51614,1.38822,-2.02989,-1.59987,1.75772,-0.34615
-1.63519,1.51614,1.38822,-2.02989,-1.59986,1.75772,-0.346149
-1.63519,1.51614,1.38822,-2.02989,-1.59986,1.75773,-0.346149
-1.63519,1.51614,1.38822,-2.02989,-1.59986,1.75772,-0.346153
-1.63519,1.51614,1.38822,-2.02989,-1.59986,1.75772,-0.346151
-1.63519,1.51614,1.38823,-2.02989,-1.59986,1.75773,-0.34615
-1.63519,1.51614,1.38821,-2.02989,-1.59987,1.75772,-0.346149
-1.63519,1.51614,1.38822,-2.02989,-1.59986,1.75772,-0.346153
-1.63519,1.51614,1.38822,-2.02989,-1.59987,1.75773,-0.346152
-1.6352,1.51614,1.38822,-2.02989,-1.59987,1.75772,-0.34615
-1.63519,1.51614,1.38822,-2.02989,-1.59987,1.75773,-0.346154
-1.63519,1.51613,1.38822,-2.02989,-1.59987,1.75773,-0.346149
-1.6352,1.51613,1.38822,-2.02989,-1.59987,1.75772,-0.346148
-1.63519,1.51614,1.38823,-2.02989,-1.59986,1.75772,-0.346148
-1.63519,1.51613,1.38822,-2.02989,-1.59986,1.75772,-0.346153
-1.63519,1.51613,1.38822,-2.02989,-1.59987,1.75772,-0.346149
-1.63519,1.51613,1.38822,-2.02989,-1.59987,1.75772,-0.346151
-1.6352,1.51613,1.38822,-2.02989,-1.59987,1.75772,-0.346148
-1.6352,1.51614,1.38822,-2.02989,-1.59987,1.75773,-0.346154
-1.63519,1.51613,1.38822,-2.02989,-1.59986,1.75772,-0.346153
-1.63519,1.51613,1.38822,-2.02989,-1.59987,1.75772,-0.34615
-1.63519,1.51613,1.38822,-2.02989,-1.59987,1.75772,-0.34615
-1.63519,1.51613,1.38823,-2.02989,-1.59987,1.75772,-0.346153
-1.63519,1.51613,1.38822,-2.02989,-1.59987,1.75772,-0.346151
-1.63519,1.51613,1.38822,-2.02989,-1.59987,1.75772,-0.346152
-1.63519,1.51613,1.38822,-2.02989,-1.59987,1.75772,-0.346153
-1.63519,1.51612,1.38822,-2.02989,-1.59987,1.75772,-0.346154
-1.63519,1.51613,1.38822,-2.02989,-1.59987,1.75772,-0.346153
-1.63519,1.51612,1.38822,-2.02989,-1.59987,1.75772,-0.346148
-1.63519,1.51613,1.38822,-2.02989,-1.59987,1.75772,-0.34615
-1.63519,1.51612,1.38822,-2.02989,-1.59987,1.75772,-0.346153
-1.63519,1.51612,1.38822,-2.02989,-1.59987,1.75773,-0.346149
-1.63519,1.51612,1.38822,-2.02989,-1.59987,1.75772,-0.34615
-1.63518,1.51612,1.38822,-2.02989,-1.59987,1.75772,-0.34615
-1.63519,1.51612,1.38822,-2.02989,-1.59987,1.75772,-0.346154
-1.63518,1.51612,1.38822,-2.02989,-1.59987,1.75772,-0.346153
-1.63518,1.51612,1.38822,-2.02989,-1.59987,1.75772,-0.346151
-1.63518,1.51612,1.38822,-2.02989,-1.59987,1.75772,-0.346149
-1.63518,1.51612,1.38822,-2.02989,-1.59987,1.75772,-0.346151
-1.63518,1.51612,1.38822,-2.02989,-1.59987,1.75772,-0.346152
-1.63517,1.51613,1.38822,-2.02989,-1.59987,1.75772,-0.346152
-1.63518,1.51612,1.38822,-2.02989,-1.59987,1.75772,-0.34615
-1.63518,1.51612,1.38822,-2.02989,-1.59987,1.75772,-0.346146
-1.63518,1.51612,1.38822,-2.02989,-1.59987,1.75772,-0.346149
-1.63518,1.51612,1.38822,-2.02989,-1.59987,1.75772,-0.346148
-1.63518,1.51612,1.38822,-2.02989,-1.59987,1.75772,-0.346151
-1.63517,1.51612,1.38822,-2.0299,-1.59987,1.75772,-0.346151
-1.63518,1.51612,1.38822,-2.0299,-1.59987,1.75772,-0.346151
-1.63517,1.51612,1.38822,-2.02989,-1.59987,1.75772,-0.34615
-1.63517,1.51612,1.38822,-2.02989,-1.59987,1.75772,-0.346149
-1.63517,1.51612,1.38822,-2.0299,-1.59987,1.75772,-0.346152
-1.63518,1.51612,1.38822,-2.0299,-1.59987,1.75772,-0.346148
-1.63518,1.51612,1.38822,-2.02989,-1.59987,1.75772,-0.346148
-1.63517,1.51612,1.38822,-2.0299,-1.59987,1.75772,-0.346151
-1.63518,1.51612,1.38822,-2.0299,-1.59987,1.75772,-0.346152
-1.63517,1.51612,1.38822,-2.0299,-1.59987,1.75772,-0.346151
-1.63517,1.51612,1.38822,-2.0299,-1.59987,1.75771,-0.346152
-1.63517,1.51612,1.38822,-2.0299,-1.59988,1.75771,-0.346149
-1.63517,1.51612,1.38822,-2.0299,-1.59988,1.75772,-0.34615
-1.63517,1.51612,1.38822,-2.0299,-1.59987,1.75772,-0.346148
-1.63517,1.51612,1.38822,-2.0299,-1.59987,1.75771,-0.346153
-1.63517,1.51612,1.38822,-2.0299,-1.59988,1.75771,-0.346152
-1.63517,1.51613,1.38822,-2.0299,-1.59987,1.75772,-0.346154
-1.63517,1.51612,1.38822,-2.0299,-1.59987,1.75772,-0.346149
-1.63517,1.51612,1.38822,-2.0299,-1.59987,1.75772,-0.34615
-1.63517,1.51612,1.38822,-2.0299,-1.59987,1.75772,-0.346149
-1.63517,1.51612,1.38823,-2.0299,-1.59987,1.75771,-0.346151
-1.63517,1.51612,1.38822,-2.0299,-1.59987,1.75771,-0.34615
-1.63516,1.51612,1.38822,-2.0299,-1.59987,1.75772,-0.346155
-1.63517,1.51612,1.38822,-2.0299,-1.59987,1.75771,-0.34615
-1.63516,1.51612,1.38822,-2.0299,-1.59987,1.75772,-0.346149
-1.63516,1.51612,1.38822,-2.0299,-1.59987,1.75772,-0.346152
-1.63517,1.51612,1.38822,-2.0299,-1.59987,1.75772,-0.346153
-1.63517,1.51612,1.38822,-2.0299,-1.59987,1.75771,-0.346149
-1.63516,1.51612,1.38822,-2.0299,-1.59987,1.75772,-0.346148
-1.63516,1.51612,1.38822,-2.0299,-1.59987,1.75771,-0.346149
-1.63517,1.51612,1.38821,-2.0299,-1.59987,1.75771,-0.346154
-1.63517,1.51612,1.38822,-2.0299,-1.59987,1.75771,-0.34615
-1.63517,1.51612,1.38822,-2.0299,-1.59987,1.75771,-0.346153
-1.63517,1.51612,1.38822,-2.0299,-1.59987,1.75771,-0.34615
-1.63516,1.51612,1.38822,-2.0299,-1.59987,1.75771,-0.346151
-1.63517,1.51612,1.38822,-2.0299,-1.59987,1.75771,-0.346149
-1.63517,1.51612,1.38822,-2.0299,-1.59987,1.75771,-0.346152
-1.63517,1.51612,1.38822,-2.0299,-1.59988,1.75772,-0.346151
-1.63517,1.51612,1.38821,-2.0299,-1.59987,1.75771,-0.346155
-1.63516,1.51613,1.38822,-2.0299,-1.59987,1.75771,-0.34615
-1.63517,1.51612,1.38822,-2.02989,-1.59987,1.75772,-0.346151
-1.63517,1.51613,1.38822,-2.02989,-1.59987,1.75771,-0.346152
-1.63516,1.51612,1.38822,-2.0299,-1.59987,1.75771,-0.346151
-1.63517,1.51612,1.38822,-2.0299,-1.59987,1.75772,-0.346148
-1.63517,1.51612,1.38822,-2.0299,-1.59987,1.75772,-0.346152
-1.63517,1.51612,1.38822,-2.02989,-1.59987,1.75772,-0.346152
-1.63517,1.51612,1.38822,-2.02989,-1.59987,1.75771,-0.346153
-1.63517,1.51612,1.38822,-2.0299,-1.59987,1.75771,-0.34615
-1.63517,1.51612,1.38821,-2.0299,-1.59987,1.75771,-0.346153
-1.63517,1.51612,1.38822,-2.02989,-1.59987,1.75772,-0.34615
-1.63517,1.51612,1.38821,-2.02989,-1.59987,1.75771,-0.346149
-1.63517,1.51612,1.38821,-2.0299,-1.59987,1.75772,-0.34615
-1.63518,1.51613,1.38821,-2.0299,-1.59987,1.75771,-0.346153
-1.63518,1.51613,1.38821,-2.0299,-1.59987,1.75772,-0.346146
-1.63517,1.51613,1.38822,-2.02989,-1.59987,1.75771,-0.346148
-1.63517,1.51612,1.38821,-2.0299,-1.59987,1.75771,-0.346149
-1.63518,1.51612,1.38822,-2.02989,-1.59987,1.75771,-0.346153
-1.63517,1.51612,1.38822,-2.02989,-1.59987,1.75772,-0.34615
-1.63518,1.51612,1.38822,-2.0299,-1.59987,1.75772,-0.346148
-1.63517,1.51613,1.38822,-2.02989,-1.59987,1.75772,-0.34615
-1.63517,1.51612,1.38822,-2.02989,-1.59987,1.75772,-0.346154
-1.63517,1.51612,1.38821,-2.02989,-1.59988,1.75772,-0.346151
-1.63518,1.51612,1.38822,-2.0299,-1.59987,1.75771,-0.346148
-1.63518,1.51613,1.38822,-2.02989,-1.59987,1.75772,-0.34615
-1.63518,1.51613,1.38822,-2.02989,-1.59987,1.75772,-0.346151
-1.63517,1.51613,1.38822,-2.02989,-1.59987,1.75772,-0.346148
-1.63517,1.51612,1.38822,-2.02989,-1.59987,1.75772,-0.346148
-1.63517,1.51613,1.38822,-2.02989,-1.59987,1.75772,-0.346154
-1.63518,1.51612,1.38822,-2.02989,-1.59987,1.75772,-0.346153
-1.63518,1.51613,1.38821,-2.02989,-1.59987,1.75772,-0.346148
-1.63518,1.51612,1.38822,-2.02989,-1.59987,1.75772,-0.346148
-1.63517,1.51612,1.38821,-2.02989,-1.59987,1.75772,-0.346149
-1.63518,1.51613,1.38822,-2.02989,-1.59987,1.75772,-0.346154
-1.63517,1.51613,1.38822,-2.02989,-1.59988,1.75772,-0.346149
-1.63517,1.51612,1.38822,-2.02989,-1.59988,1.75772,-0.34615
-1.63518,1.51613,1.38822,-2.02989,-1.59988,1.75772,-0.346149
-1.63517,1.51613,1.38822,-2.02989,-1.59988,1.75772,-0.34615
-1.63517,1.51613,1.38821,-2.02989,-1.59988,1.75772,-0.346153
-1.63518,1.51612,1.38822,-2.02989,-1.59987,1.75772,-0.346148
-1.63518,1.51613,1.38821,-2.02989,-1.59988,1.75772,-0.346147
-1.63517,1.51612,1.38821,-2.02989,-1.59988,1.75772,-0.346153
-1.63517,1.51613,1.38822,-2.02989,-1.59988,1.75772,-0.346147
-1.63517,1.51613,1.38821,-2.02989,-1.59988,1.75772,-0.346152
-1.63517,1.51613,1.38821,-2.02989,-1.59988,1.75772,-0.34615
-1.63517,1.51613,1.38822,-2.02989,-1.59988,1.75772,-0.346154
-1.63517,1.51613,1.38821,-2.02989,-1.59988,1.75772,-0.346149
-1.63517,1.51613,1.38821,-2.02989,-1.59988,1.75772,-0.346147
-1.63517,1.51613,1.38821,-2.02989,-1.59988,1.75772,-0.346149
-1.63517,1.51612,1.38822,-2.02989,-1.59988,1.75772,-0.346154
-1.63517,1.51613,1.38821,-2.0299,-1.59988,1.75772,-0.34615
-1.63517,1.51613,1.38821,-2.02989,-1.59988,1.75772,-0.34615
-1.63518,1.51613,1.38821,-2.02989,-1.59988,1.75772,-0.346149
-1.63517,1.51613,1.38822,-2.02989,-1.59988,1.75772,-0.34615
-1.63517,1.51613,1.38821,-2.02989,-1.59988,1.75772,-0.34615
-1.63517,1.51613,1.38821,-2.02989,-1.59988,1.75772,-0.346151
-1.63516,1.51613,1.38821,-2.02989,-1.59988,1.75772,-0.346149
-1.63517,1.51613,1.38821,-2.0299,-1.59988,1.75772,-0.346155
-1.63517,1.51613,1.38822,-2.02989,-1.59988,1.75772,-0.346149
-1.63517,1.51613,1.38821,-2.0299,-1.59988,1.75772,-0.346148
-1.63516,1.51613,1.3882,-2.0299,-1.59988,1.75772,-0.346152
-1.63516,1.51613,1.38822,-2.0299,-1.59988,1.75772,-0.346153
-1.63516,1.51613,1.38821,-2.0299,-1.59988,1.75772,-0.34615
-1.63517,1.51612,1.38822,-2.0299,-1.59988,1.75772,-0.346148
-1.63516,1.51613,1.38822,-2.0299,-1.59988,1.75772,-0.34615
-1.63517,1.51613,1.38821,-2.0299,-1.59988,1.75772,-0.346154
-1.63516,1.51612,1.38821,-2.0299,-1.59988,1.75772,-0.346153
-1.63517,1.51612,1.38822,-2.0299,-1.59988,1.75772,-0.34615
-1.63517,1.51613,1.38821,-2.0299,-1.59988,1.75772,-0.346149
-1.63516,1.51612,1.38821,-2.0299,-1.59988,1.75772,-0.346154
-1.63517,1.51613,1.38821,-2.0299,-1.59988,1.75772,-0.346153
-1.63516,1.51613,1.38821,-2.0299,-1.59988,1.75772,-0.346148
-1.63516,1.51613,1.38821,-2.0299,-1.59988,1.75772,-0.346153
-1.63516,1.51613,1.38821,-2.0299,-1.59988,1.75772,-0.346151
-1.63516,1.51613,1.38821,-2.0299,-1.59988,1.75772,-0.346152
-1.63516,1.51613,1.38821,-2.0299,-1.59988,1.75772,-0.346147
-1.63516,1.51614,1.38821,-2.0299,-1.59988,1.75773,-0.346151
-1.63517,1.51613,1.38821,-2.0299,-1.59988,1.75772,-0.346153
-1.63517,1.51613,1.38821,-2.0299,-1.59988,1.75773,-0.346152
-1.63516,1.51613,1.38821,-2.0299,-1.59988,1.75772,-0.346144
-1.63517,1.51613,1.38821,-2.02991,-1.59988,1.75772,-0.346149
-1.63516,1.51613,1.38821,-2.02991,-1.59988,1.75772,-0.346154
-1.63516,1.51612,1.38821,-2.0299,-1.59988,1.75772,-0.346151
-1.63516,1.51613,1.38821,-2.0299,-1.59988,1.75772,-0.346149
-1.63516,1.51613,1.38822,-2.02991,-1.59988,1.75772,-0.346149
-1.63517,1.51613,1.38821,-2.0299,-1.59988,1.75772,-0.346154
-1.63517,1.51612,1.38821,-2.0299,-1.59988,1.75772,-0.346153
-1.63516,1.51613,1.38821,-2.02991,-1.59988,1.75772,-0.346148
-1.63516,1.51613,1.38821,-2.02991,-1.59988,1.75772,-0.346148
-1.63516,1.51613,1.38821,-2.02991,-1.59988,1.75772,-0.346155
-1.63516,1.51613,1.38821,-2.02991,-1.59988,1.75772,-0.346151
-1.63516,1.51613,1.38821,-2.02991,-1.59988,1.75772,-0.346144
-1.63516,1.51612,1.38821,-2.02991,-1.59988,1.75772,-0.34615
-1.63516,1.51612,1.38821,-2.0299,-1.59988,1.75772,-0.346152
-1.63516,1.51612,1.38821,-2.02991,-1.59988,1.75772,-0.346151
-1.63516,1.51612,1.38821,-2.02991,-1.59988,1.75772,-0.346148
-1.63516,1.51613,1.38821,-2.0299,-1.59988,1.75772,-0.34615
-1.63516,1.51612,1.38821,-2.02991,-1.59988,1.75772,-0.346153
-1.63516,1.51613,1.38821,-2.02991,-1.59989,1.75772,-0.346152
-1.63516,1.51613,1.38822,-2.0299,-1.59989,1.75772,-0.346148
-1.63516,1.51613,1.38821,-2.0299,-1.59988,1.75772,-0.346148
-1.63516,1.51612,1.38821,-2.02991,-1.59988,1.75772,-0.346154
-1.63516,1.51612,1.38821,-2.02991,-1.59988,1.75772,-0.346157
-1.63517,1.51612,1.38821,-2.0299,-1.59989,1.75772,-0.34615
-1.63517,1.51613,1.38821,-2.02991,-1.59989,1.75772,-0.346148
-1.63516,1.51612,1.38821,-2.02991,-1.59989,1.75772,-0.346152
-1.63516,1.51612,1.38821,-2.02991,-1.59989,1.75772,-0.346152
-1.63516,1.51612,1.38821,-2.02991,-1.59989,1.75772,-0.346147
-1.63517,1.51612,1.38821,-2.02991,-1.59989,1.75772,-0.34615
-1.63517,1.51612,1.38821,-2.0299,-1.59989,1.75772,-0.346155
-1.63516,1.51612,1.38821,-2.02991,-1.59989,1.75772,-0.346154
-1.63516,1.51612,1.38821,-2.0299,-1.59989,1.75772,-0.346147
-1.63516,1.51612,1.38821,-2.0299,-1.59989,1.75772,-0.346149
-1.63517,1.51612,1.38821,-2.02991,-1.59989,1.75772,-0.346153
-1.63517,1.51612,1.38821,-2.0299,-1.59989,1.75772,-0.346153
-1.63516,1.51612,1.38821,-2.0299,-1.59989,1.75772,-0.34615
-1.63517,1.51612,1.38821,-2.0299,-1.59989,1.75772,-0.346147
-1.63516,1.51612,1.38822,-2.0299,-1.59989,1.75771,-0.346154
-1.63517,1.51612,1.38822,-2.0299,-1.59989,1.75772,-0.346154
-1.63517,1.51612,1.38821,-2.0299,-1.59988,1.75771,-0.34615
-1.63516,1.51612,1.38822,-2.0299,-1.59988,1.75772,-0.346147
-1.63517,1.51612,1.38822,-2.0299,-1.59988,1.75772,-0.346153
-1.63516,1.51612,1.38822,-2.0299,-1.59988,1.75771,-0.34615
-1.63517,1.51612,1.38822,-2.0299,-1.59988,1.75772,-0.346153
-1.63517,1.51612,1.38822,-2.0299,-1.59988,1.75772,-0.346146
-1.63517,1.51612,1.38822,-2.0299,-1.59988,1.75771,-0.346152
-1.63517,1.51612,1.38822,-2.0299,-1.59988,1.75771,-0.346154
-1.63518,1.51612,1.38822,-2.0299,-1.59988,1.75771,-0.346149
-1.63517,1.51612,1.38821,-2.0299,-1.59988,1.75771,-0.346147
-1.63518,1.51612,1.38821,-2.0299,-1.59988,1.75771,-0.346152
-1.63518,1.51612,1.38821,-2.0299,-1.59989,1.75772,-0.346154
-1.63518,1.51612,1.38822,-2.0299,-1.59989,1.75772,-0.346149
-1.63518,1.51612,1.38821,-2.0299,-1.59989,1.75772,-0.346147
-1.63518,1.51612,1.38821,-2.0299,-1.59989,1.75772,-0.34615
-1.63518,1.51612,1.38821,-2.0299,-1.59989,1.75772,-0.346153
-1.63518,1.51612,1.38821,-2.02989,-1.59988,1.75772,-0.346151
-1.63518,1.51612,1.38821,-2.02989,-1.59988,1.75772,-0.346147
-1.63518,1.51612,1.38821,-2.02989,-1.59989,1.75772,-0.34615
-1.63518,1.51612,1.3882,-2.0299,-1.59989,1.75772,-0.34615
-1.63518,1.51612,1.38821,-2.02989,-1.59989,1.75772,-0.346149
-1.63518,1.51612,1.38821,-2.02989,-1.59989,1.75772,-0.346148
-1.63518,1.51612,1.38821,-2.02989,-1.59989,1.75772,-0.346153
-1.63518,1.51612,1.3882,-2.02989,-1.59989,1.75772,-0.346154
-1.63518,1.51612,1.38821,-2.02989,-1.59988,1.75772,-0.34615
-1.63518,1.51613,1.38821,-2.02989,-1.59988,1.75772,-0.346148
-1.63518,1.51613,1.38821,-2.02989,-1.59989,1.75772,-0.34615
-1.63517,1.51613,1.38821,-2.02989,-1.59989,1.75772,-0.346153
-1.63517,1.51613,1.38821,-2.0299,-1.59989,1.75772,-0.34615
-1.63517,1.51613,1.38821,-2.02989,-1.59989,1.75772,-0.346146
-1.63518,1.51613,1.38821,-2.02989,-1.59989,1.75772,-0.346149
-1.63518,1.51613,1.38821,-2.0299,-1.59989,1.75772,-0.346151
-1.63517,1.51613,1.38821,-2.02989,-1.59989,1.75772,-0.346153
-1.63517,1.51614,1.38821,-2.02989,-1.59989,1.75772,-0.346148
-1.63517,1.51613,1.38821,-2.0299,-1.59989,1.75772,-0.346149
-1.63516,1.51613,1.38821,-2.02989,-1.59989,1.75772,-0.346151
-1.63516,1.51613,1.38821,-2.0299,-1.59989,1.75772,-0.346153
-1.63516,1.51613,1.38821,-2.02989,-1.59989,1.75771,-0.34615
-1.63516,1.51613,1.38821,-2.02989,-1.59989,1.75772,-0.346148
-1.63516,1.51613,1.38822,-2.0299,-1.59989,1.75772,-0.34615
-1.63516,1.51613,1.38822,-2.0299,-1.59989,1.75772,-0.346149
-1.63516,1.51613,1.38821,-2.0299,-1.59989,1.75772,-0.346148
-1.63516,1.51613,1.38821,-2.0299,-1.59989,1.75772,-0.346152
-1.63516,1.51613,1.38821,-2.0299,-1.59989,1.75772,-0.346152
-1.63516,1.51613,1.38821,-2.02989,-1.59989,1.75771,-0.34615
-1.63515,1.51613,1.38821,-2.0299,-1.59989,1.75772,-0.346148
-1.63516,1.51613,1.38821,-2.0299,-1.59989,1.75772,-0.34615
-1.63516,1.51613,1.38821,-2.0299,-1.59989,1.75772,-0.346152
-1.63515,1.51612,1.38821,-2.0299,-1.59989,1.75772,-0.346153
-1.63516,1.51613,1.38821,-2.0299,-1.59989,1.75771,-0.346149
-1.63516,1.51612,1.38821,-2.02989,-1.59989,1.75771,-0.346149
-1.63515,1.51612,1.38821,-2.0299,-1.59989,1.75772,-0.346149
-1.63516,1.51612,1.38822,-2.0299,-1.59989,1.75771,-0.346154
-1.63515,1.51612,1.38821,-2.0299,-1.59989,1.75771,-0.34615
-1.63516,1.51612,1.38821,-2.0299,-1.59989,1.75771,-0.346153
-1.63515,1.51612,1.38821,-2.0299,-1.59989,1.75771,-0.346152
-1.63515,1.51612,1.38821,-2.0299,-1.59989,1.75772,-0.34615
-1.63515,1.51612,1.38821,-2.0299,-1.59989,1.75772,-0.346148
-1.63515,1.51612,1.38821,-2.0299,-1.59989,1.75772,-0.34615
-1.63515,1.51612,1.38821,-2.0299,-1.59989,1.75771,-0.346151
-1.63515,1.51612,1.38821,-2.0299,-1.59989,1.75771,-0.346148
-1.63515,1.51612,1.38821,-2.0299,-1.59989,1.75771,-0.346149
-1.63514,1.51612,1.38821,-2.0299,-1.59989,1.75771,-0.346149
-1.63515,1.51612,1.38821,-2.0299,-1.59989,1.75771,-0.34615
-1.63514,1.51611,1.38821,-2.0299,-1.59989,1.75771,-0.346153
-1.63514,1.51612,1.38821,-2.0299,-1.59989,1.75771,-0.346149
-1.63515,1.51612,1.38821,-2.0299,-1.59989,1.75771,-0.346144
-1.63514,1.51612,1.38821,-2.0299,-1.59989,1.75771,-0.346147
-1.63514,1.51612,1.38821,-2.0299,-1.59989,1.75771,-0.346154
-1.63514,1.51612,1.38821,-2.0299,-1.59989,1.75771,-0.346147
-1.63514,1.51612,1.38821,-2.0299,-1.59989,1.75771,-0.346148
-1.63514,1.51612,1.38821,-2.0299,-1.59989,1.75771,-0.346152
-1.63514,1.51612,1.38821,-2.02991,-1.59989,1.75771,-0.34615
-1.63514,1.51612,1.38821,-2.02991,-1.5999,1.75771,-0.346147
-1.63514,1.51612,1.38821,-2.02991,-1.59989,1.75771,-0.346149
-1.63513,1.51612,1.38821,-2.02991,-1.59989,1.75771,-0.346152
-1.63514,1.51612,1.38821,-2.02991,-1.59989,1.75771,-0.346153
-1.63514,1.51612,1.38821,-2.02991,-1.59989,1.75771,-0.346146
-1.63514,1.51612,1.38821,-2.02991,-1.59989,1.75771,-0.346146
-1.63514,1.51612,1.38821,-2.02991,-1.59989,1.75771,-0.346149
-1.63514,1.51612,1.38821,-2.02991,-1.59989,1.75771,-0.346152
-1.63514,1.51612,1.38821,-2.02991,-1.59989,1.75771,-0.34615
-1.63514,1.51612,1.3882,-2.02992,-1.59989,1.75771,-0.346149
-1.63514,1.51612,1.38821,-2.02992,-1.59989,1.75771,-0.346149
-1.63514,1.51612,1.38822,-2.02991,-1.59989,1.75771,-0.34615
-1.63514,1.51612,1.38821,-2.02992,-1.5999,1.75771,-0.34615
-1.63514,1.51612,1.38821,-2.02992,-1.59989,1.75771,-0.346148
-1.63514,1.51612,1.38821,-2.02992,-1.5999,1.75771,-0.346153
-1.63514,1.51613,1.38821,-2.02992,-1.59989,1.75771,-0.34615
-1.63513,1.51612,1.38821,-2.02992,-1.5999,1.75771,-0.346148
-1.63514,1.51612,1.38821,-2.02992,-1.5999,1.75771,-0.34615
-1.63514,1.51613,1.3882,-2.02992,-1.5999,1.75771,-0.346152
-1.63514,1.51612,1.3882,-2.02992,-1.5999,1.75771,-0.346149
-1.63514,1.51612,1.38821,-2.02992,-1.5999,1.75771,-0.346149
-1.63514,1.51613,1.38821,-2.02992,-1.5999,1.75771,-0.346149
-1.63514,1.51613,1.38821,-2.02992,-1.5999,1.75771,-0.346148
-1.63513,1.51612,1.38821,-2.02992,-1.5999,1.75771,-0.346151
-1.63514,1.51612,1.38821,-2.02992,-1.5999,1.75771,-0.346149
-1.63513,1.51613,1.38821,-2.02991,-1.5999,1.75771,-0.346148
-1.63513,1.51613,1.38821,-2.02992,-1.5999,1.75771,-0.346149
-1.63513,1.51613,1.38821,-2.02992,-1.5999,1.75771,-0.346153
-1.63513,1.51613,1.38821,-2.02992,-1.5999,1.75771,-0.346146
-1.63514,1.51613,1.3882,-2.02992,-1.5999,1.75771,-0.346147
-1.63514,1.51613,1.3882,-2.02992,-1.5999,1.75771,-0.346151
-1.63514,1.51613,1.3882,-2.02992,-1.5999,1.75771,-0.346151
-1.63513,1.51612,1.3882,-2.02992,-1.5999,1.75771,-0.346149
-1.63513,1.51612,1.3882,-2.02992,-1.59991,1.75771,-0.34615
-1.63513,1.51613,1.3882,-2.02992,-1.5999,1.75771,-0.34615
-1.63513,1.51612,1.38821,-2.02992,-1.5999,1.75771,-0.346153
-1.63513,1.51612,1.38821,-2.02992,-1.59991,1.75771,-0.34615
-1.63514,1.51612,1.3882,-2.02992,-1.59991,1.75771,-0.346148
-1.63512,1.51612,1.38821,-2.02992,-1.59991,1.75771,-0.346148
-1.63513,1.51612,1.3882,-2.02992,-1.59991,1.75771,-0.346156
-1.63513,1.51612,1.38821,-2.02992,-1.59991,1.75771,-0.346151
-1.63512,1.51612,1.38821,-2.02993,-1.5999,1.75771,-0.346148
-1.63513,1.51612,1.3882,-2.02992,-1.59991,1.75771,-0.346148
-1.63513,1.51612,1.38821,-2.02992,-1.59991,1.75771,-0.346155
-1.63513,1.51612,1.3882,-2.02993,-1.59991,1.75771,-0.346152
-1.63513,1.51612,1.38821,-2.02992,-1.59991,1.75771,-0.346153
-1.63512,1.51612,1.38821,-2.02993,-1.59991,1.75771,-0.346148
-1.63512,1.51612,1.38821,-2.02993,-1.59991,1.75771,-0.346151
-1.63512,1.51612,1.38821,-2.02993,-1.59991,1.75771,-0.346148
-1.63512,1.51612,1.38821,-2.02993,-1.59991,1.75771,-0.346149
-1.63512,1.51612,1.38821,-2.02993,-1.59991,1.75771,-0.346151
-1.63511,1.51612,1.38821,-2.02993,-1.59991,1.75771,-0.346152
-1.63512,1.51612,1.38821,-2.02994,-1.59991,1.75771,-0.346146
-1.63512,1.51612,1.3882,-2.02994,-1.59991,1.75771,-0.346149
-1.63512,1.51612,1.38821,-2.02994,-1.59991,1.75771,-0.346148
-1.63511,1.51612,1.3882,-2.02995,-1.59991,1.75771,-0.346152
-1.63511,1.51612,1.38821,-2.02994,-1.59991,1.75771,-0.346149
-1.63511,1.51612,1.38821,-2.02995,-1.59991,1.75771,-0.34615
-1.63511,1.51612,1.3882,-2.02995,-1.59991,1.75771,-0.346146
-1.63511,1.51612,1.38821,-2.02995,-1.59991,1.75771,-0.346151
-1.6351,1.51612,1.38821,-2.02995,-1.59991,1.75771,-0.346149
-1.63511,1.51612,1.3882,-2.02995,-1.59991,1.75771,-0.346146
-1.63509,1.51612,1.38821,-2.02995,-1.59992,1.75771,-0.346146
-1.6351,1.51612,1.38821,-2.02995,-1.59991,1.75771,-0.346146
-1.63509,1.51612,1.38821,-2.02996,-1.59992,1.75771,-0.34615
-1.63509,1.51612,1.38821,-2.02996,-1.59992,1.75771,-0.346148
-1.63509,1.51612,1.38821,-2.02996,-1.59992,1.75771,-0.346145
-1.63509,1.51613,1.38821,-2.02996,-1.59992,1.75771,-0.34615
-1.63509,1.51612,1.38821,-2.02996,-1.59992,1.75771,-0.346153
-1.63509,1.51612,1.38821,-2.02997,-1.59992,1.75771,-0.346149
-1.63508,1.51612,1.38821,-2.02997,-1.59992,1.75771,-0.346148
-1.63509,1.51612,1.38821,-2.02997,-1.59992,1.75771,-0.346148
-1.63508,1.51612,1.38821,-2.02997,-1.59992,1.75771,-0.346151
-1.63508,1.51612,1.38821,-2.02997,-1.59993,1.75771,-0.346151
-1.63508,1.51612,1.38821,-2.02997,-1.59992,1.75771,-0.346148
-1.63508,1.51612,1.38821,-2.02997,-1.59992,1.75771,-0.34615
-1.63508,1.51612,1.38821,-2.02997,-1.59992,1.75771,-0.346154
-1.63507,1.51612,1.38821,-2.02997,-1.59992,1.75771,-0.346149
-1.63508,1.51612,1.38821,-2.02998,-1.59992,1.75771,-0.346144
-1.63508,1.51612,1.38821,-2.02998,-1.59992,1.75771,-0.346145
-1.63507,1.51612,1.38821,-2.02998,-1.59992,1.75771,-0.346153
-1.63507,1.51612,1.38821,-2.02998,-1.59992,1.75771,-0.346146
-1.63508,1.51612,1.38821,-2.02999,-1.59992,1.75771,-0.346146
-1.63507,1.51612,1.38821,-2.02999,-1.59992,1.75771,-0.346148
-1.63508,1.51611,1.38821,-2.02999,-1.59993,1.75771,-0.346151
-1.63507,1.51612,1.38821,-2.02999,-1.59992,1.75771,-0.34615
-1.63507,1.51612,1.38821,-2.03,-1.59992,1.75771,-0.346148
-1.63507,1.51612,1.38821,-2.02999,-1.59992,1.75771,-0.34615
-1.63507,1.51612,1.38821,-2.02999,-1.59993,1.75771,-0.346151
-1.63508,1.51612,1.38821,-2.03,-1.59993,1.75771,-0.346155
-1.63507,1.51612,1.38821,-2.03,-1.59993,1.75771,-0.346149
-1.63507,1.51612,1.38821,-2.03,-1.59993,1.75771,-0.346149
-1.63507,1.51612,1.38821,-2.03,-1.59993,1.75771,-0.346151
-1.63507,1.51612,1.38821,-2.03001,-1.59993,1.75771,-0.346153
-1.63507,1.51611,1.38821,-2.03,-1.59993,1.75771,-0.346148
-1.63508,1.51611,1.38821,-2.03,-1.59993,1.75771,-0.34615
-1.63507,1.51612,1.38821,-2.03001,-1.59993,1.75771,-0.346145
-1.63507,1.51612,1.38821,-2.03001,-1.59993,1.75771,-0.346148
-1.63507,1.51612,1.38821,-2.03,-1.59993,1.75771,-0.346145
-1.63507,1.51612,1.38821,-2.03001,-1.59993,1.75771,-0.346147
-1.63507,1.51612,1.38821,-2.03001,-1.59992,1.75771,-0.34615
-1.63507,1.51612,1.38821,-2.03001,-1.59993,1.75771,-0.346152
-1.63507,1.51612,1.38821,-2.03001,-1.59993,1.75771,-0.346148
-1.63507,1.51612,1.38821,-2.03001,-1.59993,1.75771,-0.346148
-1.63508,1.51612,1.38821,-2.03001,-1.59993,1.75771,-0.346154
-1.63508,1.51612,1.38821,-2.03002,-1.59993,1.75771,-0.346154
-1.63508,1.51611,1.38821,-2.03002,-1.59993,1.75771,-0.346149
-1.63507,1.51612,1.38821,-2.03002,-1.59993,1.75771,-0.346144
-1.63508,1.51612,1.3882,-2.03001,-1.59993,1.75771,-0.346149
-1.63508,1.51612,1.38822,-2.03001,-1.59993,1.75771,-0.34615
-1.63508,1.51612,1.38821,-2.03002,-1.59993,1.75771,-0.346147
-1.63508,1.51612,1.38821,-2.03001,-1.59993,1.75771,-0.346148
-1.63508,1.51612,1.38821,-2.03002,-1.59993,1.75771,-0.346152
-1.63508,1.51612,1.38821,-2.03002,-1.59993,1.75771,-0.34615
-1.63509,1.51612,1.38821,-2.03002,-1.59993,1.75771,-0.346147
-1.63508,1.51612,1.38821,-2.03001,-1.59993,1.75771,-0.346148
-1.63508,1.51612,1.38821,-2.03002,-1.59993,1.75771,-0.34615
-1.63509,1.51612,1.38821,-2.03002,-1.59993,1.75771,-0.346154
-1.63508,1.51612,1.38821,-2.03002,-1.59993,1.75772,-0.346149
-1.63509,1.51612,1.38821,-2.03002,-1.59993,1.75771,-0.346149
-1.63509,1.51612,1.3882,-2.03002,-1.59993,1.75771,-0.346151
-1.63509,1.51612,1.38821,-2.03002,-1.59993,1.75771,-0.346153
-1.63509,1.51612,1.38821,-2.03001,-1.59993,1.75771,-0.346149
-1.63509,1.51612,1.38821,-2.03002,-1.59993,1.75772,-0.346148
-1.63509,1.51612,1.38821,-2.03002,-1.59993,1.75772,-0.346149
-1.63509,1.51612,1.38821,-2.03002,-1.59993,1.75771,-0.346152
-1.63509,1.51612,1.38821,-2.03001,-1.59993,1.75772,-0.346153
-1.63509,1.51612,1.38821,-2.03002,-1.59993,1.75772,-0.346152
-1.63509,1.51612,1.38821,-2.03001,-1.59993,1.75772,-0.346151
-1.63509,1.51612,1.38821,-2.03001,-1.59993,1.75772,-0.346153
-1.63509,1.51612,1.38821,-2.03002,-1.59993,1.75772,-0.346148
-1.63508,1.51612,1.38821,-2.03002,-1.59993,1.75772,-0.346148
-1.63509,1.51612,1.38821,-2.03002,-1.59993,1.75771,-0.346149
-1.63509,1.51612,1.38822,-2.03001,-1.59993,1.75771,-0.346155
-1.63508,1.51612,1.38821,-2.03001,-1.59993,1.75771,-0.346149
-1.63509,1.51612,1.38821,-2.03002,-1.59993,1.75772,-0.346149
-1.63508,1.51611,1.38821,-2.03001,-1.59993,1.75772,-0.346149
-1.63509,1.51612,1.38821,-2.03002,-1.59993,1.75771,-0.346153
-1.63508,1.51612,1.38821,-2.03002,-1.59993,1.75771,-0.34615
-1.63509,1.51612,1.38821,-2.03001,-1.59993,1.75772,-0.346148
-1.63509,1.51612,1.38821,-2.03001,-1.59993,1.75771,-0.346149
-1.63508,1.51612,1.38821,-2.03001,-1.59994,1.75771,-0.346152
-1.63508,1.51612,1.38821,-2.03001,-1.59994,1.75771,-0.346152
-1.63508,1.51612,1.38821,-2.03001,-1.59994,1.75772,-0.346152
-1.63508,1.51612,1.38821,-2.03002,-1.59993,1.75771,-0.346151
-1.63508,1.51612,1.38821,-2.03001,-1.59994,1.75771,-0.346148
-1.63508,1.51611,1.38821,-2.03002,-1.59994,1.75771,-0.346148
-1.63508,1.51612,1.38821,-2.03001,-1.59994,1.75771,-0.34615
-1.63509,1.51612,1.38821,-2.03001,-1.59993,1.75772,-0.34615
-1.63508,1.51612,1.38821,-2.03001,-1.59994,1.75771,-0.346148
-1.63508,1.51611,1.38821,-2.03002,-1.59994,1.75771,-0.346146
-1.63507,1.51612,1.38821,-2.03002,-1.59994,1.75772,-0.34615
-1.63508,1.51612,1.38821,-2.03002,-1.59994,1.75771,-0.346153
-1.63507,1.51611,1.38821,-2.03002,-1.59993,1.75771,-0.346149
-1.63508,1.51611,1.38821,-2.03002,-1.59994,1.75771,-0.346145
-1.63507,1.51612,1.38821,-2.03002,-1.59994,1.75771,-0.346144
-1.63507,1.51611,1.38821,-2.03002,-1.59994,1.75771,-0.34615
-1.63507,1.51612,1.38821,-2.03002,-1.59994,1.75771,-0.346151
-1.63507,1.51612,1.38821,-2.03003,-1.59994,1.75771,-0.346147
-1.63508,1.51611,1.38821,-2.03002,-1.59994,1.75771,-0.346149
-1.63507,1.51611,1.38821,-2.03002,-1.59994,1.75771,-0.346153
-1.63507,1.51611,1.38821,-2.03002,-1.59993,1.75771,-0.346149
-1.63507,1.51612,1.38821,-2.03003,-1.59994,1.75771,-0.346148
-1.63506,1.51611,1.38821,-2.03002,-1.59994,1.75771,-0.346149
-1.63506,1.51611,1.38821,-2.03003,-1.59994,1.75771,-0.346154
-1.63507,1.51612,1.38822,-2.03003,-1.59994,1.75771,-0.346147
-1.63506,1.51611,1.38821,-2.03002,-1.59994,1.75771,-0.346149
-1.63507,1.51612,1.38821,-2.03003,-1.59994,1.75771,-0.346149
-1.63506,1.51611,1.38821,-2.03003,-1.59994,1.75771,-0.346152
-1.63506,1.51612,1.38821,-2.03003,-1.59994,1.75771,-0.346152
-1.63506,1.51612,1.38821,-2.03003,-1.59994,1.75771,-0.346153
-1.63506,1.51611,1.38821,-2.03003,-1.59994,1.75771,-0.34615
-1.63506,1.51612,1.38821,-2.03003,-1.59994,1.75771,-0.346149
-1.63506,1.51612,1.38821,-2.03004,-1.59994,1.75771,-0.346151
-1.63506,1.51612,1.38821,-2.03004,-1.59994,1.75771,-0.346153
-1.63506,1.51612,1.38821,-2.03004,-1.59994,1.75771,-0.34615
-1.63506,1.51612,1.38821,-2.03004,-1.59994,1.75771,-0.346154
-1.63506,1.51612,1.38821,-2.03004,-1.59994,1.75771,-0.34615
-1.63506,1.51612,1.38821,-2.03005,-1.59994,1.75771,-0.346149
-1.63506,1.51612,1.38821,-2.03005,-1.59994,1.75771,-0.34615
-1.63506,1.51612,1.38821,-2.03005,-1.59994,1.75771,-0.346149
-1.63506,1.51612,1.38821,-2.03005,-1.59994,1.75771,-0.346153
-1.63505,1.51612,1.38821,-2.03006,-1.59994,1.75771,-0.346153
-1.63506,1.51611,1.38821,-2.03006,-1.59994,1.75771,-0.346146
-1.63506,1.51612,1.38821,-2.03006,-1.59994,1.75771,-0.346148
-1.63505,1.51611,1.38821,-2.03007,-1.59994,1.75771,-0.346148
-1.63506,1.51612,1.38821,-2.03007,-1.59994,1.75771,-0.34615
-1.63505,1.51612,1.38821,-2.03007,-1.59994,1.75771,-0.346155
-1.63505,1.51612,1.38821,-2.03007,-1.59995,1.75771,-0.346152
-1.63506,1.51611,1.38822,-2.03008,-1.59995,1.75771,-0.346154
-1.63505,1.51612,1.38822,-2.03008,-1.59995,1.75771,-0.346151
-1.63505,1.51611,1.38821,-2.03009,-1.59995,1.75771,-0.346152
-1.63505,1.51612,1.38821,-2.03009,-1.59995,1.75771,-0.346145
-1.63505,1.51611,1.38821,-2.03009,-1.59995,1.75771,-0.34615
-1.63505,1.51611,1.38822,-2.0301,-1.59995,1.75771,-0.346152
-1.63505,1.51612,1.38822,-2.0301,-1.59995,1.75771,-0.346153
-1.63505,1.51612,1.38821,-2.0301,-1.59995,1.75771,-0.346152
-1.63505,1.51612,1.38822,-2.03011,-1.59995,1.75771,-0.346149
-1.63505,1.51611,1.38822,-2.03012,-1.59995,1.75771,-0.346149
-1.63505,1.51611,1.38822,-2.03012,-1.59995,1.75771,-0.346148
-1.63505,1.51611,1.38821,-2.03013,-1.59995,1.75771,-0.346151
-1.63505,1.51611,1.38822,-2.03013,-1.59995,1.75771,-0.346145
-1.63505,1.51611,1.38822,-2.03013,-1.59995,1.75771,-0.346148
-1.63505,1.51611,1.38822,-2.03014,-1.59995,1.75771,-0.346147
-1.63506,1.51611,1.38821,-2.03015,-1.59995,1.75771,-0.346153
-1.63505,1.51611,1.38822,-2.03015,-1.59995,1.75771,-0.346153
-1.63505,1.51611,1.38821,-2.03015,-1.59995,1.75771,-0.346151
-1.63505,1.51611,1.38822,-2.03016,-1.59995,1.75771,-0.346151
-1.63505,1.51611,1.38822,-2.03016,-1.59995,1.75771,-0.34615
-1.63505,1.51611,1.38822,-2.03017,-1.59995,1.75771,-0.346148
-1.63505,1.51611,1.38822,-2.03017,-1.59995,1.75771,-0.346148
-1.63505,1.51611,1.38822,-2.03017,-1.59995,1.75771,-0.346148
-1.63505,1.51611,1.38822,-2.03017,-1.59995,1.75771,-0.346152
-1.63504,1.51611,1.38821,-2.03018,-1.59996,1.75771,-0.346149
-1.63505,1.51611,1.38821,-2.03017,-1.59996,1.75771,-0.346149
-1.63504,1.51611,1.38821,-2.03017,-1.59995,1.75771,-0.346149
-1.63505,1.51611,1.38822,-2.03017,-1.59996,1.75771,-0.346151
-1.63504,1.51612,1.38822,-2.03017,-1.59996,1.75771,-0.346149
-1.63504,1.51612,1.38822,-2.03017,-1.59996,1.75771,-0.346146
-1.63504,1.51611,1.38821,-2.03017,-1.59996,1.75771,-0.346146
-1.63504,1.51612,1.38822,-2.03017,-1.59996,1.75771,-0.346149
-1.63503,1.51611,1.38821,-2.03018,-1.59995,1.75771,-0.346152
-1.63504,1.51612,1.38822,-2.03017,-1.59995,1.75771,-0.346148
-1.63505,1.51611,1.38822,-2.03017,-1.59996,1.75771,-0.346147
-1.63504,1.51611,1.38822,-2.03017,-1.59996,1.75771,-0.346151
-1.63504,1.51611,1.38822,-2.03018,-1.59996,1.75771,-0.346151
-1.63504,1.51611,1.38822,-2.03017,-1.59996,1.75771,-0.34615
-1.63504,1.51611,1.38822,-2.03017,-1.59995,1.75771,-0.346145
-1.63504,1.51611,1.38822,-2.03017,-1.59996,1.75771,-0.346148
-1.63504,1.51611,1.38822,-2.03017,-1.59996,1.75771,-0.346153
-1.63504,1.51611,1.38822,-2.03017,-1.59995,1.75771,-0.346148
-1.63504,1.5161,1.38822,-2.03017,-1.59995,1.75771,-0.346146
-1.63504,1.5161,1.38823,-2.03017,-1.59995,1.75771,-0.346146
-1.63505,1.5161,1.38823,-2.03017,-1.59995,1.75771,-0.346152
-1.63504,1.5161,1.38823,-2.03017,-1.59995,1.75771,-0.346152
-1.63504,1.5161,1.38822,-2.03016,-1.59995,1.75771,-0.346147
-1.63505,1.5161,1.38822,-2.03016,-1.59995,1.75771,-0.346148
-1.63505,1.5161,1.38823,-2.03017,-1.59995,1.75771,-0.346149
-1.63504,1.5161,1.38822,-2.03017,-1.59995,1.75771,-0.34615
-1.63505,1.5161,1.38822,-2.03016,-1.59996,1.75771,-0.346151
-1.63504,1.5161,1.38822,-2.03016,-1.59995,1.75771,-0.346145
-1.63505,1.5161,1.38822,-2.03015,-1.59995,1.75771,-0.346152
-1.63504,1.5161,1.38822,-2.03015,-1.59995,1.75771,-0.34615
-1.63505,1.51611,1.38822,-2.03015,-1.59995,1.75771,-0.346149
-1.63505,1.5161,1.38823,-2.03015,-1.59995,1.75771,-0.346149
-1.63505,1.5161,1.38823,-2.03015,-1.59995,1.75771,-0.34615
-1.63505,1.5161,1.38822,-2.03015,-1.59995,1.75771,-0.34615
-1.63504,1.5161,1.38822,-2.03015,-1.59995,1.75771,-0.34615
-1.63505,1.51611,1.38822,-2.03015,-1.59995,1.75771,-0.346147
-1.63505,1.51611,1.38822,-2.03015,-1.59995,1.75771,-0.346147
-1.63506,1.51611,1.38822,-2.03015,-1.59995,1.75771,-0.346148
-1.63505,1.51611,1.38822,-2.03015,-1.59995,1.75771,-0.346152
-1.63505,1.51611,1.38823,-2.03015,-1.59996,1.75771,-0.34615
-1.63505,1.51611,1.38823,-2.03015,-1.59995,1.75771,-0.346153
-1.63506,1.51611,1.38822,-2.03015,-1.59995,1.75771,-0.346146
-1.63505,1.51611,1.38822,-2.03015,-1.59996,1.75771,-0.34615
-1.63506,1.51612,1.38822,-2.03015,-1.59995,1.75771,-0.346147
-1.63505,1.51612,1.38822,-2.03015,-1.59995,1.75772,-0.34615
-1.63506,1.51612,1.38822,-2.03015,-1.59996,1.75771,-0.34615
-1.63505,1.51612,1.38822,-2.03015,-1.59995,1.75771,-0.34615
-1.63506,1.51612,1.38822,-2.03016,-1.59996,1.75771,-0.34615
-1.63505,1.51612,1.38822,-2.03015,-1.59995,1.75771,-0.346148
-1.63506,1.51612,1.38822,-2.03015,-1.59996,1.75771,-0.346147
-1.63506,1.51612,1.38822,-2.03015,-1.59995,1.75771,-0.346149
-1.63506,1.51612,1.38822,-2.03015,-1.59995,1.75771,-0.346149
-1.63506,1.51612,1.38822,-2.03015,-1.59995,1.75771,-0.346148
-1.63506,1.51612,1.38822,-2.03015,-1.59995,1.75772,-0.346147
-1.63506,1.51612,1.38822,-2.03015,-1.59996,1.75771,-0.34615
-1.63506,1.51612,1.38822,-2.03016,-1.59995,1.75771,-0.34615
-1.63506,1.51612,1.38822,-2.03015,-1.59995,1.75772,-0.34615
-1.63506,1.51612,1.38821,-2.03015,-1.59996,1.75771,-0.346146
-1.63506,1.51612,1.38822,-2.03015,-1.59996,1.75772,-0.346151
-1.63506,1.51611,1.38822,-2.03015,-1.59996,1.75771,-0.34615
-1.63506,1.51612,1.38822,-2.03015,-1.59995,1.75771,-0.346147
-1.63506,1.51611,1.38822,-2.03016,-1.59995,1.75771,-0.346147
-1.63506,1.51612,1.38821,-2.03016,-1.59995,1.75771,-0.346152
-1.63506,1.51611,1.38822,-2.03016,-1.59995,1.75771,-0.346148
-1.63506,1.51611,1.38822,-2.03016,-1.59995,1.75771,-0.346147
-1.63506,1.51612,1.38822,-2.03016,-1.59995,1.75771,-0.346145
-1.63505,1.51611,1.38822,-2.03016,-1.59995,1.75771,-0.346152
-1.63505,1.51611,1.38822,-2.03016,-1.59995,1.75771,-0.34615
-1.63505,1.51611,1.38822,-2.03016,-1.59996,1.75771,-0.34615
-1.63505,1.5161,1.38821,-2.03016,-1.59996,1.75771,-0.346149
-1.63504,1.5161,1.38822,-2.03016,-1.59996,1.75771,-0.346153
-1.63505,1.5161,1.38822,-2.03016,-1.59996,1.75771,-0.346146
-1.63505,1.5161,1.38821,-2.03016,-1.59996,1.75771,-0.346151
-1.63505,1.5161,1.38822,-2.03016,-1.59995,1.75771,-0.346149
-1.63505,1.5161,1.38821,-2.03016,-1.59996,1.75771,-0.346149
-1.63504,1.5161,1.38822,-2.03017,-1.59996,1.75771,-0.346146
-1.63504,1.5161,1.38822,-2.03016,-1.59996,1.75771,-0.346152
-1.63504,1.5161,1.38821,-2.03017,-1.59996,1.7577,-0.346147
-1.63504,1.5161,1.38822,-2.03017,-1.59996,1.7577,-0.346148
-1.63503,1.5161,1.38821,-2.03017,-1.59996,1.7577,-0.346146
-1.63503,1.5161,1.38822,-2.03017,-1.59996,1.7577,-0.34615
-1.63503,1.5161,1.38822,-2.03017,-1.59996,1.7577,-0.346153
-1.63503,1.5161,1.38821,-2.03017,-1.59996,1.7577,-0.346151
-1.63503,1.5161,1.38821,-2.03017,-1.59997,1.7577,-0.346147
-1.63503,1.5161,1.3882,-2.03018,-1.59998,1.7577,-0.346146
-1.63503,1.5161,1.38821,-2.03018,-1.59999,1.7577,-0.346155
-1.63502,1.5161,1.38821,-2.03019,-1.60001,1.7577,-0.346153
-1.63501,1.5161,1.38821,-2.03019,-1.60003,1.7577,-0.346147
-1.63501,1.5161,1.38821,-2.03021,-1.60005,1.7577,-0.346146
-1.635,1.5161,1.38821,-2.03021,-1.60007,1.7577,-0.34615
-1.63498,1.5161,1.3882,-2.03022,-1.60009,1.75769,-0.346149
-1.63498,1.5161,1.38821,-2.03022,-1.60011,1.75769,-0.346148
-1.63496,1.51609,1.3882,-2.03023,-1.60014,1.75768,-0.346149
-1.63496,1.51609,1.3882,-2.03023,-1.60017,1.75768,-0.346155
-1.63495,1.51609,1.3882,-2.03024,-1.6002,1.75768,-0.346153
-1.63495,1.51608,1.3882,-2.03025,-1.60023,1.75768,-0.346146
-1.63493,1.51608,1.3882,-2.03026,-1.60026,1.75768,-0.34615
-1.63493,1.51607,1.3882,-2.03027,-1.60029,1.75767,-0.346154
-1.63492,1.51607,1.3882,-2.03027,-1.60033,1.75767,-0.346152
-1.63491,1.51608,1.3882,-2.03028,-1.60037,1.75767,-0.346151
-1.63491,1.51607,1.3882,-2.03029,-1.6004,1.75767,-0.346146
-1.6349,1.51608,1.3882,-2.0303,-1.60044,1.75767,-0.346147
-1.63489,1.51608,1.3882,-2.03031,-1.60047,1.75767,-0.346148
-1.63488,1.51608,1.3882,-2.03032,-1.60051,1.75767,-0.346146
-1.63487,1.51608,1.3882,-2.03033,-1.60055,1.75767,-0.346148
-1.63486,1.51609,1.3882,-2.03034,-1.60059,1.75767,-0.346151
-1.63486,1.51609,1.3882,-2.03035,-1.60063,1.75767,-0.346147
-1.63485,1.5161,1.3882,-2.03036,-1.60067,1.75767,-0.346148
-1.63484,1.5161,1.3882,-2.03037,-1.60071,1.75767,-0.346148
-1.63483,1.5161,1.3882,-2.03038,-1.60076,1.75767,-0.346148
-1.63482,1.5161,1.3882,-2.03039,-1.6008,1.75767,-0.346148
-1.63482,1.5161,1.3882,-2.0304,-1.60084,1.75767,-0.346148
-1.63481,1.5161,1.38819,-2.03042,-1.60088,1.75766,-0.346145
-1.6348,1.5161,1.3882,-2.03042,-1.60092,1.75766,-0.346142
-1.63479,1.5161,1.3882,-2.03043,-1.60096,1.75766,-0.346145
-1.63478,1.5161,1.3882,-2.03045,-1.60101,1.75766,-0.346146
-1.63477,1.51609,1.3882,-2.03046,-1.60105,1.75766,-0.346149
-1.63476,1.51609,1.3882,-2.03047,-1.60109,1.75765,-0.346145
-1.63475,1.51608,1.3882,-2.03048,-1.60113,1.75766,-0.346147
-1.63474,1.51608,1.3882,-2.0305,-1.60117,1.75765,-0.346148
-1.63473,1.51607,1.3882,-2.0305,-1.60121,1.75765,-0.346148
-1.63472,1.51606,1.3882,-2.03052,-1.60125,1.75765,-0.346143
-1.63471,1.51606,1.3882,-2.03052,-1.60128,1.75765,-0.346141
-1.6347,1.51606,1.3882,-2.03054,-1.60131,1.75765,-0.346144
-1.63469,1.51607,1.3882,-2.03055,-1.60134,1.75765,-0.346147
-1.63468,1.51606,1.3882,-2.03056,-1.60137,1.75764,-0.346143
-1.63468,1.51606,1.3882,-2.03057,-1.60141,1.75764,-0.346144
-1.63466,1.51606,1.3882,-2.03058,-1.60144,1.75764,-0.346143
-1.63465,1.51606,1.3882,-2.03059,-1.60146,1.75764,-0.346148
-1.63465,1.51606,1.3882,-2.0306,-1.6015,1.75764,-0.346145
-1.63464,1.51607,1.3882,-2.03061,-1.60153,1.75764,-0.346141
-1.63463,1.51607,1.3882,-2.03063,-1.60156,1.75764,-0.34614
-1.63462,1.51607,1.3882,-2.03064,-1.60159,1.75764,-0.346143
-1.63462,1.51608,1.3882,-2.03065,-1.60162,1.75764,-0.346146
-1.63461,1.51607,1.3882,-2.03066,-1.60165,1.75764,-0.346142
-1.6346,1.51608,1.38821,-2.03068,-1.60169,1.75764,-0.346145
-1.6346,1.51608,1.38821,-2.03069,-1.60172,1.75764,-0.346149
-1.63458,1.51608,1.38821,-2.03071,-1.60175,1.75764,-0.346145
-1.63458,1.51608,1.38821,-2.03071,-1.60177,1.75764,-0.346141
-1.63457,1.51608,1.38821,-2.03073,-1.6018,1.75764,-0.346141
-1.63456,1.51608,1.3882,-2.03074,-1.60183,1.75764,-0.346143
-1.63455,1.51608,1.38821,-2.03075,-1.60186,1.75764,-0.346146
-1.63454,1.51607,1.38821,-2.03077,-1.60189,1.75763,-0.346144
-1.63454,1.51607,1.38821,-2.03078,-1.60192,1.75764,-0.346142
-1.63453,1.51607,1.38821,-2.03079,-1.60194,1.75764,-0.346141
-1.63451,1.51607,1.38822,-2.0308,-1.60197,1.75763,-0.346141
-1.63451,1.51608,1.38822,-2.03082,-1.602,1.75763,-0.34614
-1.6345,1.51607,1.38821,-2.03083,-1.60203,1.75763,-0.346145
-1.63449,1.51606,1.38822,-2.03084,-1.60206,1.75763,-0.34614
-1.63448,1.51607,1.38822,-2.03085,-1.60209,1.75763,-0.346142
-1.63447,1.51607,1.38822,-2.03087,-1.60212,1.75763,-0.346139
-1.63447,1.51607,1.38822,-2.03087,-1.60215,1.75764,-0.346144
-1.63445,1.51606,1.38822,-2.03089,-1.60218,1.75763,-0.346138
-1.63444,1.51606,1.38822,-2.0309,-1.6022,1.75764,-0.34614
-1.63443,1.51607,1.38822,-2.03091,-1.60223,1.75764,-0.346142
-1.63442,1.51606,1.38823,-2.03092,-1.60226,1.75764,-0.346142
-1.63441,1.51607,1.38823,-2.03094,-1.60229,1.75763,-0.346136
-1.6344,1.51607,1.38823,-2.03095,-1.60231,1.75764,-0.346133
-1.63439,1.51607,1.38823,-2.03096,-1.60234,1.75764,-0.346137
-1.63438,1.51607,1.38823,-2.03097,-1.60237,1.75764,-0.346141
