ubt-ai3/franka-proxy/tools/visual_studio_2017/projects/record_save2.csv
j0,j1,j2,j3,j4,j5,j6
0.63827,0.419924,0.564771,-2.32954,-0.490295,2.63658,0.854464
0.63827,0.419921,0.564768,-2.32953,-0.490294,2.63658,0.854461
0.63827,0.419926,0.564768,-2.32953,-0.490293,2.63658,0.854462
0.638265,0.419926,0.564771,-2.32953,-0.490295,2.63658,0.854462
0.638268,0.419924,0.56477,-2.32953,-0.490297,2.63658,0.854465
0.638268,0.419926,0.564773,-2.32953,-0.490298,2.63658,0.85446
0.638273,0.419926,0.564771,-2.32953,-0.490298,2.63659,0.854463
0.638268,0.419926,0.564773,-2.32953,-0.490299,2.63658,0.854456
0.63827,0.419926,0.564771,-2.32953,-0.490299,2.63658,0.854463
0.638268,0.419929,0.564771,-2.32953,-0.490297,2.63658,0.85446
0.63827,0.419926,0.564771,-2.32953,-0.490296,2.63658,0.85446
0.63827,0.419929,0.56477,-2.32953,-0.490298,2.63658,0.854461
0.638268,0.419929,0.564771,-2.32953,-0.490301,2.63658,0.854457
0.63827,0.419932,0.56477,-2.32953,-0.490302,2.63658,0.854457
0.63827,0.419929,0.564773,-2.32953,-0.490304,2.63658,0.854458
0.63827,0.419929,0.564779,-2.32953,-0.490304,2.63659,0.854456
0.638275,0.419921,0.564773,-2.32953,-0.490301,2.63658,0.854458
0.638278,0.419926,0.564776,-2.32953,-0.490299,2.63658,0.854455
0.638274,0.419926,0.564776,-2.32953,-0.4903,2.63658,0.854457
0.638271,0.419926,0.564771,-2.32953,-0.490299,2.63658,0.854453
0.638278,0.419926,0.564779,-2.32953,-0.490301,2.63658,0.854458
0.638271,0.419926,0.564773,-2.32952,-0.490302,2.63658,0.854453
0.638273,0.419927,0.564773,-2.32952,-0.490299,2.63658,0.854453
0.638273,0.419927,0.564771,-2.32952,-0.490302,2.63658,0.854456
0.638276,0.419926,0.564773,-2.32952,-0.490303,2.63658,0.85445
0.638275,0.419929,0.564776,-2.32952,-0.490304,2.63658,0.854453
0.638281,0.419929,0.564771,-2.32951,-0.490304,2.63658,0.854447
0.638279,0.419929,0.564771,-2.32951,-0.490302,2.63658,0.854449
0.638276,0.419926,0.564776,-2.32951,-0.490304,2.63658,0.854449
0.638279,0.419926,0.564779,-2.32951,-0.490304,2.63658,0.854452
0.638282,0.419924,0.564781,-2.32951,-0.490301,2.63658,0.854448
0.638278,0.419929,0.564782,-2.32951,-0.490303,2.63658,0.854451
0.638279,0.419924,0.564776,-2.32951,-0.490299,2.63658,0.85445
0.638282,0.419926,0.564779,-2.32951,-0.490303,2.63658,0.854448
0.638279,0.419929,0.564779,-2.32951,-0.490304,2.63658,0.85445
0.638279,0.419929,0.564781,-2.32951,-0.490306,2.63658,0.854447
0.638283,0.419932,0.564779,-2.32951,-0.490306,2.63658,0.854442
0.638278,0.419926,0.564779,-2.32951,-0.490306,2.63658,0.85445
0.638284,0.419929,0.564781,-2.32951,-0.490306,2.63658,0.854446
0.638287,0.419929,0.564779,-2.3295,-0.490306,2.63658,0.854449
0.638282,0.419929,0.564781,-2.32951,-0.490306,2.63658,0.854447
0.638284,0.419929,0.564786,-2.3295,-0.490304,2.63657,0.854446
0.638279,0.419929,0.564781,-2.32951,-0.490307,2.63658,0.85445
0.638289,0.419924,0.564784,-2.3295,-0.490307,2.63657,0.854448
0.638287,0.419929,0.564779,-2.3295,-0.490305,2.63657,0.854445
0.63829,0.419926,0.564784,-2.3295,-0.490309,2.63657,0.854447
0.638287,0.419929,0.564779,-2.3295,-0.490308,2.63657,0.854447
0.638289,0.419926,0.564781,-2.3295,-0.490309,2.63657,0.854444
0.638285,0.419929,0.564789,-2.3295,-0.49031,2.63658,0.854446
0.638287,0.419932,0.564782,-2.3295,-0.490309,2.63657,0.854442
0.638286,0.419929,0.564784,-2.3295,-0.490307,2.63657,0.854449
0.638292,0.419929,0.564786,-2.3295,-0.49031,2.63657,0.854443
0.63829,0.419932,0.564784,-2.3295,-0.49031,2.63657,0.854447
0.638287,0.419929,0.56478,-2.3295,-0.490311,2.63657,0.854443
0.63829,0.419924,0.564789,-2.3295,-0.490311,2.63657,0.854444
0.638298,0.419929,0.564787,-2.3295,-0.490312,2.63657,0.854443
0.63829,0.419932,0.564787,-2.3295,-0.490311,2.63657,0.854447
0.638285,0.419929,0.564791,-2.3295,-0.490312,2.63657,0.854442
0.638292,0.419932,0.564787,-2.3295,-0.490312,2.63657,0.854444
0.638298,0.419929,0.564787,-2.3295,-0.490312,2.63657,0.854443
0.638298,0.419926,0.564787,-2.3295,-0.490311,2.63657,0.854447
0.638296,0.419931,0.564792,-2.3295,-0.490313,2.63657,0.854444
0.638298,0.419932,0.56479,-2.3295,-0.490312,2.63657,0.854444
0.638296,0.419932,0.564792,-2.3295,-0.490314,2.63657,0.854445
0.638301,0.419929,0.56479,-2.32951,-0.490314,2.63657,0.854446
0.638296,0.419924,0.564793,-2.32951,-0.490312,2.63657,0.854447
0.638296,0.419926,0.564791,-2.32951,-0.490313,2.63657,0.854444
0.638298,0.419926,0.564792,-2.32951,-0.490314,2.63657,0.854449
0.638299,0.419929,0.564795,-2.32951,-0.490313,2.63656,0.854443
0.638301,0.419929,0.564798,-2.32952,-0.490313,2.63656,0.854445
0.638301,0.419924,0.564798,-2.32951,-0.490314,2.63656,0.854443
0.638305,0.419929,0.564791,-2.32951,-0.490313,2.63656,0.854449
0.638301,0.419924,0.564792,-2.32951,-0.490314,2.63656,0.854443
0.638309,0.419926,0.564791,-2.32952,-0.490314,2.63656,0.854446
0.638315,0.419924,0.564792,-2.32952,-0.490314,2.63656,0.854449
0.638308,0.419926,0.564793,-2.32952,-0.490312,2.63656,0.854444
0.638309,0.419926,0.564787,-2.32952,-0.490312,2.63656,0.85445
0.638312,0.419926,0.564793,-2.32952,-0.490315,2.63656,0.854449
0.638313,0.419926,0.564795,-2.32952,-0.490312,2.63656,0.854448
0.638315,0.419929,0.564795,-2.32952,-0.490311,2.63656,0.85445
0.63832,0.419929,0.564793,-2.32953,-0.490311,2.63656,0.854449
0.638316,0.419926,0.564795,-2.32952,-0.490312,2.63656,0.854451
0.638316,0.419926,0.564799,-2.32952,-0.490311,2.63656,0.854448
0.638316,0.419926,0.564793,-2.32952,-0.490311,2.63656,0.854449
0.638323,0.419924,0.564798,-2.32953,-0.490311,2.63656,0.854449
0.638321,0.419929,0.564798,-2.32953,-0.490311,2.63656,0.854448
0.638322,0.419924,0.564796,-2.32953,-0.490312,2.63656,0.854452
0.638323,0.419926,0.564793,-2.32953,-0.490313,2.63656,0.854454
0.638324,0.419929,0.564796,-2.32953,-0.490311,2.63656,0.854454
0.638329,0.419929,0.564796,-2.32953,-0.490311,2.63656,0.854454
0.638322,0.419929,0.564799,-2.32953,-0.490312,2.63656,0.854452
0.638324,0.419929,0.564796,-2.32953,-0.490311,2.63656,0.854454
0.638328,0.419926,0.564793,-2.32954,-0.490308,2.63656,0.854457
0.638329,0.419929,0.564801,-2.32954,-0.49031,2.63656,0.854457
0.638325,0.419924,0.564793,-2.32954,-0.49031,2.63656,0.854449
0.638329,0.419929,0.564796,-2.32954,-0.490311,2.63656,0.854457
0.638327,0.419929,0.564796,-2.32954,-0.49031,2.63656,0.854452
0.638325,0.419931,0.564796,-2.32954,-0.490314,2.63656,0.854458
0.63833,0.419932,0.564795,-2.32954,-0.490308,2.63656,0.854454
0.638327,0.419927,0.564797,-2.32953,-0.490309,2.63656,0.854457
0.638327,0.419929,0.564801,-2.32954,-0.490309,2.63656,0.854454
0.638328,0.419932,0.564799,-2.32954,-0.490309,2.63656,0.854456
0.638328,0.419929,0.564799,-2.32953,-0.490309,2.63656,0.854457
0.638327,0.419932,0.564794,-2.32954,-0.490308,2.63656,0.85446
0.638325,0.419926,0.564789,-2.32954,-0.490307,2.63656,0.854458
0.638322,0.419932,0.564789,-2.32954,-0.490306,2.63656,0.854456
0.638324,0.419929,0.564798,-2.32954,-0.490306,2.63656,0.85446
0.638325,0.419929,0.564788,-2.32955,-0.490306,2.63657,0.854456
0.638325,0.419934,0.564794,-2.32954,-0.490304,2.63656,0.85446
0.638326,0.419934,0.564791,-2.32954,-0.490304,2.63656,0.854455
0.638323,0.419937,0.564794,-2.32954,-0.490304,2.63656,0.85446
0.638317,0.419932,0.564789,-2.32954,-0.490303,2.63657,0.854459
0.63832,0.419934,0.564791,-2.32954,-0.490302,2.63656,0.854461
0.638323,0.419932,0.564786,-2.32954,-0.490302,2.63657,0.854461
0.638315,0.419932,0.564786,-2.32954,-0.490301,2.63657,0.854459
0.638312,0.419932,0.564789,-2.32955,-0.4903,2.63657,0.854461
0.638307,0.419932,0.564784,-2.32954,-0.4903,2.63657,0.854461
0.638311,0.419937,0.564783,-2.32955,-0.490297,2.63657,0.854464
0.638309,0.419937,0.564783,-2.32954,-0.490298,2.63657,0.854458
0.63831,0.419934,0.564781,-2.32954,-0.490298,2.63657,0.854462
0.638305,0.41994,0.564784,-2.32955,-0.490297,2.63657,0.854459
0.638302,0.419942,0.564781,-2.32955,-0.490295,2.63657,0.854464
0.638306,0.419934,0.56478,-2.32955,-0.490295,2.63657,0.854461
0.638302,0.41994,0.564778,-2.32955,-0.490295,2.63657,0.854467
0.6383,0.419934,0.564775,-2.32955,-0.490294,2.63657,0.854462
0.638296,0.41994,0.564778,-2.32955,-0.490291,2.63657,0.854461
0.638299,0.419934,0.564772,-2.32955,-0.490293,2.63657,0.854467
0.638291,0.41994,0.564772,-2.32955,-0.490292,2.63657,0.854467
0.638301,0.41994,0.564775,-2.32955,-0.490291,2.63657,0.854465
0.638296,0.41994,0.564771,-2.32955,-0.490287,2.63658,0.854462
0.638291,0.419944,0.564768,-2.32955,-0.490289,2.63658,0.854465
0.638292,0.419942,0.56477,-2.32955,-0.490287,2.63658,0.854466
0.638288,0.419943,0.56477,-2.32955,-0.490286,2.63658,0.854464
0.638286,0.419948,0.564765,-2.32955,-0.490288,2.63658,0.854464
0.638286,0.419947,0.564772,-2.32956,-0.490285,2.63658,0.854466
0.638288,0.419948,0.56477,-2.32956,-0.490286,2.63658,0.854464
0.638286,0.419945,0.564762,-2.32956,-0.490286,2.63658,0.854469
0.638283,0.419946,0.564765,-2.32955,-0.490282,2.63658,0.854464
0.63828,0.419948,0.564762,-2.32955,-0.490284,2.63658,0.854468
0.63828,0.419947,0.564759,-2.32956,-0.490285,2.63658,0.854461
0.638275,0.41995,0.564761,-2.32955,-0.490282,2.63658,0.854466
0.638274,0.419953,0.564762,-2.32955,-0.490281,2.63658,0.854464
0.638277,0.41995,0.564757,-2.32956,-0.490279,2.63658,0.854467
0.638277,0.419953,0.564753,-2.32956,-0.49028,2.63658,0.854463
0.638273,0.419951,0.564756,-2.32956,-0.490279,2.63658,0.854464
0.638272,0.419953,0.564756,-2.32956,-0.490279,2.63658,0.854467
0.638267,0.419957,0.564761,-2.32956,-0.490279,2.63658,0.854467
0.638267,0.419955,0.564754,-2.32956,-0.490278,2.63658,0.854468
0.638272,0.419956,0.564751,-2.32956,-0.490278,2.63659,0.854461
0.638269,0.419961,0.564751,-2.32956,-0.49028,2.63659,0.854472
0.638267,0.419961,0.564753,-2.32956,-0.490282,2.63659,0.854469
0.638269,0.419956,0.564753,-2.32956,-0.490279,2.63659,0.854471
0.638267,0.419958,0.564753,-2.32956,-0.490279,2.63659,0.854467
0.638264,0.419961,0.564751,-2.32956,-0.490278,2.63659,0.854469
0.638267,0.419961,0.564751,-2.32956,-0.490277,2.63659,0.854467
0.638259,0.419961,0.564748,-2.32957,-0.490276,2.63659,0.854474
0.638261,0.419964,0.564748,-2.32957,-0.490275,2.63659,0.854469
0.638266,0.419964,0.564745,-2.32956,-0.490276,2.63659,0.854468
0.638263,0.419969,0.564748,-2.32957,-0.490274,2.63659,0.854469
0.638264,0.419969,0.564746,-2.32957,-0.490275,2.63659,0.854468
0.638264,0.419966,0.564742,-2.32957,-0.490275,2.63659,0.854472
0.638263,0.419966,0.564747,-2.32957,-0.490275,2.63659,0.854472
0.638263,0.419969,0.564743,-2.32956,-0.490275,2.63659,0.854475
0.638262,0.419976,0.564742,-2.32957,-0.49028,2.63659,0.854469
0.638258,0.419977,0.564742,-2.32957,-0.490276,2.63659,0.854473
0.638256,0.419974,0.564743,-2.32957,-0.490276,2.63659,0.854467
0.638261,0.419975,0.564739,-2.32957,-0.490275,2.63659,0.854474
0.638258,0.419974,0.564742,-2.32957,-0.490275,2.6366,0.854469
0.638253,0.41998,0.564742,-2.32957,-0.490274,2.6366,0.854466
0.63826,0.419975,0.564743,-2.32957,-0.490274,2.6366,0.854472
0.638253,0.41998,0.564741,-2.32957,-0.490277,2.6366,0.854472
0.638255,0.41998,0.564742,-2.32957,-0.490276,2.6366,0.854469
0.638253,0.419977,0.56474,-2.32957,-0.490275,2.6366,0.854467
0.63825,0.419979,0.564739,-2.32957,-0.490276,2.6366,0.854468
0.63825,0.419983,0.564737,-2.32957,-0.490275,2.6366,0.854468
0.638247,0.419985,0.564736,-2.32958,-0.490275,2.6366,0.854471
0.638255,0.419985,0.564736,-2.32957,-0.490276,2.6366,0.854469
0.63825,0.419985,0.564733,-2.32958,-0.490275,2.6366,0.854472
0.638252,0.419988,0.564736,-2.32958,-0.490275,2.6366,0.854472
0.63825,0.419982,0.564736,-2.32958,-0.490274,2.6366,0.854472
0.638252,0.419985,0.564733,-2.32958,-0.490275,2.6366,0.854473
0.638255,0.419986,0.564736,-2.32958,-0.490275,2.6366,0.854474
0.638245,0.419985,0.564736,-2.32958,-0.490276,2.6366,0.85447
0.638249,0.419988,0.564733,-2.32958,-0.490276,2.6366,0.854472
0.638249,0.419983,0.564737,-2.32958,-0.490276,2.6366,0.854464
0.638245,0.419986,0.564735,-2.32959,-0.490276,2.63661,0.854473
0.638249,0.419988,0.564733,-2.32959,-0.490277,2.63661,0.854469
0.63825,0.419983,0.564736,-2.32959,-0.490277,2.6366,0.854469
0.638249,0.419988,0.564728,-2.32959,-0.490277,2.63661,0.854467
0.638247,0.419986,0.564739,-2.32959,-0.490278,2.63661,0.854473
0.638249,0.419985,0.564734,-2.32959,-0.490277,2.63661,0.854468
0.638252,0.419988,0.564731,-2.32959,-0.490277,2.63661,0.854472
0.638252,0.419988,0.564728,-2.32959,-0.490277,2.63661,0.854469
0.638252,0.419988,0.564733,-2.32959,-0.490277,2.63661,0.854471
0.638246,0.419986,0.564733,-2.32959,-0.490279,2.63661,0.854469
0.638249,0.419988,0.56473,-2.3296,-0.490279,2.63661,0.854472
0.638249,0.419986,0.564735,-2.32959,-0.490276,2.63661,0.85447
0.638244,0.419986,0.564728,-2.32959,-0.490277,2.63661,0.854466
0.63825,0.419988,0.56473,-2.32959,-0.490278,2.63661,0.854469
0.638248,0.419988,0.564728,-2.32959,-0.490278,2.63661,0.854472
0.638249,0.419986,0.56473,-2.3296,-0.490279,2.63661,0.854472
0.638249,0.419993,0.564731,-2.32959,-0.490279,2.63661,0.854468
0.638254,0.419989,0.564735,-2.3296,-0.490279,2.63661,0.854469
0.638254,0.419986,0.56473,-2.3296,-0.490279,2.63661,0.854469
0.638252,0.419993,0.564733,-2.32959,-0.490279,2.63661,0.854472
0.638257,0.419988,0.56473,-2.32959,-0.490279,2.63661,0.854466
0.638254,0.419989,0.56473,-2.3296,-0.490279,2.63661,0.854473
0.638254,0.419988,0.564733,-2.3296,-0.490279,2.63661,0.85447
0.638252,0.419994,0.564728,-2.3296,-0.490279,2.63661,0.854474
0.638254,0.419996,0.564727,-2.3296,-0.490279,2.63661,0.854466
0.638257,0.419994,0.564733,-2.3296,-0.49028,2.63661,0.854467
0.638254,0.419987,0.56473,-2.3296,-0.490276,2.63661,0.854467
0.638259,0.419993,0.56473,-2.3296,-0.490278,2.63661,0.854472
0.638259,0.419991,0.56473,-2.32961,-0.49028,2.63661,0.854466
0.638259,0.419992,0.564735,-2.3296,-0.490279,2.63661,0.854467
0.638259,0.419994,0.564731,-2.3296,-0.490281,2.63662,0.854466
0.638262,0.419992,0.564727,-2.3296,-0.490279,2.63661,0.854472
0.638263,0.419997,0.564732,-2.3296,-0.490276,2.63661,0.854467
0.63826,0.419999,0.564733,-2.3296,-0.490279,2.63661,0.854471
0.638262,0.419997,0.564733,-2.3296,-0.49028,2.63662,0.854467
0.638262,0.419994,0.56473,-2.3296,-0.490279,2.63662,0.854471
0.638259,0.419997,0.564726,-2.3296,-0.490279,2.63662,0.854465
0.638259,0.419994,0.564732,-2.3296,-0.49028,2.63662,0.854471
0.638262,0.419997,0.564728,-2.3296,-0.490279,2.63662,0.854466
0.638259,0.419994,0.564725,-2.3296,-0.490279,2.63662,0.854471
0.638252,0.419994,0.564729,-2.3296,-0.490279,2.63662,0.854471
0.638262,0.419992,0.564728,-2.3296,-0.490278,2.63661,0.854471
0.638257,0.419992,0.564729,-2.3296,-0.490278,2.63662,0.854468
0.638257,0.419997,0.564723,-2.3296,-0.490279,2.63662,0.85447
0.638259,0.419997,0.564727,-2.3296,-0.490278,2.63662,0.854467
0.638259,0.419997,0.564725,-2.3296,-0.490279,2.63662,0.85447
0.638257,0.419994,0.56473,-2.3296,-0.490279,2.63662,0.854466
0.638259,0.419997,0.564727,-2.3296,-0.490277,2.63662,0.854467
0.638257,0.419999,0.564722,-2.3296,-0.490277,2.63662,0.854471
0.638259,0.419999,0.564727,-2.3296,-0.490277,2.63662,0.854472
0.638257,0.419997,0.564722,-2.3296,-0.490279,2.63662,0.854469
0.638254,0.419997,0.564725,-2.3296,-0.490277,2.63662,0.854464
0.638252,0.419999,0.564722,-2.3296,-0.490278,2.63662,0.854467
0.638257,0.419999,0.564722,-2.32961,-0.490277,2.63662,0.854469
0.638252,0.419999,0.564719,-2.32961,-0.490277,2.63662,0.85447
0.638246,0.420001,0.564722,-2.32961,-0.490273,2.63662,0.85447
0.638244,0.420002,0.564722,-2.32961,-0.490276,2.63662,0.854471
0.638252,0.420005,0.564719,-2.32961,-0.490276,2.63662,0.85447
0.638254,0.42,0.564717,-2.32961,-0.490276,2.63662,0.854469
0.638244,0.420004,0.564722,-2.32961,-0.490277,2.63662,0.854467
0.638249,0.420005,0.564717,-2.32961,-0.49028,2.63662,0.854468
0.638246,0.420007,0.564719,-2.32961,-0.490277,2.63662,0.854465
0.638251,0.420005,0.564717,-2.32961,-0.490276,2.63662,0.854472
0.638245,0.420002,0.564717,-2.32961,-0.490275,2.63662,0.854472
0.638244,0.420008,0.564711,-2.32961,-0.490274,2.63662,0.854469
0.638241,0.420008,0.564714,-2.32961,-0.490274,2.63662,0.85447
0.638241,0.420008,0.564714,-2.32961,-0.490274,2.63662,0.85447
0.638241,0.42001,0.564711,-2.32961,-0.490274,2.63662,0.854471
0.638239,0.42001,0.564714,-2.32962,-0.490272,2.63662,0.854472
0.638233,0.42001,0.564711,-2.32961,-0.490272,2.63662,0.854467
0.638238,0.420013,0.564714,-2.32961,-0.490271,2.63662,0.85447
0.638232,0.420013,0.564709,-2.32961,-0.490268,2.63662,0.854467
0.638231,0.420013,0.564713,-2.32961,-0.490268,2.63662,0.854473
0.638235,0.42001,0.564713,-2.32961,-0.490269,2.63662,0.854466
0.638233,0.420013,0.564705,-2.32961,-0.490269,2.63662,0.854471
0.638234,0.420016,0.56471,-2.32961,-0.490269,2.63662,0.854468
0.638236,0.420018,0.56471,-2.3296,-0.490266,2.63662,0.854468
0.638235,0.420018,0.564706,-2.32961,-0.490268,2.63662,0.854466
0.63823,0.420018,0.564705,-2.32961,-0.490269,2.63662,0.854469
0.638228,0.420019,0.564699,-2.3296,-0.490269,2.63662,0.854466
0.638235,0.420024,0.564705,-2.32961,-0.490268,2.63662,0.854469
0.638225,0.420024,0.564702,-2.32961,-0.49027,2.63662,0.854465
0.638229,0.420019,0.564702,-2.32961,-0.490269,2.63662,0.854463
0.63823,0.420023,0.564707,-2.3296,-0.490268,2.63662,0.854468
0.638227,0.420024,0.564703,-2.3296,-0.490269,2.63662,0.854469
0.63823,0.420026,0.564697,-2.32961,-0.490269,2.63662,0.854472
0.638227,0.420027,0.564699,-2.3296,-0.490269,2.63662,0.854466
0.63823,0.420027,0.564699,-2.3296,-0.49027,2.63662,0.85447
0.638227,0.420029,0.564704,-2.3296,-0.490268,2.63662,0.854463
0.63823,0.420024,0.564701,-2.3296,-0.490269,2.63662,0.854469
0.63823,0.420024,0.564696,-2.3296,-0.490269,2.63662,0.854463
0.638232,0.420027,0.564701,-2.3296,-0.490266,2.63662,0.854471
0.63823,0.420029,0.564697,-2.3296,-0.490263,2.63662,0.854464
0.638227,0.420032,0.564698,-2.3296,-0.490263,2.63662,0.854469
0.638222,0.42003,0.564696,-2.3296,-0.490267,2.63662,0.854467
0.638227,0.42003,0.564702,-2.3296,-0.490266,2.63662,0.854471
0.638221,0.420029,0.564703,-2.3296,-0.490264,2.63662,0.854467
0.638224,0.420032,0.564699,-2.3296,-0.490265,2.63662,0.85447
0.638224,0.420038,0.564701,-2.3296,-0.490267,2.63662,0.854468
0.638226,0.42003,0.564696,-2.3296,-0.49027,2.63661,0.85447
0.638218,0.420035,0.564698,-2.3296,-0.490268,2.63662,0.854465
0.638224,0.420038,0.564695,-2.3296,-0.490269,2.63662,0.854469
0.638226,0.420032,0.564701,-2.3296,-0.49027,2.63662,0.854466
0.638221,0.420038,0.564695,-2.3296,-0.49027,2.63662,0.854466
0.638226,0.420027,0.564698,-2.3296,-0.490266,2.63662,0.854468
0.638224,0.420032,0.564701,-2.3296,-0.490269,2.63662,0.854466
0.638226,0.420032,0.564701,-2.3296,-0.490267,2.63662,0.854465
0.638226,0.420035,0.564701,-2.3296,-0.490267,2.63662,0.854464
0.638222,0.420037,0.564695,-2.3296,-0.490266,2.63661,0.85447
0.638223,0.420036,0.564698,-2.3296,-0.49027,2.63661,0.85447
0.638229,0.420033,0.564696,-2.3296,-0.490267,2.63661,0.854468
0.638224,0.420035,0.564701,-2.3296,-0.490267,2.63661,0.854462
0.638228,0.420035,0.564702,-2.3296,-0.490267,2.63661,0.854466
0.638231,0.420032,0.564701,-2.3296,-0.490271,2.63661,0.854463
0.638231,0.420032,0.564701,-2.32961,-0.490273,2.63661,0.854466
0.638234,0.420032,0.564698,-2.32961,-0.490271,2.63661,0.854465
0.638231,0.420034,0.564701,-2.32961,-0.490273,2.63661,0.854468
0.638229,0.420033,0.564701,-2.3296,-0.490273,2.63661,0.854466
0.638228,0.420033,0.564701,-2.3296,-0.490274,2.63661,0.85447
0.638229,0.420038,0.564704,-2.32961,-0.490271,2.63661,0.854465
0.638233,0.420032,0.564703,-2.32961,-0.490269,2.63661,0.854469
0.638234,0.420035,0.5647,-2.3296,-0.490274,2.63661,0.854462
0.638237,0.420033,0.564699,-2.32961,-0.49027,2.63661,0.854467
0.638237,0.420035,0.5647,-2.3296,-0.49027,2.63661,0.854465
0.638235,0.420031,0.564703,-2.3296,-0.490272,2.63661,0.854466
0.638236,0.42003,0.564703,-2.3296,-0.490274,2.63661,0.854458
0.638237,0.420027,0.564706,-2.32961,-0.490271,2.63661,0.854468
0.638235,0.420034,0.564698,-2.3296,-0.490273,2.63661,0.854465
0.638236,0.420031,0.564703,-2.32961,-0.490272,2.6366,0.85447
0.638239,0.420032,0.564701,-2.32961,-0.490269,2.63661,0.854461
0.638242,0.420028,0.564706,-2.32961,-0.490268,2.63661,0.854462
0.63824,0.420032,0.564706,-2.32961,-0.490268,2.6366,0.854462
0.638242,0.420033,0.564703,-2.3296,-0.490269,2.63661,0.854464
0.63824,0.420028,0.564703,-2.32961,-0.490271,2.63661,0.854464
0.638242,0.420027,0.564706,-2.32961,-0.490272,2.63661,0.854463
0.638247,0.420027,0.564698,-2.32961,-0.490269,2.63661,0.854467
0.638242,0.420027,0.564703,-2.32961,-0.490268,2.6366,0.854465
0.638242,0.42003,0.564703,-2.3296,-0.490268,2.6366,0.854469
0.638245,0.420032,0.564706,-2.3296,-0.490266,2.63661,0.854465
0.638245,0.420033,0.564703,-2.32961,-0.490271,2.6366,0.85447
0.638245,0.42003,0.564706,-2.32961,-0.490271,2.6366,0.854461
0.638242,0.420033,0.564706,-2.32961,-0.490268,2.6366,0.854466
0.638245,0.42003,0.564701,-2.32961,-0.490268,2.6366,0.854462
0.63825,0.420031,0.564709,-2.3296,-0.490272,2.6366,0.854467
0.638245,0.42003,0.564703,-2.32961,-0.490269,2.6366,0.854461
0.63824,0.42003,0.564701,-2.32961,-0.490272,2.6366,0.854468
0.638245,0.420029,0.564706,-2.32961,-0.490272,2.6366,0.854466
0.638247,0.420033,0.564706,-2.32961,-0.49027,2.6366,0.854466
0.638245,0.420032,0.564703,-2.32962,-0.490272,2.6366,0.85447
0.638245,0.420033,0.564703,-2.32961,-0.49027,2.6366,0.854463
0.638245,0.420036,0.564703,-2.32961,-0.49027,2.6366,0.854464
0.638242,0.420027,0.564701,-2.32961,-0.490272,2.6366,0.854464
0.638247,0.42003,0.564706,-2.32961,-0.490274,2.6366,0.854467
0.638247,0.420032,0.564706,-2.32962,-0.490271,2.6366,0.854464
0.63824,0.420028,0.564706,-2.32962,-0.490274,2.6366,0.854469
0.638245,0.420037,0.564706,-2.32961,-0.490275,2.6366,0.854463
0.638242,0.420033,0.564705,-2.32962,-0.490272,2.6366,0.854467
0.638245,0.42003,0.564706,-2.32961,-0.490274,2.6366,0.854461
0.638249,0.420035,0.564703,-2.32961,-0.490273,2.6366,0.854466
0.638248,0.420036,0.564706,-2.32962,-0.490275,2.6366,0.85446
0.638248,0.420033,0.564703,-2.32961,-0.490271,2.6366,0.854468
0.63825,0.420033,0.564709,-2.32961,-0.490271,2.6366,0.854469
0.638242,0.420033,0.564709,-2.32961,-0.490273,2.63659,0.854468
0.638247,0.420031,0.564709,-2.32961,-0.490271,2.6366,0.854462
0.638249,0.420035,0.564711,-2.32962,-0.490274,2.6366,0.854467
0.638246,0.42003,0.564701,-2.32962,-0.490275,2.63659,0.854469
0.638245,0.420035,0.564706,-2.32961,-0.490271,2.63659,0.854468
0.63825,0.420035,0.564703,-2.32961,-0.490269,2.63659,0.854469
0.638251,0.420036,0.564709,-2.32961,-0.490268,2.63659,0.854466
0.638245,0.42003,0.564709,-2.32962,-0.490269,2.63659,0.854464
0.638245,0.420033,0.564706,-2.32961,-0.490268,2.6366,0.854463
0.638247,0.420036,0.564711,-2.32962,-0.490272,2.63659,0.854466
0.638243,0.420038,0.564712,-2.32961,-0.490276,2.63659,0.854465
0.638252,0.420036,0.564709,-2.32961,-0.490276,2.63659,0.854462
0.638248,0.420036,0.564706,-2.32961,-0.490274,2.63659,0.854465
0.638248,0.420035,0.564706,-2.32961,-0.490276,2.63659,0.854468
0.638255,0.420033,0.564706,-2.32961,-0.490272,2.63659,0.854464
0.638255,0.420038,0.564706,-2.32961,-0.490274,2.63659,0.854469
0.638253,0.420041,0.564709,-2.32961,-0.490272,2.63659,0.854465
0.638248,0.420038,0.564706,-2.3296,-0.490275,2.63659,0.85447
0.638251,0.420041,0.564706,-2.32961,-0.490272,2.63659,0.854466
0.638252,0.420038,0.564709,-2.3296,-0.490271,2.63659,0.85447
0.638256,0.420038,0.564709,-2.3296,-0.490276,2.63659,0.854465
0.638253,0.420033,0.564706,-2.3296,-0.490276,2.63659,0.854467
0.638253,0.420033,0.564706,-2.3296,-0.490274,2.63659,0.854467
0.638253,0.42003,0.564706,-2.3296,-0.490276,2.63659,0.85447
0.638253,0.420036,0.564706,-2.3296,-0.490275,2.63659,0.854465
0.638251,0.420034,0.564709,-2.3296,-0.490273,2.63659,0.854468
0.638255,0.420039,0.564709,-2.3296,-0.490273,2.63659,0.854462
0.638261,0.420038,0.564711,-2.32959,-0.490271,2.63658,0.854469
0.638261,0.420049,0.564705,-2.32959,-0.490272,2.63658,0.854469
0.638258,0.420057,0.564709,-2.32959,-0.490273,2.63658,0.854465
0.63826,0.420061,0.564704,-2.32958,-0.490271,2.63658,0.854467
0.638256,0.420076,0.564706,-2.32958,-0.490268,2.63658,0.854464
0.63826,0.420086,0.564706,-2.32957,-0.49027,2.63658,0.854465
0.638256,0.420095,0.564709,-2.32956,-0.490268,2.63658,0.854462
0.638257,0.420099,0.564708,-2.32956,-0.490266,2.63658,0.854467
0.638254,0.420105,0.564709,-2.32956,-0.490268,2.63658,0.854463
0.638255,0.420106,0.564707,-2.32955,-0.490268,2.63658,0.854465
0.638258,0.42011,0.564707,-2.32954,-0.490268,2.63657,0.854464
0.638253,0.420112,0.564707,-2.32954,-0.490267,2.63657,0.854463
0.63826,0.420115,0.564709,-2.32954,-0.490264,2.63657,0.854468
0.638262,0.420117,0.564702,-2.32953,-0.490262,2.63657,0.854465
0.638258,0.420117,0.564711,-2.32953,-0.490258,2.63657,0.854465
0.638263,0.42012,0.564707,-2.32952,-0.490257,2.63656,0.854461
0.63825,0.42013,0.564707,-2.32952,-0.490253,2.63656,0.854467
0.638257,0.420131,0.564707,-2.32951,-0.490253,2.63656,0.854464
0.638255,0.420131,0.564701,-2.32951,-0.490251,2.63656,0.854469
0.638258,0.420131,0.564706,-2.3295,-0.490246,2.63656,0.854464
0.638254,0.420142,0.564709,-2.32949,-0.490244,2.63655,0.854468
0.638254,0.420141,0.564706,-2.32949,-0.49024,2.63655,0.854463
0.638254,0.420139,0.564702,-2.32948,-0.490239,2.63655,0.854465
0.638252,0.420142,0.564701,-2.32948,-0.490237,2.63654,0.854466
0.638249,0.420145,0.564698,-2.32948,-0.490234,2.63654,0.854465
0.638252,0.42014,0.564704,-2.32947,-0.490229,2.63654,0.854464
0.638254,0.420143,0.5647,-2.32947,-0.490226,2.63653,0.854467
0.638254,0.420151,0.564703,-2.32947,-0.490219,2.63653,0.854467
0.638249,0.420148,0.564703,-2.32946,-0.490213,2.63653,0.854467
0.638246,0.420149,0.564704,-2.32946,-0.490208,2.63653,0.854469
0.638249,0.420157,0.564707,-2.32945,-0.490203,2.63652,0.854464
0.638246,0.420159,0.564701,-2.32945,-0.490197,2.63652,0.854464
0.638248,0.420161,0.564703,-2.32945,-0.490189,2.63652,0.854462
0.638242,0.420164,0.564706,-2.32944,-0.49018,2.63651,0.854466
0.638242,0.420164,0.564699,-2.32945,-0.490174,2.63651,0.854465
0.63824,0.420172,0.564706,-2.32944,-0.490165,2.63651,0.854466
0.638242,0.420176,0.564703,-2.32944,-0.490154,2.63651,0.854465
0.638242,0.420179,0.564701,-2.32944,-0.490144,2.6365,0.854469
0.638241,0.420183,0.564706,-2.32943,-0.490127,2.6365,0.854467
0.638234,0.420186,0.564704,-2.32943,-0.490116,2.6365,0.854463
0.638232,0.420187,0.564701,-2.32943,-0.490107,2.6365,0.85447
0.638228,0.42019,0.564706,-2.32943,-0.490097,2.6365,0.854465
0.638231,0.420196,0.564701,-2.32943,-0.490087,2.6365,0.854469
0.638228,0.420199,0.564701,-2.32943,-0.490077,2.6365,0.854467
0.638222,0.420197,0.564701,-2.32943,-0.490066,2.6365,0.854468
0.638221,0.420203,0.564701,-2.32943,-0.490054,2.6365,0.854466
0.638211,0.420205,0.5647,-2.32943,-0.490041,2.6365,0.854465
0.638212,0.420206,0.564704,-2.32943,-0.490033,2.6365,0.854468
0.638208,0.420207,0.564703,-2.32943,-0.490019,2.6365,0.854463
0.638211,0.420202,0.564701,-2.32943,-0.490006,2.6365,0.854468
0.638204,0.420207,0.564704,-2.32943,-0.489993,2.6365,0.854462
0.6382,0.420207,0.564706,-2.32943,-0.489983,2.6365,0.854467
0.638197,0.420213,0.564701,-2.32943,-0.489966,2.6365,0.854464
0.63819,0.42021,0.564703,-2.32943,-0.489954,2.63651,0.854468
0.638188,0.42021,0.564703,-2.32944,-0.489941,2.63651,0.854463
0.638184,0.420211,0.564708,-2.32944,-0.489927,2.63651,0.854468
0.638183,0.420214,0.564706,-2.32944,-0.489917,2.63651,0.854465
0.638178,0.420209,0.564701,-2.32944,-0.489902,2.63651,0.854468
0.638174,0.420213,0.564704,-2.32945,-0.489887,2.63651,0.854461
0.638173,0.420211,0.564703,-2.32944,-0.489874,2.63651,0.854464
0.638171,0.420212,0.564703,-2.32944,-0.48986,2.63652,0.854469
0.638168,0.420216,0.564706,-2.32945,-0.489844,2.63651,0.854467
0.638169,0.420208,0.564701,-2.32944,-0.489832,2.63652,0.854468
0.638162,0.420211,0.564703,-2.32945,-0.489815,2.63652,0.854464
0.638161,0.420211,0.564701,-2.32945,-0.489801,2.63652,0.85447
0.638161,0.420208,0.564703,-2.32945,-0.489787,2.63652,0.854465
0.638164,0.420211,0.5647,-2.32945,-0.489769,2.63652,0.854468
0.63816,0.420211,0.564699,-2.32945,-0.489755,2.63652,0.854464
0.638155,0.420211,0.564701,-2.32944,-0.489742,2.63652,0.854468
0.638154,0.420214,0.564703,-2.32945,-0.48973,2.63652,0.854464
0.638154,0.420211,0.564701,-2.32945,-0.489719,2.63652,0.85447
0.638157,0.420211,0.564706,-2.32945,-0.489706,2.63652,0.854469
0.638154,0.420211,0.564701,-2.32945,-0.489694,2.63652,0.854465
0.638154,0.420211,0.564698,-2.32945,-0.489683,2.63652,0.854467
0.638154,0.420211,0.564703,-2.32945,-0.489671,2.63652,0.854466
0.638159,0.420208,0.564701,-2.32945,-0.489657,2.63652,0.854467
0.638154,0.420208,0.564706,-2.32945,-0.489643,2.63653,0.854467
0.638154,0.420211,0.564709,-2.32945,-0.489637,2.63652,0.854467
0.638151,0.420211,0.564706,-2.32944,-0.489625,2.63652,0.854463
0.638153,0.420211,0.564709,-2.32944,-0.489614,2.63652,0.854468
0.638155,0.420214,0.564706,-2.32944,-0.489607,2.63652,0.854466
0.638153,0.420211,0.564711,-2.32945,-0.489596,2.63652,0.854469
0.638159,0.420211,0.564709,-2.32944,-0.489585,2.63652,0.854465
0.638157,0.420211,0.564706,-2.32944,-0.489573,2.63652,0.854464
0.638156,0.420208,0.564711,-2.32944,-0.489564,2.63652,0.854461
0.638153,0.420211,0.564709,-2.32944,-0.489556,2.63652,0.854465
0.63816,0.420208,0.564706,-2.32944,-0.489543,2.63652,0.85446
0.638154,0.420214,0.564706,-2.32943,-0.489537,2.63652,0.854464
0.638156,0.420211,0.564706,-2.32944,-0.489529,2.63652,0.854463
0.638153,0.420206,0.564709,-2.32943,-0.48952,2.63652,0.854468
0.638153,0.420208,0.564709,-2.32943,-0.489511,2.63652,0.854465
0.638163,0.420214,0.564711,-2.32943,-0.489504,2.63652,0.854467
0.638159,0.420208,0.564704,-2.32943,-0.489495,2.63652,0.854467
0.638156,0.420206,0.564704,-2.32943,-0.48949,2.63652,0.854463
0.638153,0.420211,0.564706,-2.32943,-0.489483,2.63652,0.854468
0.638156,0.420211,0.564706,-2.32942,-0.489476,2.63652,0.854464
0.638156,0.420206,0.564704,-2.32942,-0.489472,2.63652,0.854468
0.638156,0.420214,0.564704,-2.32941,-0.489466,2.63652,0.854463
0.638158,0.420208,0.564708,-2.32942,-0.489461,2.63652,0.85447
0.638153,0.420214,0.564712,-2.32942,-0.489453,2.63652,0.854468
0.638156,0.420208,0.564707,-2.32942,-0.489447,2.63652,0.854468
0.638156,0.420208,0.564701,-2.32941,-0.489445,2.63652,0.854465
0.638158,0.420211,0.564706,-2.32942,-0.489441,2.63652,0.854468
0.638158,0.420211,0.564703,-2.32941,-0.489439,2.63652,0.854469
0.638151,0.420211,0.564704,-2.32941,-0.489434,2.63652,0.854466
0.638153,0.420211,0.564709,-2.32941,-0.489432,2.63652,0.854466
0.638156,0.420211,0.564703,-2.3294,-0.489431,2.63652,0.854465
0.638153,0.420214,0.56471,-2.32941,-0.489428,2.63652,0.85447
0.638158,0.420214,0.564706,-2.32941,-0.489426,2.63652,0.854465
0.63815,0.420211,0.564704,-2.32941,-0.489425,2.63652,0.85447
0.63815,0.420211,0.56471,-2.32941,-0.489423,2.63652,0.854464
0.638154,0.420214,0.564709,-2.32941,-0.489422,2.63652,0.854466
0.638155,0.420216,0.564709,-2.32941,-0.489423,2.63652,0.854465
0.638155,0.420209,0.564709,-2.32941,-0.489423,2.63652,0.85447
0.638156,0.420214,0.56471,-2.32942,-0.489422,2.63652,0.854465
0.638156,0.420216,0.56471,-2.32941,-0.489423,2.63651,0.854468
0.638153,0.420214,0.564704,-2.32941,-0.489421,2.63652,0.854466
0.638153,0.420214,0.564707,-2.32941,-0.489419,2.63651,0.854468
0.638156,0.420212,0.564711,-2.32941,-0.489422,2.63652,0.854464
0.638156,0.420211,0.564712,-2.32941,-0.48942,2.63652,0.854469
0.638156,0.420213,0.564709,-2.32941,-0.489419,2.63651,0.854463
0.63815,0.420214,0.564707,-2.32941,-0.489419,2.63651,0.854465
0.638153,0.420209,0.56471,-2.32941,-0.489422,2.63651,0.854464
0.638153,0.420212,0.564707,-2.32941,-0.489424,2.63651,0.854469
0.638156,0.420214,0.564712,-2.32941,-0.48942,2.63652,0.854463
0.638156,0.420214,0.564712,-2.32941,-0.489419,2.63652,0.854469
0.638156,0.420207,0.564712,-2.32941,-0.489418,2.63652,0.854466
0.638158,0.420209,0.564712,-2.32942,-0.489418,2.63652,0.854467
0.638158,0.420209,0.564717,-2.32941,-0.489423,2.63651,0.854469
0.638153,0.420209,0.564712,-2.32941,-0.489424,2.63651,0.854469
0.638156,0.420203,0.56471,-2.32941,-0.489425,2.63652,0.854468
0.638158,0.420206,0.564719,-2.32941,-0.489422,2.63652,0.854465
0.638156,0.420208,0.564713,-2.32941,-0.489425,2.63652,0.854464
0.638156,0.420206,0.564714,-2.32941,-0.489424,2.63652,0.854468
0.638161,0.420206,0.564718,-2.32941,-0.489425,2.63652,0.854465
0.638163,0.420206,0.564718,-2.32941,-0.489423,2.63652,0.854468
0.638169,0.420209,0.564717,-2.32941,-0.489424,2.63652,0.854467
0.638164,0.420208,0.564718,-2.32941,-0.489424,2.63651,0.854465
0.638161,0.420204,0.56472,-2.32941,-0.489427,2.63651,0.854468
0.638167,0.420206,0.564716,-2.32941,-0.489425,2.63651,0.854462
0.638164,0.420209,0.564721,-2.3294,-0.489423,2.63651,0.854467
0.638167,0.420206,0.564723,-2.3294,-0.489425,2.63651,0.854468
0.638169,0.420209,0.564724,-2.3294,-0.489426,2.63651,0.854468
0.63817,0.420201,0.564727,-2.3294,-0.489425,2.63651,0.854463
0.638169,0.420203,0.564724,-2.3294,-0.489425,2.63651,0.854468
0.638174,0.420201,0.564727,-2.3294,-0.489427,2.63651,0.854466
0.638174,0.420197,0.564729,-2.3294,-0.489426,2.63651,0.854468
0.63817,0.420205,0.56473,-2.32939,-0.489426,2.63651,0.854466
0.638181,0.420201,0.564727,-2.32939,-0.489426,2.63651,0.854465
0.638173,0.420195,0.564727,-2.32939,-0.489424,2.63651,0.854468
0.638175,0.420198,0.564725,-2.32939,-0.489425,2.63651,0.854465
0.638178,0.4202,0.56473,-2.32938,-0.489423,2.6365,0.854467
0.638182,0.4202,0.56473,-2.32939,-0.489422,2.6365,0.854464
0.638181,0.420202,0.56473,-2.32938,-0.489425,2.6365,0.854465
0.638181,0.420198,0.564729,-2.32938,-0.489423,2.6365,0.854462
0.638179,0.420198,0.564733,-2.32938,-0.489422,2.6365,0.85447
0.638186,0.420203,0.564733,-2.32938,-0.489426,2.6365,0.854466
0.638184,0.420203,0.564731,-2.32938,-0.489426,2.6365,0.854467
0.638182,0.4202,0.56473,-2.32937,-0.489423,2.6365,0.854465
0.638189,0.420198,0.56473,-2.32937,-0.489426,2.63649,0.854466
0.638185,0.4202,0.564733,-2.32937,-0.489423,2.63649,0.854467
0.63819,0.4202,0.564734,-2.32937,-0.489426,2.63649,0.854464
0.63819,0.420203,0.564731,-2.32937,-0.489426,2.63649,0.854469
0.638185,0.4202,0.564736,-2.32937,-0.489426,2.63649,0.854464
0.638188,0.4202,0.564738,-2.32936,-0.489424,2.63648,0.854469
0.63819,0.420198,0.564736,-2.32936,-0.489423,2.63648,0.854465
0.638191,0.420195,0.564739,-2.32937,-0.489425,2.63648,0.85447
0.638194,0.420207,0.564736,-2.32935,-0.489426,2.63648,0.854463
0.638188,0.4202,0.564736,-2.32936,-0.489423,2.63648,0.854468
0.638191,0.4202,0.564736,-2.32936,-0.489427,2.63648,0.854465
0.638196,0.420197,0.564736,-2.32936,-0.489429,2.63647,0.854468
0.638191,0.420192,0.564739,-2.32936,-0.489428,2.63647,0.854468
0.638196,0.4202,0.564734,-2.32936,-0.489429,2.63647,0.854469
0.638196,0.4202,0.564736,-2.32935,-0.489429,2.63646,0.854467
0.638194,0.420203,0.564742,-2.32935,-0.489426,2.63646,0.854465
0.638192,0.420198,0.564741,-2.32935,-0.489429,2.63646,0.85447
0.638191,0.420198,0.564739,-2.32935,-0.489429,2.63645,0.854465
0.638193,0.4202,0.564742,-2.32935,-0.489429,2.63645,0.854467
0.638194,0.420203,0.56474,-2.32935,-0.489426,2.63645,0.854464
0.638194,0.420198,0.564742,-2.32935,-0.489429,2.63644,0.85447
0.638197,0.420203,0.564743,-2.32935,-0.48943,2.63643,0.854465
0.638195,0.4202,0.564746,-2.32935,-0.48943,2.63643,0.854465
0.638191,0.420203,0.564742,-2.32934,-0.48943,2.63642,0.854467
0.638188,0.420203,0.564745,-2.32934,-0.48943,2.63641,0.854469
0.638201,0.420198,0.564745,-2.32934,-0.48943,2.63641,0.854466
0.638195,0.4202,0.564743,-2.32934,-0.489429,2.6364,0.854464
0.638197,0.420203,0.564744,-2.32933,-0.489433,2.63638,0.854463
0.638192,0.4202,0.564743,-2.32933,-0.489431,2.63637,0.854466
0.638192,0.420203,0.564746,-2.32932,-0.489429,2.63636,0.854464
0.638192,0.420203,0.564751,-2.32932,-0.489429,2.63636,0.854465
0.638194,0.420208,0.564754,-2.32932,-0.489429,2.63635,0.85446
0.638197,0.420203,0.564749,-2.32932,-0.489429,2.63635,0.854469
0.638192,0.420213,0.564746,-2.32931,-0.48943,2.63634,0.854464
0.638192,0.420213,0.564752,-2.32931,-0.489428,2.63633,0.854468
0.638194,0.420212,0.564752,-2.32931,-0.489428,2.63633,0.854463
0.638192,0.420209,0.564744,-2.32931,-0.489428,2.63633,0.854468
0.638195,0.420211,0.564755,-2.3293,-0.489428,2.63632,0.854465
0.638194,0.420216,0.564749,-2.3293,-0.489431,2.63632,0.854468
0.638194,0.420211,0.564749,-2.3293,-0.489429,2.63632,0.854463
0.638192,0.420216,0.564755,-2.32929,-0.489429,2.63632,0.854464
0.638192,0.420217,0.564749,-2.32929,-0.489428,2.63632,0.854463
0.638194,0.420217,0.564749,-2.32929,-0.489428,2.63631,0.854463
0.638192,0.420216,0.564752,-2.32929,-0.489428,2.63631,0.854467
0.638194,0.420219,0.564754,-2.32928,-0.489428,2.63631,0.854464
0.638194,0.420217,0.56475,-2.32928,-0.489429,2.63631,0.854467
0.638197,0.420219,0.564752,-2.32928,-0.489428,2.63631,0.854466
0.638193,0.420219,0.564752,-2.32927,-0.489431,2.63631,0.854464
0.638197,0.420224,0.56475,-2.32927,-0.489429,2.63631,0.854461
0.638198,0.420222,0.564752,-2.32927,-0.489428,2.6363,0.854465
0.638199,0.420225,0.564754,-2.32927,-0.489428,2.63631,0.85446
0.638192,0.420223,0.564752,-2.32927,-0.489428,2.6363,0.854465
0.638198,0.420222,0.564753,-2.32927,-0.489428,2.6363,0.854464
0.638194,0.420228,0.564754,-2.32926,-0.489429,2.6363,0.854463
0.638192,0.420226,0.564755,-2.32926,-0.489429,2.6363,0.85446
0.638199,0.42023,0.564758,-2.32926,-0.489428,2.63629,0.854458
0.638195,0.420234,0.564753,-2.32926,-0.489428,2.63629,0.854462
0.638192,0.420231,0.564752,-2.32925,-0.489429,2.63629,0.854457
0.638192,0.420236,0.564749,-2.32926,-0.489429,2.6363,0.85446
0.638194,0.420234,0.564753,-2.32925,-0.489428,2.6363,0.854459
0.63819,0.420234,0.564752,-2.32925,-0.489431,2.63629,0.854462
0.638192,0.42024,0.564755,-2.32925,-0.48943,2.63629,0.854459
0.638192,0.420238,0.564752,-2.32925,-0.489429,2.63629,0.854462
0.638192,0.42024,0.564755,-2.32925,-0.489429,2.63629,0.854459
0.638194,0.420238,0.564752,-2.32924,-0.489429,2.63629,0.854461
0.638192,0.420243,0.564755,-2.32924,-0.489428,2.63629,0.85446
0.638194,0.420244,0.564757,-2.32924,-0.489428,2.63629,0.854459
0.638194,0.420244,0.564755,-2.32924,-0.489429,2.63629,0.854462
0.638194,0.420246,0.564753,-2.32924,-0.48943,2.63629,0.854457
0.638194,0.420249,0.564758,-2.32924,-0.489428,2.63629,0.85446
0.638194,0.420246,0.564753,-2.32923,-0.48943,2.63629,0.854456
0.638195,0.420247,0.564756,-2.32923,-0.489429,2.63628,0.85446
0.638195,0.42025,0.564755,-2.32923,-0.48943,2.63628,0.854457
0.638192,0.420251,0.564758,-2.32923,-0.489428,2.63628,0.854459
0.638197,0.420249,0.564756,-2.32923,-0.48943,2.63628,0.854457
0.638194,0.420254,0.564755,-2.32922,-0.489432,2.63628,0.854461
0.638195,0.420254,0.564755,-2.32922,-0.48943,2.63628,0.854456
0.638189,0.420254,0.564755,-2.32922,-0.48943,2.63628,0.854457
0.638197,0.420255,0.564757,-2.32922,-0.489429,2.63628,0.854455
0.638196,0.420252,0.564755,-2.32922,-0.489428,2.63628,0.854454
0.638195,0.420257,0.564761,-2.32922,-0.48943,2.63628,0.854461
0.638197,0.420257,0.564756,-2.32922,-0.48943,2.63628,0.854459
0.638194,0.420252,0.564756,-2.32922,-0.489429,2.63628,0.854456
0.6382,0.420258,0.564758,-2.32921,-0.48943,2.63628,0.854457
0.638197,0.420258,0.564761,-2.32921,-0.489431,2.63628,0.854461
0.638193,0.420257,0.564761,-2.32922,-0.489429,2.63628,0.854458
0.638192,0.420261,0.564766,-2.32922,-0.489428,2.63628,0.854462
0.638197,0.420261,0.564754,-2.32921,-0.489429,2.63628,0.854456
0.638197,0.420261,0.564756,-2.32921,-0.489432,2.63628,0.854459
0.638192,0.420258,0.56476,-2.32921,-0.489431,2.63628,0.854457
0.638195,0.420259,0.564756,-2.32921,-0.489429,2.63628,0.854458
0.638198,0.420256,0.564759,-2.32921,-0.48943,2.63628,0.85446
0.638192,0.420261,0.564764,-2.32921,-0.489429,2.63628,0.854457
0.6382,0.420262,0.564759,-2.32922,-0.489432,2.63628,0.854459
0.638193,0.420264,0.564764,-2.32921,-0.489428,2.63628,0.854457
0.638192,0.420262,0.564757,-2.32921,-0.489429,2.63628,0.854461
0.638194,0.420259,0.564761,-2.32921,-0.489428,2.63628,0.854453
0.638196,0.420259,0.564756,-2.32922,-0.489428,2.63628,0.854456
0.638192,0.420261,0.564761,-2.32922,-0.489432,2.63629,0.854459
0.638197,0.420265,0.564756,-2.32922,-0.48943,2.63629,0.85446
0.638195,0.420261,0.564757,-2.32922,-0.489429,2.63629,0.854461
0.638192,0.420265,0.564756,-2.32922,-0.489433,2.63629,0.854459
0.638194,0.42026,0.56476,-2.32922,-0.489429,2.63629,0.854463
0.638192,0.420262,0.564759,-2.32922,-0.489429,2.63629,0.854457
0.638194,0.420265,0.564759,-2.32922,-0.489428,2.63629,0.854462
0.638194,0.420265,0.564756,-2.32922,-0.489432,2.63629,0.854457
0.638195,0.420267,0.564764,-2.32922,-0.489433,2.63629,0.85446
0.638193,0.420264,0.564761,-2.32922,-0.48943,2.63629,0.854458
0.638192,0.420266,0.564761,-2.32922,-0.489429,2.63629,0.854461
0.638197,0.420262,0.564764,-2.32922,-0.489432,2.63629,0.854459
0.638197,0.420265,0.564761,-2.32923,-0.489431,2.63629,0.854459
0.6382,0.420259,0.564756,-2.32923,-0.489431,2.63629,0.854457
0.638195,0.42027,0.564761,-2.32922,-0.48943,2.63629,0.854456
0.638192,0.420268,0.564761,-2.32922,-0.489434,2.6363,0.854457
0.638195,0.420265,0.564761,-2.32922,-0.489431,2.6363,0.854456
0.638194,0.420266,0.564759,-2.32923,-0.489431,2.6363,0.854461
0.63819,0.420265,0.564759,-2.32922,-0.48943,2.6363,0.854455
0.638195,0.420265,0.564761,-2.32922,-0.48943,2.6363,0.854461
0.638192,0.420263,0.564759,-2.32922,-0.48943,2.6363,0.85446
0.638187,0.420265,0.564761,-2.32922,-0.48943,2.6363,0.854459
0.638194,0.420265,0.564759,-2.32922,-0.48943,2.6363,0.854461
0.638192,0.420265,0.564761,-2.32922,-0.489429,2.6363,0.854459
0.638194,0.420265,0.564761,-2.32922,-0.489429,2.6363,0.854456
0.638187,0.420265,0.564764,-2.32923,-0.489432,2.6363,0.854456
0.638194,0.420263,0.564761,-2.32922,-0.489433,2.6363,0.854459
0.638197,0.420267,0.564764,-2.32923,-0.48943,2.63631,0.854461
0.63819,0.42026,0.56476,-2.32923,-0.489428,2.6363,0.854461
0.638197,0.420261,0.564761,-2.32922,-0.489428,2.6363,0.854459
0.638189,0.420265,0.564762,-2.32923,-0.489428,2.63631,0.854461
0.638192,0.420265,0.564759,-2.32923,-0.489427,2.63631,0.85446
0.638191,0.420265,0.564759,-2.32922,-0.489428,2.63631,0.85446
0.638195,0.420265,0.564759,-2.32922,-0.489427,2.63631,0.854455
0.638194,0.420263,0.564761,-2.32922,-0.489426,2.63631,0.854461
0.638197,0.420261,0.56476,-2.32923,-0.489427,2.63631,0.854457
0.638193,0.420267,0.564756,-2.32922,-0.489427,2.63631,0.854462
0.638189,0.42026,0.564761,-2.32922,-0.489426,2.63631,0.854459
0.638194,0.420268,0.56476,-2.32922,-0.489425,2.63631,0.854461
0.638192,0.420261,0.564759,-2.32923,-0.489425,2.63631,0.854459
0.638192,0.420265,0.564759,-2.32923,-0.489425,2.63631,0.854459
0.638194,0.420263,0.564754,-2.32922,-0.489425,2.63631,0.854464
0.638192,0.420266,0.564756,-2.32923,-0.489424,2.63632,0.854453
0.638194,0.420265,0.564756,-2.32923,-0.489425,2.63632,0.854461
0.638192,0.420263,0.564761,-2.32922,-0.489425,2.63632,0.854459
0.638187,0.420268,0.564754,-2.32922,-0.489425,2.63631,0.854461
0.638192,0.42026,0.564761,-2.32923,-0.489426,2.63632,0.85446
0.638189,0.420263,0.564761,-2.32923,-0.489425,2.63632,0.85446
0.638189,0.420268,0.564759,-2.32923,-0.489426,2.63632,0.854461
0.638192,0.420268,0.564756,-2.32923,-0.489426,2.63632,0.854458
0.638183,0.420268,0.564756,-2.32923,-0.489426,2.63632,0.854461
0.63819,0.420265,0.564756,-2.32923,-0.489426,2.63632,0.854459
0.638187,0.420263,0.564761,-2.32922,-0.489425,2.63632,0.854462
0.638187,0.420271,0.564759,-2.32922,-0.489428,2.63632,0.854459
0.638194,0.420271,0.564754,-2.32922,-0.489427,2.63632,0.854459
0.638192,0.420265,0.564759,-2.32923,-0.489427,2.63632,0.854459
0.638189,0.420265,0.564754,-2.32922,-0.489426,2.63633,0.854455
0.638187,0.420265,0.564756,-2.32922,-0.489426,2.63633,0.854461
0.638192,0.420263,0.564754,-2.32923,-0.489428,2.63633,0.85446
0.638187,0.420265,0.564761,-2.32922,-0.489428,2.63633,0.85446
0.638183,0.420263,0.564759,-2.32922,-0.489428,2.63633,0.854461
0.638189,0.420263,0.564759,-2.32922,-0.489431,2.63633,0.854462
0.638186,0.420262,0.564759,-2.32922,-0.489425,2.63633,0.854458
0.638191,0.420263,0.564759,-2.32922,-0.489426,2.63633,0.854463
0.638187,0.420263,0.564754,-2.32923,-0.489428,2.63633,0.854458
0.638189,0.420265,0.564756,-2.32922,-0.489424,2.63633,0.854462
0.638189,0.420268,0.564764,-2.32923,-0.489426,2.63634,0.854456
0.638191,0.420263,0.564759,-2.32923,-0.489428,2.63634,0.85446
0.638192,0.420265,0.564756,-2.32923,-0.489428,2.63634,0.854461
0.638187,0.420265,0.564756,-2.32923,-0.489428,2.63634,0.854459
0.638188,0.420263,0.564754,-2.32923,-0.489429,2.63634,0.854461
0.638189,0.420265,0.564756,-2.32923,-0.489428,2.63634,0.85446
0.638192,0.420261,0.564761,-2.32923,-0.489428,2.63634,0.854462
0.638183,0.420266,0.564761,-2.32923,-0.48943,2.63635,0.854464
0.638194,0.420265,0.564761,-2.32923,-0.48943,2.63635,0.854461
0.638186,0.420265,0.56476,-2.32922,-0.489429,2.63635,0.854459
0.638184,0.420263,0.564756,-2.32923,-0.48943,2.63635,0.854461
0.638188,0.420263,0.564756,-2.32923,-0.48943,2.63635,0.854459
0.638194,0.420268,0.564759,-2.32923,-0.48943,2.63636,0.854461
0.638194,0.420265,0.564756,-2.32923,-0.489431,2.63636,0.854457
0.638194,0.420265,0.564759,-2.32923,-0.48943,2.63636,0.854455
0.638187,0.420267,0.564759,-2.32923,-0.489431,2.63636,0.854456
0.638194,0.420261,0.564759,-2.32923,-0.48943,2.63636,0.854458
0.638192,0.420266,0.564756,-2.32923,-0.48943,2.63637,0.854458
0.638187,0.42026,0.564764,-2.32923,-0.489434,2.63637,0.854461
0.638194,0.420263,0.564759,-2.32923,-0.489433,2.63637,0.854456
0.638189,0.42027,0.564759,-2.32923,-0.489433,2.63637,0.854461
0.638187,0.420264,0.564758,-2.32923,-0.489432,2.63638,0.854459
0.638189,0.420263,0.564762,-2.32923,-0.489433,2.63638,0.854463
0.638189,0.420268,0.564759,-2.32923,-0.489432,2.63638,0.854454
0.638189,0.420263,0.564756,-2.32924,-0.489432,2.63638,0.854458
0.638194,0.420258,0.564756,-2.32923,-0.489436,2.63639,0.854461
0.638192,0.420263,0.564756,-2.32923,-0.489438,2.63639,0.85446
0.638192,0.420263,0.564758,-2.32923,-0.489438,2.63639,0.854459
0.638192,0.42026,0.56476,-2.32923,-0.489439,2.6364,0.854457
0.638192,0.420258,0.564762,-2.32924,-0.48944,2.6364,0.854463
0.638192,0.420263,0.564761,-2.32923,-0.489437,2.63641,0.854459
0.638189,0.420263,0.564761,-2.32924,-0.489437,2.63641,0.854462
0.638192,0.420263,0.564764,-2.32923,-0.48944,2.63642,0.854453
0.638189,0.420258,0.564764,-2.32923,-0.489441,2.63642,0.85446
0.638189,0.42026,0.564767,-2.32923,-0.489442,2.63643,0.854454
0.638186,0.420263,0.564762,-2.32924,-0.489442,2.63643,0.85446
0.638194,0.42026,0.564764,-2.32924,-0.489442,2.63644,0.854458
0.638194,0.420258,0.564762,-2.32924,-0.489443,2.63645,0.854458
0.638196,0.420259,0.564759,-2.32924,-0.489447,2.63645,0.854459
0.638192,0.420265,0.564759,-2.32924,-0.489446,2.63646,0.85446
0.638192,0.420257,0.564764,-2.32923,-0.489447,2.63647,0.854462
0.638195,0.420258,0.564767,-2.32923,-0.489446,2.63647,0.854457
0.638198,0.42026,0.564762,-2.32924,-0.489447,2.63648,0.85446
0.638197,0.420258,0.564762,-2.32924,-0.489448,2.63648,0.854454
0.638194,0.420263,0.564764,-2.32923,-0.489449,2.63649,0.854457
0.638197,0.42026,0.56477,-2.32923,-0.489448,2.6365,0.854457
0.638204,0.420258,0.564762,-2.32924,-0.489448,2.6365,0.854459
0.638194,0.420263,0.564767,-2.32923,-0.489448,2.6365,0.854456
0.6382,0.42026,0.564765,-2.32923,-0.489448,2.63651,0.85446
0.638197,0.42026,0.564762,-2.32923,-0.489447,2.63651,0.854461
0.6382,0.42026,0.564767,-2.32923,-0.489447,2.63652,0.85446
0.638198,0.420258,0.564764,-2.32923,-0.489448,2.63652,0.85446
0.638199,0.42026,0.564767,-2.32923,-0.489446,2.63652,0.854454
0.638198,0.42026,0.564762,-2.32923,-0.489446,2.63652,0.854457
0.638205,0.42026,0.564762,-2.32923,-0.489446,2.63652,0.854452
0.638198,0.420258,0.564759,-2.32923,-0.489446,2.63652,0.854461
0.638198,0.420257,0.564762,-2.32923,-0.489449,2.63652,0.854455
0.6382,0.420259,0.564762,-2.32922,-0.489446,2.63652,0.85446
0.638195,0.42026,0.564762,-2.32923,-0.489445,2.63652,0.854457
0.6382,0.420261,0.564765,-2.32923,-0.489449,2.63652,0.854463
0.638203,0.420257,0.564759,-2.32922,-0.489446,2.63652,0.854461
0.638197,0.420257,0.564759,-2.32922,-0.489447,2.63653,0.854458
0.638203,0.42026,0.564759,-2.32922,-0.489448,2.63652,0.854458
0.638201,0.420257,0.564759,-2.32922,-0.489446,2.63653,0.854455
0.638198,0.420259,0.564765,-2.32922,-0.489445,2.63653,0.854456
0.638198,0.420263,0.564762,-2.32922,-0.489443,2.63652,0.854457
0.638195,0.420255,0.564761,-2.32922,-0.489443,2.63653,0.854461
0.638195,0.420262,0.564759,-2.32922,-0.489445,2.63653,0.85446
0.638198,0.420263,0.564757,-2.32921,-0.489443,2.63653,0.854461
0.638198,0.420257,0.564762,-2.32922,-0.489442,2.63653,0.854459
0.63819,0.42026,0.564767,-2.32921,-0.489441,2.63653,0.854455
0.6382,0.42026,0.56476,-2.32922,-0.489441,2.63652,0.854456
0.638198,0.420259,0.564762,-2.32921,-0.489441,2.63653,0.854458
0.638198,0.42026,0.564759,-2.32922,-0.489439,2.63653,0.854458
0.638195,0.420263,0.564759,-2.32921,-0.489439,2.63653,0.854459
0.638192,0.420262,0.564762,-2.32921,-0.489439,2.63653,0.854457
0.6382,0.42026,0.564757,-2.32921,-0.489439,2.63653,0.854463
0.638195,0.420257,0.564754,-2.32921,-0.489438,2.63653,0.854459
0.638195,0.420265,0.564756,-2.32921,-0.489438,2.63653,0.854461
0.63819,0.420263,0.564756,-2.32921,-0.489438,2.63653,0.854457
0.638192,0.420259,0.564758,-2.32921,-0.489438,2.63653,0.854464
0.63819,0.420263,0.564756,-2.32921,-0.489434,2.63653,0.854459
0.638193,0.420265,0.56476,-2.32921,-0.489436,2.63653,0.854461
0.638197,0.420265,0.564759,-2.32921,-0.489437,2.63653,0.854457
0.63819,0.420268,0.564754,-2.32922,-0.489437,2.63653,0.854461
0.638186,0.420268,0.564756,-2.32921,-0.489437,2.63653,0.854458
0.63819,0.420271,0.564754,-2.32921,-0.489433,2.63653,0.854463
0.638187,0.420265,0.564751,-2.32921,-0.489435,2.63653,0.854455
0.638184,0.420268,0.564749,-2.32921,-0.489433,2.63653,0.854458
0.638181,0.420263,0.564751,-2.32921,-0.489436,2.63653,0.854462
0.638184,0.420268,0.56475,-2.3292,-0.489435,2.63653,0.85446
0.638184,0.420271,0.564753,-2.3292,-0.489434,2.63653,0.854459
0.638187,0.42027,0.564753,-2.32921,-0.489431,2.63653,0.854459
0.638186,0.420266,0.564754,-2.3292,-0.489431,2.63653,0.854461
0.638184,0.420278,0.564754,-2.3292,-0.48943,2.63653,0.854462
0.638181,0.420274,0.564749,-2.3292,-0.48943,2.63653,0.854457
0.638184,0.420276,0.564751,-2.3292,-0.48943,2.63653,0.854457
0.638186,0.420278,0.564753,-2.3292,-0.489432,2.63653,0.854459
0.638181,0.420277,0.564753,-2.3292,-0.489434,2.63653,0.854459
0.638178,0.420274,0.56475,-2.32919,-0.489432,2.63653,0.854455
0.638185,0.420275,0.564748,-2.3292,-0.489432,2.63653,0.85446
0.638189,0.420279,0.56475,-2.32919,-0.489431,2.63653,0.854458
0.638184,0.420277,0.564753,-2.32919,-0.489431,2.63653,0.854462
0.638186,0.420282,0.564753,-2.32919,-0.489432,2.63652,0.854457
0.638182,0.42028,0.564756,-2.32918,-0.489432,2.63652,0.854461
0.638184,0.420282,0.564756,-2.32918,-0.489434,2.63652,0.854455
0.638186,0.420283,0.564753,-2.32918,-0.489433,2.63652,0.85446
0.638186,0.420286,0.564758,-2.32918,-0.489434,2.63652,0.854458
0.638183,0.420283,0.564754,-2.32918,-0.489434,2.63652,0.854461
0.638181,0.420286,0.564763,-2.32917,-0.489434,2.63652,0.854456
0.638191,0.420291,0.564759,-2.32917,-0.489434,2.63652,0.854461
0.638188,0.420289,0.564761,-2.32917,-0.489435,2.63652,0.854456
0.638192,0.420292,0.564759,-2.32917,-0.489436,2.63652,0.854458
0.638191,0.42029,0.564764,-2.32916,-0.489436,2.63652,0.854458
0.638194,0.420294,0.564759,-2.32916,-0.48944,2.63652,0.854458
0.638191,0.420295,0.564764,-2.32916,-0.489442,2.63652,0.85446
0.638191,0.420296,0.564756,-2.32916,-0.489442,2.63652,0.854459
0.638192,0.420301,0.564761,-2.32915,-0.489439,2.63652,0.854456
0.638194,0.420301,0.564761,-2.32915,-0.489438,2.63652,0.854451
0.638194,0.420304,0.564766,-2.32915,-0.489441,2.63652,0.854458
0.638194,0.420302,0.564764,-2.32914,-0.489441,2.63651,0.854454
0.638197,0.420305,0.564767,-2.32914,-0.489439,2.63651,0.854454
0.638194,0.420308,0.56476,-2.32914,-0.489442,2.63651,0.854449
0.638202,0.42031,0.564761,-2.32913,-0.489439,2.63651,0.854457
0.6382,0.420309,0.564767,-2.32913,-0.489441,2.63651,0.854452
0.6382,0.420308,0.564764,-2.32913,-0.489442,2.63651,0.854454
0.638203,0.420309,0.56477,-2.32912,-0.489441,2.63651,0.854453
0.638208,0.420312,0.564773,-2.32912,-0.489437,2.63651,0.854456
0.638205,0.420317,0.564771,-2.32911,-0.489438,2.63651,0.854451
0.638205,0.420315,0.564768,-2.32911,-0.48944,2.63651,0.854455
0.638209,0.420316,0.564768,-2.32911,-0.489439,2.63651,0.854452
0.638205,0.420315,0.564768,-2.32911,-0.489441,2.63651,0.854454
0.638208,0.42032,0.564775,-2.3291,-0.489442,2.6365,0.854451
0.638206,0.420321,0.564776,-2.3291,-0.489439,2.6365,0.854458
0.638206,0.420324,0.564774,-2.32911,-0.489442,2.6365,0.854454
0.638206,0.420327,0.564774,-2.3291,-0.489438,2.6365,0.854454
0.638211,0.42032,0.564776,-2.3291,-0.489441,2.6365,0.854452
0.638209,0.420322,0.564772,-2.3291,-0.489442,2.6365,0.854457
0.638208,0.420325,0.564776,-2.3291,-0.489439,2.6365,0.854452
0.638211,0.420322,0.564771,-2.3291,-0.48944,2.6365,0.854454
0.638209,0.420323,0.564779,-2.3291,-0.489441,2.6365,0.854456
0.638206,0.420326,0.564779,-2.32909,-0.489443,2.6365,0.854456
0.638206,0.420325,0.564772,-2.3291,-0.489443,2.6365,0.854457
0.638212,0.420328,0.564777,-2.32909,-0.489443,2.6365,0.854456
0.638206,0.420326,0.564777,-2.32909,-0.48944,2.6365,0.854452
0.638214,0.420323,0.564777,-2.3291,-0.489439,2.6365,0.854454
0.638207,0.420328,0.564777,-2.3291,-0.489442,2.6365,0.854452
0.63821,0.42033,0.564777,-2.3291,-0.489443,2.6365,0.854454
0.63821,0.420329,0.564775,-2.3291,-0.489439,2.6365,0.85445
0.638211,0.420328,0.564778,-2.3291,-0.489442,2.6365,0.854453
0.638207,0.420334,0.564778,-2.3291,-0.489443,2.6365,0.854452
0.638207,0.420329,0.564777,-2.3291,-0.489443,2.6365,0.854457
0.63821,0.420329,0.564778,-2.3291,-0.489443,2.6365,0.854451
0.63821,0.420335,0.564775,-2.32911,-0.489443,2.6365,0.854456
0.63821,0.420329,0.564775,-2.3291,-0.489445,2.6365,0.854458
0.638206,0.420332,0.564777,-2.32911,-0.489444,2.6365,0.854456
0.638205,0.420331,0.564778,-2.3291,-0.489443,2.6365,0.854454
0.638204,0.42033,0.564776,-2.3291,-0.489443,2.6365,0.854455
0.638206,0.420328,0.564772,-2.3291,-0.489443,2.6365,0.854456
0.638202,0.420332,0.564773,-2.32911,-0.489443,2.6365,0.854453
0.638212,0.42033,0.56477,-2.32911,-0.489443,2.6365,0.854457
0.638204,0.420332,0.564772,-2.32911,-0.489444,2.6365,0.854452
0.638213,0.420325,0.564772,-2.32911,-0.489445,2.6365,0.854457
0.638204,0.420329,0.564775,-2.32911,-0.489443,2.6365,0.854452
0.638204,0.42033,0.564777,-2.32911,-0.489443,2.6365,0.854457
0.638201,0.420335,0.564775,-2.32911,-0.489443,2.6365,0.854454
0.638204,0.42033,0.564773,-2.32911,-0.489443,2.6365,0.854458
0.638209,0.420332,0.564778,-2.32911,-0.489445,2.6365,0.854455
0.638206,0.420332,0.564774,-2.32911,-0.489444,2.6365,0.854455
0.638203,0.420335,0.564778,-2.32912,-0.489447,2.6365,0.854454
0.638205,0.420335,0.564775,-2.32911,-0.489446,2.6365,0.854454
0.638207,0.420336,0.56478,-2.32912,-0.489445,2.6365,0.854455
0.638206,0.420338,0.564772,-2.32912,-0.489447,2.6365,0.854454
0.638202,0.420333,0.564776,-2.32911,-0.489445,2.6365,0.854455
0.638207,0.420333,0.56477,-2.32911,-0.489445,2.6365,0.854453
0.638206,0.42034,0.564775,-2.32912,-0.489446,2.6365,0.854457
0.638207,0.420335,0.564775,-2.32912,-0.489444,2.6365,0.854452
0.638207,0.420333,0.564775,-2.32912,-0.489444,2.6365,0.854457
0.638207,0.420333,0.56478,-2.32911,-0.489443,2.6365,0.854453
0.638209,0.420338,0.564779,-2.32911,-0.489443,2.6365,0.854457
0.638201,0.420333,0.564772,-2.32911,-0.489444,2.6365,0.854452
0.638207,0.420336,0.564775,-2.32911,-0.489443,2.6365,0.854455
0.638207,0.420336,0.564778,-2.32911,-0.489443,2.6365,0.854452
0.638206,0.42033,0.564778,-2.3291,-0.489443,2.6365,0.854456
0.638206,0.420333,0.564778,-2.32911,-0.489443,2.6365,0.854453
0.638206,0.420335,0.56478,-2.3291,-0.489441,2.6365,0.854451
0.638202,0.420335,0.564783,-2.3291,-0.489443,2.6365,0.854455
0.638206,0.420333,0.564778,-2.3291,-0.489443,2.6365,0.854454
0.638212,0.420333,0.564778,-2.3291,-0.489442,2.6365,0.854454
0.638207,0.420336,0.564777,-2.3291,-0.489443,2.6365,0.85445
0.638207,0.420336,0.564778,-2.3291,-0.489443,2.6365,0.854455
0.638204,0.420333,0.56478,-2.3291,-0.489444,2.6365,0.854453
0.638204,0.420336,0.564775,-2.3291,-0.489444,2.6365,0.854457
0.638209,0.42033,0.56478,-2.3291,-0.489443,2.6365,0.854451
0.638207,0.420333,0.564778,-2.3291,-0.489443,2.6365,0.854454
0.638209,0.420333,0.564781,-2.32909,-0.489445,2.6365,0.85445
0.638212,0.420333,0.564781,-2.3291,-0.489445,2.6365,0.854455
0.638212,0.420333,0.564781,-2.32909,-0.489444,2.6365,0.854452
0.638212,0.420328,0.564783,-2.32909,-0.489446,2.63651,0.854452
0.638215,0.420336,0.564783,-2.32909,-0.489445,2.6365,0.854451
0.638215,0.420332,0.564781,-2.32909,-0.489446,2.6365,0.854451
0.638212,0.420333,0.564784,-2.32908,-0.489444,2.6365,0.854452
0.638215,0.420333,0.56478,-2.32909,-0.489443,2.6365,0.854454
0.638212,0.42033,0.564787,-2.32909,-0.489447,2.6365,0.854452
0.638215,0.420333,0.56478,-2.32909,-0.489447,2.6365,0.854451
0.63821,0.420333,0.564787,-2.32908,-0.489449,2.63651,0.854447
0.638212,0.420333,0.56478,-2.32908,-0.489449,2.6365,0.854448
0.63821,0.420338,0.564786,-2.32908,-0.489447,2.6365,0.854446
0.63821,0.420336,0.564786,-2.32908,-0.48945,2.6365,0.854447
0.638212,0.420336,0.564784,-2.32908,-0.489447,2.6365,0.854447
0.638212,0.420333,0.564778,-2.32907,-0.489447,2.6365,0.854446
0.638213,0.42033,0.564778,-2.32907,-0.489446,2.6365,0.854448
0.638215,0.420338,0.564783,-2.32907,-0.489449,2.6365,0.854445
0.638212,0.420341,0.564782,-2.32907,-0.489446,2.6365,0.854447
0.638212,0.420339,0.564787,-2.32907,-0.489445,2.6365,0.854442
0.638215,0.420339,0.564781,-2.32907,-0.489446,2.6365,0.854448
0.63821,0.420341,0.564784,-2.32906,-0.489446,2.6365,0.854444
0.63821,0.420336,0.564786,-2.32906,-0.489445,2.6365,0.854448
0.638213,0.420343,0.564784,-2.32906,-0.489449,2.6365,0.85444
0.638213,0.420338,0.564781,-2.32906,-0.489447,2.6365,0.854443
0.638216,0.420344,0.564783,-2.32906,-0.489448,2.6365,0.85444
0.638211,0.420341,0.564784,-2.32906,-0.489445,2.6365,0.854444
0.638207,0.420344,0.564786,-2.32905,-0.489447,2.6365,0.854443
0.638209,0.420346,0.564785,-2.32905,-0.489446,2.6365,0.854441
0.638213,0.420342,0.564778,-2.32905,-0.489445,2.6365,0.854438
0.638215,0.420347,0.564785,-2.32905,-0.489444,2.6365,0.85444
0.638208,0.420347,0.564781,-2.32905,-0.489444,2.6365,0.854443
0.63821,0.420347,0.564784,-2.32905,-0.489447,2.63649,0.854435
0.638207,0.420347,0.564787,-2.32905,-0.489446,2.63649,0.85444
0.638215,0.420353,0.564785,-2.32905,-0.489447,2.63649,0.854435
0.63821,0.420353,0.564782,-2.32905,-0.489445,2.63649,0.854441
0.638204,0.42035,0.564784,-2.32905,-0.489446,2.63649,0.854435
0.638207,0.420355,0.564781,-2.32905,-0.489444,2.63649,0.854439
0.638212,0.420351,0.564787,-2.32905,-0.489444,2.63649,0.854437
0.638208,0.420359,0.564786,-2.32904,-0.489444,2.6365,0.854439
0.63821,0.420356,0.564784,-2.32904,-0.489448,2.63649,0.854437
0.638207,0.420354,0.564787,-2.32904,-0.489445,2.63649,0.854439
0.638208,0.420353,0.56479,-2.32904,-0.489445,2.63649,0.854438
0.638212,0.420357,0.56479,-2.32904,-0.489449,2.63649,0.854437
0.638213,0.420359,0.564792,-2.32904,-0.489446,2.63649,0.854439
0.638213,0.420354,0.564788,-2.32904,-0.489446,2.63649,0.854439
0.63821,0.420362,0.564785,-2.32905,-0.489446,2.63649,0.85444
0.63821,0.420361,0.564789,-2.32904,-0.489446,2.63649,0.854436
0.638205,0.420363,0.564788,-2.32904,-0.489448,2.63648,0.854439
0.638215,0.420363,0.56479,-2.32904,-0.489447,2.63648,0.854434
0.638215,0.420364,0.564789,-2.32904,-0.489447,2.63648,0.854439
0.63821,0.420364,0.56479,-2.32904,-0.48945,2.63648,0.854435
0.638213,0.420364,0.564793,-2.32904,-0.489448,2.63648,0.854438
0.638216,0.420363,0.564788,-2.32904,-0.489446,2.63648,0.854435
0.638213,0.420365,0.56479,-2.32903,-0.489446,2.63649,0.854437
0.638213,0.420364,0.564798,-2.32903,-0.489447,2.63648,0.854432
0.63821,0.420361,0.56479,-2.32902,-0.489446,2.63648,0.854436
0.638213,0.420369,0.564796,-2.32904,-0.489447,2.63648,0.854429
0.638213,0.420364,0.564796,-2.32903,-0.489448,2.63648,0.854434
0.638213,0.420367,0.564793,-2.32903,-0.48945,2.63648,0.85443
0.638216,0.420364,0.564793,-2.32903,-0.48945,2.63648,0.854429
0.638213,0.420362,0.564796,-2.32903,-0.489448,2.63647,0.854434
0.638215,0.420364,0.564795,-2.32902,-0.489447,2.63647,0.854431
0.638221,0.420362,0.564794,-2.32902,-0.48945,2.63647,0.854432
0.638218,0.420359,0.564796,-2.32902,-0.489448,2.63647,0.854431
0.638221,0.420364,0.564799,-2.32902,-0.489448,2.63647,0.854429
0.638225,0.420367,0.564802,-2.32902,-0.489451,2.63647,0.854425
0.638224,0.420364,0.564796,-2.32902,-0.489448,2.63647,0.854424
0.638224,0.420364,0.564805,-2.32902,-0.489452,2.63647,0.854422
0.638219,0.420365,0.564802,-2.32901,-0.489451,2.63647,0.854421
0.638221,0.420357,0.564802,-2.32902,-0.489449,2.63646,0.854421
0.638223,0.420361,0.564803,-2.32901,-0.489447,2.63646,0.854422
0.638222,0.42036,0.564808,-2.329,-0.489451,2.63646,0.854412
0.638221,0.420366,0.564806,-2.329,-0.489452,2.63646,0.854417
0.638227,0.420367,0.564808,-2.329,-0.489452,2.63646,0.854413
0.638219,0.420364,0.564807,-2.32901,-0.489454,2.63646,0.854415
0.638227,0.420362,0.564811,-2.32901,-0.489453,2.63646,0.854407
0.638229,0.420364,0.564809,-2.329,-0.489453,2.63645,0.854409
0.638227,0.420364,0.564814,-2.329,-0.489452,2.63645,0.854401
0.638225,0.420362,0.56481,-2.329,-0.489453,2.63645,0.854406
0.638227,0.420364,0.564809,-2.32899,-0.489457,2.63645,0.854402
0.638227,0.420364,0.564817,-2.32899,-0.489457,2.63645,0.854397
0.638225,0.420364,0.564812,-2.32899,-0.489456,2.63644,0.854393
0.63823,0.42037,0.564812,-2.32898,-0.489455,2.63644,0.85439
0.638228,0.420364,0.564812,-2.32898,-0.489453,2.63644,0.854394
0.638233,0.420368,0.564813,-2.32898,-0.489453,2.63644,0.854384
0.638228,0.420366,0.564816,-2.32898,-0.489452,2.63644,0.854381
0.638231,0.420367,0.564816,-2.32898,-0.489452,2.63643,0.854375
0.638231,0.42037,0.564818,-2.32897,-0.489456,2.63643,0.854378
0.638228,0.420372,0.564816,-2.32897,-0.489454,2.63642,0.854363
0.638229,0.420365,0.564814,-2.32897,-0.489456,2.63642,0.854362
0.638233,0.420367,0.564814,-2.32896,-0.489458,2.63641,0.85435
0.638234,0.42037,0.564813,-2.32896,-0.489456,2.63641,0.854341
0.638237,0.420367,0.564814,-2.32896,-0.489453,2.6364,0.854335
0.638229,0.420372,0.564811,-2.32896,-0.489452,2.63639,0.854323
0.63824,0.42037,0.564813,-2.32895,-0.489453,2.63639,0.854309
0.638235,0.42037,0.564816,-2.32895,-0.489455,2.63638,0.854298
0.638237,0.420375,0.564811,-2.32895,-0.489456,2.63637,0.85429
0.638232,0.420373,0.564816,-2.32895,-0.489453,2.63636,0.854276
0.638235,0.420375,0.564816,-2.32894,-0.489451,2.63635,0.854264
0.638235,0.420375,0.564816,-2.32894,-0.489451,2.63633,0.854248
0.638237,0.420375,0.564819,-2.32894,-0.48945,2.63632,0.854244
0.638232,0.420375,0.564821,-2.32894,-0.48945,2.63631,0.854231
0.63823,0.420378,0.564814,-2.32893,-0.489452,2.6363,0.854227
0.63823,0.420378,0.564817,-2.32893,-0.489451,2.6363,0.854211
0.638234,0.420379,0.564814,-2.32893,-0.489454,2.63629,0.854208
0.638236,0.420378,0.564816,-2.32893,-0.489451,2.63629,0.854201
0.63823,0.420379,0.564816,-2.32893,-0.489453,2.63629,0.854194
0.638234,0.420382,0.564814,-2.32893,-0.489454,2.63629,0.854189
0.638233,0.420387,0.564814,-2.32892,-0.489456,2.63628,0.854183
0.638227,0.420387,0.564816,-2.32892,-0.489453,2.63629,0.854178
0.638234,0.420388,0.564816,-2.32892,-0.489452,2.63629,0.854171
0.63823,0.420391,0.564816,-2.32892,-0.489456,2.63629,0.854175
0.63823,0.420393,0.564817,-2.32892,-0.489456,2.63629,0.85417
0.638232,0.420396,0.564817,-2.32891,-0.489452,2.63628,0.854169
0.638233,0.420397,0.564817,-2.32892,-0.489453,2.63628,0.854163
0.638229,0.420399,0.564816,-2.32892,-0.489453,2.63628,0.854166
0.63823,0.420397,0.564822,-2.32891,-0.489452,2.63628,0.854164
0.638235,0.420398,0.564822,-2.32891,-0.489452,2.63628,0.854166
0.638235,0.420397,0.564817,-2.32891,-0.489456,2.63628,0.854161
0.638234,0.4204,0.56482,-2.32891,-0.489452,2.63628,0.854166
0.638227,0.420404,0.564822,-2.32891,-0.489456,2.63628,0.854161
0.638234,0.420406,0.564825,-2.32891,-0.489457,2.63628,0.854161
0.638233,0.420407,0.564822,-2.3289,-0.489457,2.63627,0.854164
0.638232,0.42041,0.564822,-2.32889,-0.489458,2.63627,0.854161
0.638232,0.420416,0.56482,-2.32889,-0.489458,2.63627,0.85416
0.638235,0.420417,0.564822,-2.32889,-0.489458,2.63626,0.854162
0.638235,0.42042,0.564822,-2.32889,-0.489458,2.63626,0.854161
0.638233,0.420418,0.564828,-2.32889,-0.489459,2.63625,0.854161
0.63824,0.420425,0.564828,-2.32888,-0.489456,2.63625,0.854157
0.638238,0.420423,0.564828,-2.32888,-0.489458,2.63625,0.854161
0.638235,0.420424,0.564828,-2.32887,-0.48946,2.63625,0.854156
0.63824,0.420424,0.564825,-2.32887,-0.489459,2.63624,0.85416
0.638235,0.420435,0.564823,-2.32887,-0.489459,2.63623,0.854152
0.638235,0.420433,0.564827,-2.32887,-0.489459,2.63623,0.854154
0.63824,0.420436,0.564831,-2.32886,-0.489459,2.63623,0.85415
0.63824,0.420433,0.564828,-2.32885,-0.489459,2.63622,0.85415
0.638238,0.420433,0.564831,-2.32885,-0.48946,2.63621,0.854151
0.638243,0.420437,0.564834,-2.32885,-0.48946,2.6362,0.854147
0.638248,0.420442,0.564834,-2.32884,-0.48946,2.6362,0.854145
0.638246,0.420445,0.564834,-2.32883,-0.489463,2.63619,0.854141
0.638246,0.420446,0.564838,-2.32882,-0.489462,2.63618,0.854147
0.638246,0.420448,0.564837,-2.32882,-0.489462,2.63617,0.854137
0.638247,0.420449,0.564839,-2.32881,-0.489463,2.63616,0.854138
0.638246,0.420449,0.564838,-2.32881,-0.489464,2.63615,0.854128
0.638252,0.420458,0.564845,-2.3288,-0.489465,2.63614,0.854129
0.638253,0.420452,0.564846,-2.32879,-0.489465,2.63613,0.854125
0.638252,0.420458,0.564846,-2.32878,-0.489468,2.63612,0.854122
0.63826,0.42046,0.564844,-2.32878,-0.489466,2.63611,0.854119
0.638253,0.420459,0.564849,-2.32877,-0.489465,2.6361,0.85411
0.638258,0.420461,0.564847,-2.32876,-0.489466,2.63609,0.854109
0.638261,0.420465,0.564853,-2.32875,-0.489465,2.63608,0.8541
0.63826,0.42047,0.564855,-2.32874,-0.489467,2.63607,0.854099
0.638265,0.420473,0.564853,-2.32873,-0.489467,2.63605,0.85409
0.638265,0.420474,0.564854,-2.32873,-0.489468,2.63605,0.854086
0.638271,0.420479,0.564859,-2.32872,-0.489466,2.63604,0.854077
0.638274,0.420483,0.564859,-2.32871,-0.489469,2.63602,0.854075
0.638275,0.420483,0.564857,-2.32869,-0.489467,2.63601,0.85407
0.638275,0.420485,0.564863,-2.32869,-0.489469,2.636,0.854059
0.638281,0.420485,0.56486,-2.32869,-0.489469,2.63599,0.854058
0.638286,0.420492,0.564865,-2.32868,-0.489471,2.63598,0.85405
0.63829,0.420498,0.564863,-2.32867,-0.48947,2.63596,0.854046
0.638294,0.420496,0.564866,-2.32866,-0.489466,2.63595,0.854038
0.638293,0.420504,0.564869,-2.32865,-0.489469,2.63594,0.854036
0.638297,0.420503,0.564864,-2.32864,-0.489469,2.63593,0.854029
0.638297,0.420509,0.564869,-2.32863,-0.48947,2.63592,0.854032
0.638304,0.420509,0.564868,-2.32863,-0.48947,2.6359,0.854025
0.638309,0.420513,0.564867,-2.32862,-0.489472,2.63589,0.854026
0.638307,0.420516,0.564876,-2.32861,-0.489471,2.63588,0.854022
0.638312,0.420519,0.564876,-2.32861,-0.489475,2.63586,0.854015
0.638313,0.420527,0.564875,-2.3286,-0.489472,2.63585,0.854023
0.638314,0.420523,0.564876,-2.32859,-0.489475,2.63584,0.85402
0.638317,0.420526,0.564876,-2.32859,-0.489476,2.63583,0.854024
0.63832,0.420529,0.564876,-2.32858,-0.489473,2.63582,0.85402
0.638325,0.420532,0.564882,-2.32858,-0.489477,2.63581,0.854019
0.638323,0.420538,0.564882,-2.32857,-0.489477,2.63579,0.854017
0.638326,0.420535,0.564879,-2.32857,-0.489477,2.63578,0.854024
0.638335,0.420536,0.564882,-2.32857,-0.48948,2.63577,0.85402
0.63834,0.420539,0.564877,-2.32856,-0.489481,2.63576,0.854024
0.638336,0.420536,0.564883,-2.32856,-0.489479,2.63575,0.854019
0.638345,0.420532,0.564878,-2.32855,-0.489482,2.63574,0.854022
0.638348,0.42054,0.56488,-2.32855,-0.489482,2.63573,0.854019
0.638354,0.420537,0.564878,-2.32855,-0.489483,2.63572,0.854019
0.638354,0.420538,0.564875,-2.32854,-0.489483,2.63571,0.854018
0.638362,0.420542,0.564878,-2.32854,-0.489483,2.6357,0.854016
0.638364,0.420537,0.564875,-2.32854,-0.489486,2.63569,0.854023
0.63837,0.420535,0.564879,-2.32854,-0.489483,2.63568,0.854019
0.638374,0.420535,0.564878,-2.32854,-0.489486,2.63568,0.854024
0.638374,0.420537,0.564882,-2.32854,-0.489488,2.63567,0.854018
0.638383,0.42053,0.564877,-2.32853,-0.489488,2.63566,0.854019
0.638384,0.420532,0.56488,-2.32853,-0.48949,2.63565,0.854025
0.638388,0.420535,0.564878,-2.32853,-0.489491,2.63564,0.854024
0.63839,0.420534,0.56488,-2.32852,-0.489492,2.63564,0.85402
0.638393,0.420532,0.564875,-2.32852,-0.489493,2.63564,0.854022
0.638393,0.420527,0.564878,-2.32852,-0.489494,2.63563,0.854022
0.638401,0.420529,0.564878,-2.32852,-0.489498,2.63563,0.854025
0.6384,0.420531,0.564872,-2.32852,-0.489499,2.63563,0.854019
0.638402,0.420527,0.564872,-2.32852,-0.489499,2.63562,0.854023
0.638403,0.420529,0.564877,-2.32851,-0.489498,2.63562,0.854018
0.638408,0.420532,0.564877,-2.32851,-0.489502,2.63561,0.854023
0.638409,0.420529,0.564883,-2.32851,-0.489502,2.63561,0.854022
0.638407,0.420527,0.564875,-2.3285,-0.489503,2.6356,0.854023
0.638412,0.420529,0.564877,-2.3285,-0.489508,2.6356,0.85402
0.638407,0.420529,0.564874,-2.3285,-0.489509,2.6356,0.854016
0.638417,0.420529,0.564871,-2.3285,-0.489512,2.63559,0.854021
0.638421,0.420529,0.564878,-2.3285,-0.489514,2.63558,0.854017
0.638424,0.420529,0.56488,-2.32849,-0.489515,2.63558,0.854023
0.638423,0.420534,0.56488,-2.32849,-0.489515,2.63557,0.854019
0.638428,0.420529,0.564876,-2.32849,-0.489514,2.63557,0.854022
0.638434,0.420532,0.564873,-2.32848,-0.489517,2.63556,0.854018
0.638437,0.420532,0.564875,-2.32848,-0.489518,2.63556,0.854023
0.638438,0.420529,0.564869,-2.32847,-0.489518,2.63555,0.854023
0.63844,0.420534,0.564869,-2.32847,-0.48952,2.63555,0.854024
0.638443,0.420535,0.564877,-2.32847,-0.489522,2.63554,0.854018
0.638443,0.420535,0.564874,-2.32846,-0.489524,2.63553,0.85402
0.638444,0.420532,0.564877,-2.32846,-0.489524,2.63553,0.85402
0.63845,0.42053,0.564874,-2.32845,-0.489524,2.63552,0.854018
0.638445,0.420536,0.564882,-2.32845,-0.489528,2.63551,0.85402
0.638446,0.420531,0.564874,-2.32845,-0.489529,2.6355,0.854023
0.638455,0.420534,0.564877,-2.32844,-0.48953,2.6355,0.854023
0.638454,0.420532,0.564874,-2.32843,-0.489529,2.63549,0.85402
0.638459,0.420535,0.564877,-2.32843,-0.489532,2.63548,0.854022
0.638459,0.420537,0.564872,-2.32842,-0.489532,2.63547,0.854019
0.638463,0.420534,0.564877,-2.32842,-0.489534,2.63546,0.854021
0.638466,0.420537,0.564877,-2.32841,-0.489533,2.63546,0.854019
0.638463,0.42054,0.564877,-2.32841,-0.489537,2.63545,0.854024
0.638467,0.420537,0.564879,-2.3284,-0.489537,2.63544,0.85402
0.638469,0.420542,0.56488,-2.32839,-0.489538,2.63543,0.854022
0.63847,0.420545,0.564877,-2.32839,-0.48954,2.63543,0.854021
0.638475,0.420545,0.56488,-2.32838,-0.489542,2.63542,0.854022
0.638473,0.420548,0.564878,-2.32838,-0.489545,2.6354,0.854023
0.638476,0.420548,0.564875,-2.32837,-0.489542,2.63539,0.854019
0.638482,0.420549,0.564877,-2.32837,-0.489544,2.63538,0.854024
0.638478,0.420549,0.564879,-2.32836,-0.489545,2.63537,0.85402
0.638482,0.420551,0.564875,-2.32836,-0.489545,2.63536,0.854024
0.638483,0.420554,0.564877,-2.32836,-0.489541,2.63535,0.854021
0.638485,0.420554,0.564879,-2.32835,-0.489544,2.63534,0.854021
0.638486,0.420554,0.564877,-2.32835,-0.489544,2.63532,0.85402
0.638484,0.420554,0.564877,-2.32833,-0.489541,2.63531,0.854023
0.638486,0.42056,0.564883,-2.32833,-0.489539,2.6353,0.854024
0.638489,0.42056,0.564875,-2.32833,-0.489542,2.63529,0.854019
0.638484,0.42056,0.56488,-2.32833,-0.489542,2.63528,0.854017
0.638492,0.420563,0.564877,-2.32832,-0.48954,2.63527,0.854017
0.638493,0.420566,0.564877,-2.32832,-0.489541,2.63526,0.854023
0.63849,0.420567,0.564873,-2.32831,-0.489542,2.63525,0.854022
0.638493,0.420567,0.56488,-2.32831,-0.489538,2.63524,0.85402
0.63849,0.420573,0.564878,-2.32831,-0.489539,2.63524,0.854018
0.638491,0.420572,0.56488,-2.3283,-0.489538,2.63523,0.854023
0.638491,0.420575,0.564877,-2.3283,-0.489537,2.63522,0.85402
0.638491,0.420571,0.564876,-2.32829,-0.489539,2.63522,0.854021
0.638491,0.420579,0.56488,-2.32829,-0.489536,2.63521,0.854019
0.638496,0.420577,0.56488,-2.32829,-0.48954,2.6352,0.85402
0.638494,0.420582,0.564883,-2.32829,-0.489536,2.6352,0.85402
0.638494,0.420586,0.56488,-2.32829,-0.489536,2.63519,0.854023
0.638494,0.420583,0.564883,-2.32829,-0.489537,2.63519,0.854024
0.638493,0.420581,0.564875,-2.3283,-0.489535,2.63519,0.854022
0.638492,0.420586,0.56488,-2.32829,-0.489537,2.63519,0.854023
0.638491,0.420587,0.564878,-2.32829,-0.489537,2.63519,0.854025
0.638494,0.420589,0.564877,-2.32829,-0.489537,2.63518,0.854025
0.638493,0.420587,0.56488,-2.32829,-0.489537,2.63518,0.854019
0.638488,0.420592,0.564878,-2.32829,-0.489537,2.63518,0.854024
0.638494,0.420588,0.564877,-2.32829,-0.489539,2.63518,0.854021
0.638495,0.420593,0.564874,-2.32828,-0.489538,2.63518,0.854024
0.638493,0.42059,0.56488,-2.32829,-0.489538,2.63518,0.854022
0.638499,0.420594,0.564877,-2.32829,-0.489538,2.63518,0.854022
0.638491,0.420593,0.564875,-2.32828,-0.489538,2.63518,0.85402
0.638489,0.420596,0.564875,-2.32828,-0.489537,2.63518,0.854023
0.638491,0.420596,0.56488,-2.32828,-0.489539,2.63518,0.854022
0.638494,0.420597,0.564879,-2.32828,-0.489539,2.63518,0.854022
0.638499,0.420588,0.56488,-2.32828,-0.489539,2.63518,0.85402
0.638491,0.420594,0.564878,-2.32828,-0.489539,2.63518,0.85402
0.638494,0.420597,0.564882,-2.32828,-0.489539,2.63518,0.854025
0.638489,0.420597,0.56488,-2.32828,-0.489539,2.63518,0.854025
0.638491,0.420597,0.564878,-2.32827,-0.489539,2.63518,0.854018
0.638497,0.420597,0.564875,-2.32828,-0.489539,2.63517,0.854022
0.638497,0.420592,0.564877,-2.32827,-0.489538,2.63518,0.854022
0.638497,0.420594,0.564877,-2.32827,-0.489542,2.63517,0.854023
0.638497,0.420597,0.564879,-2.32826,-0.489538,2.63517,0.85402
0.638497,0.420592,0.564877,-2.32827,-0.489538,2.63517,0.85402
0.638499,0.420597,0.564883,-2.32826,-0.489542,2.63517,0.854024
0.638497,0.420597,0.564888,-2.32825,-0.48954,2.63516,0.854021
0.638497,0.420602,0.564883,-2.32825,-0.48954,2.63516,0.854023
0.638499,0.420597,0.564881,-2.32825,-0.489542,2.63516,0.854018
0.638494,0.420603,0.564885,-2.32824,-0.48954,2.63516,0.85402
0.638499,0.420603,0.564884,-2.32824,-0.489538,2.63515,0.854019
0.638507,0.420611,0.564883,-2.32823,-0.489538,2.63515,0.854026
0.638502,0.420603,0.564883,-2.32823,-0.489537,2.63514,0.85402
0.6385,0.420608,0.564886,-2.32822,-0.489537,2.63514,0.854022
0.638507,0.420606,0.564881,-2.32821,-0.489537,2.63513,0.854018
0.638505,0.420614,0.564883,-2.32821,-0.489537,2.63513,0.854023
0.638506,0.420617,0.564884,-2.3282,-0.489538,2.63512,0.85402
0.638511,0.420618,0.564881,-2.32819,-0.489537,2.63511,0.85402
0.638506,0.420618,0.564888,-2.32818,-0.489537,2.6351,0.854021
0.638514,0.420623,0.564888,-2.32818,-0.489539,2.63509,0.854024
0.638512,0.420627,0.564889,-2.32817,-0.489538,2.63508,0.854021
0.638515,0.420629,0.564892,-2.32816,-0.489536,2.63507,0.854025
0.638519,0.42063,0.564892,-2.32815,-0.489535,2.63506,0.854018
0.63852,0.420636,0.564894,-2.32814,-0.489535,2.63504,0.854023
0.638518,0.420639,0.56489,-2.32814,-0.489535,2.63503,0.854019
0.638521,0.420639,0.564892,-2.32813,-0.489535,2.63503,0.854025
0.638521,0.42064,0.564892,-2.32812,-0.489535,2.63501,0.854019
0.638526,0.420649,0.564892,-2.32811,-0.489535,2.635,0.854022
0.638527,0.420654,0.564892,-2.3281,-0.489535,2.63498,0.85402
0.63853,0.420658,0.564895,-2.3281,-0.489534,2.63497,0.854023
0.638531,0.420659,0.564897,-2.32809,-0.489534,2.63496,0.854021
0.638532,0.420662,0.564898,-2.32808,-0.489534,2.63495,0.854021
0.638534,0.42067,0.564901,-2.32807,-0.489535,2.63494,0.854023
0.638542,0.420671,0.564901,-2.32807,-0.489533,2.63492,0.85402
0.638535,0.420675,0.564907,-2.32806,-0.489534,2.6349,0.854024
0.638547,0.420678,0.564907,-2.32805,-0.489533,2.63489,0.85402
0.638549,0.420684,0.56491,-2.32804,-0.489535,2.63488,0.854025
0.638544,0.42069,0.564913,-2.32803,-0.489536,2.63486,0.854018
0.638546,0.420694,0.564916,-2.32802,-0.489535,2.63484,0.854021
0.638549,0.420697,0.564919,-2.32802,-0.489535,2.63483,0.854021
0.638555,0.420698,0.564914,-2.32801,-0.489535,2.63481,0.854023
0.63855,0.4207,0.564914,-2.328,-0.489535,2.6348,0.854017
0.638553,0.420705,0.564923,-2.328,-0.489535,2.63478,0.854023
0.638558,0.42071,0.56492,-2.32798,-0.489535,2.63477,0.854021
0.638556,0.42071,0.564921,-2.32798,-0.489536,2.63476,0.854023
0.63856,0.420714,0.564931,-2.32797,-0.489534,2.63474,0.854023
0.638562,0.42072,0.564927,-2.32796,-0.489535,2.63473,0.854022
0.638568,0.420721,0.564929,-2.32795,-0.489536,2.63471,0.854025
0.638568,0.420726,0.56493,-2.32794,-0.489536,2.63469,0.854026
0.638564,0.420724,0.564938,-2.32793,-0.489537,2.63468,0.854023
0.638574,0.420731,0.564934,-2.32793,-0.489535,2.63467,0.85402
0.638575,0.420733,0.564937,-2.32792,-0.489535,2.63465,0.85402
0.638574,0.420739,0.564939,-2.32791,-0.489535,2.63463,0.854021
0.638582,0.42074,0.564937,-2.32791,-0.489535,2.63462,0.854022
0.638576,0.420745,0.564944,-2.3279,-0.489535,2.6346,0.854025
0.63859,0.420741,0.564946,-2.32789,-0.489535,2.63458,0.854026
0.638583,0.420749,0.564946,-2.32788,-0.489535,2.63457,0.854026
0.638594,0.420754,0.564941,-2.32788,-0.489535,2.63455,0.854025
0.638594,0.420747,0.564944,-2.32786,-0.489535,2.63454,0.854022
0.638597,0.420753,0.564949,-2.32787,-0.489533,2.63452,0.854026
0.638603,0.420754,0.56495,-2.32785,-0.489535,2.6345,0.85402
0.638604,0.420759,0.564949,-2.32784,-0.489532,2.63449,0.854024
0.638604,0.420762,0.564958,-2.32784,-0.489533,2.63447,0.854021
0.638607,0.420768,0.564955,-2.32782,-0.489536,2.63446,0.854024
0.63861,0.420771,0.564953,-2.32782,-0.489534,2.63444,0.854019
0.63861,0.420771,0.564956,-2.32781,-0.489537,2.63443,0.854025
0.638613,0.420777,0.564953,-2.3278,-0.489536,2.63441,0.854025
0.638616,0.420778,0.564957,-2.32779,-0.489537,2.63439,0.854023
0.638621,0.420778,0.564959,-2.32779,-0.489537,2.63438,0.854022
0.63862,0.420781,0.564959,-2.32778,-0.489536,2.63436,0.854023
0.63862,0.420787,0.564962,-2.32776,-0.489536,2.63435,0.854023
0.638625,0.420787,0.564962,-2.32776,-0.489537,2.63433,0.854022
0.638626,0.420791,0.564968,-2.32775,-0.489537,2.63431,0.854025
0.638631,0.420792,0.564968,-2.32774,-0.489533,2.6343,0.854022
0.638637,0.420797,0.56497,-2.32773,-0.489536,2.63429,0.854022
0.638635,0.420797,0.564969,-2.32772,-0.489536,2.63427,0.85402
0.638638,0.420801,0.564971,-2.32771,-0.489536,2.63425,0.854022
0.638641,0.420806,0.564975,-2.3277,-0.489531,2.63424,0.854019
0.638644,0.420806,0.564974,-2.32769,-0.489536,2.63422,0.854022
0.638648,0.420809,0.564975,-2.32768,-0.489535,2.6342,0.85402
0.63865,0.420813,0.564978,-2.32768,-0.489536,2.63418,0.854023
0.638656,0.420813,0.564978,-2.32767,-0.489535,2.63417,0.854022
0.638656,0.420816,0.564978,-2.32766,-0.489537,2.63415,0.85402
0.638657,0.420822,0.564978,-2.32765,-0.489535,2.63414,0.854022
0.638665,0.420819,0.564981,-2.32764,-0.489537,2.63412,0.85402
0.638671,0.42082,0.564987,-2.32763,-0.489539,2.6341,0.854023
0.63867,0.420828,0.564983,-2.32762,-0.489538,2.63408,0.85402
0.63867,0.420825,0.564984,-2.32762,-0.489537,2.63406,0.854024
0.638675,0.420831,0.56499,-2.3276,-0.489536,2.63404,0.854018
0.638682,0.420829,0.56499,-2.3276,-0.489535,2.63402,0.854024
0.63869,0.420835,0.564991,-2.32758,-0.489535,2.634,0.854022
0.638689,0.420837,0.564993,-2.32758,-0.489535,2.63399,0.854023
0.638697,0.420841,0.564996,-2.32757,-0.489536,2.63397,0.854021
0.638698,0.420844,0.564993,-2.32756,-0.489536,2.63395,0.854021
0.638699,0.420845,0.564997,-2.32754,-0.489535,2.63393,0.854023
0.638704,0.420853,0.564994,-2.32754,-0.489535,2.63391,0.854025
0.638708,0.420854,0.564995,-2.32752,-0.489535,2.63389,0.854024
0.638713,0.420857,0.564997,-2.32752,-0.489535,2.63387,0.854022
0.638715,0.420866,0.564992,-2.3275,-0.489535,2.63385,0.854022
0.638721,0.420867,0.564997,-2.32749,-0.489535,2.63383,0.854019
0.638726,0.420872,0.564995,-2.32748,-0.489535,2.63381,0.854019
0.63873,0.420878,0.564998,-2.32746,-0.489534,2.63379,0.854015
0.638734,0.420877,0.564992,-2.32745,-0.489535,2.63377,0.854022
0.638736,0.42088,0.564998,-2.32744,-0.489535,2.63375,0.854018
0.638746,0.420889,0.564998,-2.32743,-0.489535,2.63372,0.854022
0.638741,0.420893,0.564995,-2.32741,-0.489531,2.6337,0.854016
0.638749,0.420901,0.565,-2.3274,-0.489531,2.63368,0.854023
0.638756,0.420905,0.565001,-2.32739,-0.489533,2.63366,0.854019
0.638759,0.420911,0.565001,-2.32738,-0.489534,2.63363,0.854023
0.63876,0.420912,0.565001,-2.32737,-0.489533,2.63361,0.854017
0.63876,0.420918,0.565004,-2.32735,-0.489532,2.63359,0.854022
0.638769,0.420924,0.565002,-2.32734,-0.489534,2.63357,0.854021
0.63877,0.420933,0.565007,-2.32733,-0.489534,2.63355,0.854022
0.638775,0.420936,0.56501,-2.32731,-0.489535,2.63352,0.854018
0.638775,0.420943,0.565009,-2.32729,-0.489534,2.6335,0.854018
0.638779,0.420949,0.56501,-2.32728,-0.489535,2.63347,0.854023
0.63878,0.420954,0.565013,-2.32727,-0.489535,2.63345,0.854018
0.638785,0.420958,0.565019,-2.32725,-0.489535,2.63343,0.854022
0.638788,0.420961,0.565016,-2.32724,-0.489535,2.6334,0.854017
0.638789,0.420967,0.565024,-2.32723,-0.489535,2.63338,0.854019
0.638788,0.420974,0.565028,-2.32721,-0.489532,2.63335,0.854017
0.638791,0.42098,0.565025,-2.3272,-0.489531,2.63332,0.854019
0.63879,0.420989,0.565026,-2.32718,-0.489528,2.6333,0.854018
0.6388,0.420995,0.565031,-2.32717,-0.489531,2.63327,0.854019
0.6388,0.420999,0.565031,-2.32714,-0.489533,2.63324,0.854017
0.638801,0.42101,0.565031,-2.32713,-0.489531,2.63322,0.854021
0.638799,0.421011,0.56504,-2.32712,-0.489531,2.63319,0.854017
0.638804,0.42102,0.565038,-2.3271,-0.489532,2.63316,0.854016
0.638808,0.42103,0.565042,-2.32708,-0.489528,2.63313,0.854018
0.638805,0.421036,0.565051,-2.32707,-0.48953,2.6331,0.854014
0.638808,0.42104,0.565052,-2.32704,-0.489529,2.63307,0.854022
0.638812,0.421051,0.565056,-2.32702,-0.489531,2.63305,0.854017
0.638811,0.421061,0.565057,-2.32701,-0.489532,2.63302,0.854018
0.638809,0.421068,0.565064,-2.32699,-0.489528,2.63298,0.854016
0.638817,0.421077,0.565071,-2.32697,-0.489529,2.63295,0.854022
0.638817,0.421087,0.565069,-2.32695,-0.489531,2.63292,0.854016
0.638815,0.421097,0.565072,-2.32693,-0.489529,2.63288,0.854019
0.63882,0.421111,0.565081,-2.32692,-0.489526,2.63286,0.854014
0.638824,0.421117,0.565083,-2.32689,-0.489527,2.63282,0.854021
0.638824,0.421129,0.565092,-2.32687,-0.489526,2.63278,0.854017
0.638824,0.421134,0.565101,-2.32685,-0.489527,2.63275,0.854018
0.638827,0.421142,0.565101,-2.32683,-0.489531,2.63272,0.854013
0.638825,0.421156,0.565111,-2.32681,-0.489531,2.63268,0.854016
0.638827,0.421163,0.565115,-2.32678,-0.48953,2.63264,0.854019
0.638828,0.421167,0.565125,-2.32676,-0.489531,2.6326,0.854015
0.638833,0.421181,0.565128,-2.32674,-0.489529,2.63257,0.854016
0.638831,0.421191,0.565139,-2.32672,-0.489527,2.63253,0.854013
0.638829,0.421201,0.565139,-2.32669,-0.489527,2.63249,0.854017
0.638829,0.421213,0.565148,-2.32667,-0.489527,2.63245,0.854013
0.638837,0.421223,0.565151,-2.32665,-0.489527,2.63241,0.854012
0.638837,0.421233,0.565161,-2.32662,-0.489528,2.63237,0.854011
0.638832,0.421245,0.56517,-2.3266,-0.489528,2.63234,0.854015
0.638838,0.421257,0.565176,-2.32658,-0.489531,2.6323,0.854014
0.638835,0.421265,0.565187,-2.32655,-0.489529,2.63226,0.854014
0.638843,0.421277,0.56519,-2.32652,-0.489527,2.63222,0.854007
0.638841,0.421281,0.5652,-2.32651,-0.489528,2.63218,0.854009
0.638846,0.421296,0.565207,-2.32648,-0.489528,2.63214,0.854008
0.638844,0.421309,0.565216,-2.32644,-0.489528,2.6321,0.854012
0.638849,0.421315,0.565223,-2.32642,-0.489528,2.63206,0.854011
0.638847,0.421336,0.565227,-2.3264,-0.48953,2.63202,0.854011
0.638855,0.421343,0.565239,-2.32637,-0.489529,2.63198,0.854006
0.638853,0.421356,0.565242,-2.32634,-0.489527,2.63194,0.854012
0.638855,0.421368,0.565254,-2.32631,-0.48953,2.6319,0.854011
0.638861,0.421378,0.565259,-2.32628,-0.489528,2.63185,0.854008
0.638859,0.421391,0.56527,-2.32626,-0.489527,2.63181,0.854005
0.638862,0.421401,0.565275,-2.32623,-0.489526,2.63177,0.854005
0.63886,0.421416,0.565284,-2.3262,-0.489526,2.63172,0.854008
0.638866,0.421429,0.565291,-2.32617,-0.489526,2.63168,0.854004
0.638868,0.421444,0.565295,-2.32613,-0.489525,2.63164,0.854007
0.638873,0.421457,0.565306,-2.32611,-0.489526,2.63159,0.854002
0.638872,0.421469,0.565313,-2.32608,-0.489526,2.63155,0.854007
0.638877,0.421485,0.565317,-2.32604,-0.489526,2.6315,0.854004
0.638882,0.421503,0.565327,-2.32602,-0.489526,2.63146,0.854004
0.638886,0.421514,0.565333,-2.32599,-0.489526,2.63141,0.853999
0.638895,0.421527,0.565337,-2.32596,-0.489526,2.63137,0.854001
0.638894,0.42154,0.565346,-2.32593,-0.489526,2.63132,0.854001
0.638899,0.421558,0.56535,-2.3259,-0.489526,2.63128,0.854
0.638902,0.421569,0.565358,-2.32587,-0.489526,2.63123,0.854002
0.638906,0.421582,0.565362,-2.32584,-0.489527,2.63119,0.853997
0.63891,0.421603,0.565371,-2.3258,-0.489526,2.63115,0.854002
0.638915,0.421614,0.565372,-2.32578,-0.489527,2.6311,0.853994
0.638916,0.421629,0.565383,-2.32575,-0.489527,2.63106,0.853999
0.638932,0.421637,0.56539,-2.32572,-0.489528,2.63102,0.853994
0.638928,0.42166,0.565398,-2.32568,-0.489527,2.63098,0.853994
0.638934,0.421689,0.565415,-2.32563,-0.489529,2.6309,0.853987
0.638939,0.421731,0.565434,-2.32553,-0.489528,2.63077,0.853988
0.638944,0.421745,0.565444,-2.32551,-0.489528,2.63073,0.853986
0.638942,0.42176,0.565453,-2.32547,-0.489527,2.63069,0.853992
0.638945,0.421773,0.565463,-2.32544,-0.489526,2.63065,0.853986
0.638951,0.421786,0.565462,-2.32541,-0.489528,2.63061,0.853988
0.638951,0.421804,0.565476,-2.32538,-0.489528,2.63057,0.853984
0.638954,0.421823,0.565485,-2.32535,-0.489526,2.63053,0.853988
0.638957,0.421829,0.565492,-2.32532,-0.489527,2.63049,0.853984
0.638955,0.421844,0.565496,-2.32529,-0.489527,2.63046,0.853985
0.638955,0.42186,0.565504,-2.32525,-0.489525,2.63042,0.853986
0.638963,0.421873,0.565509,-2.32522,-0.489528,2.63038,0.853981
0.638961,0.421886,0.565523,-2.32519,-0.489527,2.63034,0.853983
0.638967,0.421904,0.565534,-2.32517,-0.489528,2.63031,0.853985
0.638969,0.421925,0.565534,-2.32513,-0.489528,2.63027,0.853988
0.638972,0.421939,0.565543,-2.3251,-0.489529,2.63023,0.853985
0.638973,0.421957,0.56555,-2.32507,-0.48953,2.63021,0.853984
0.638976,0.421977,0.565562,-2.32504,-0.48953,2.63017,0.853983
0.638982,0.421989,0.565566,-2.32501,-0.489529,2.63014,0.853986
0.638978,0.422008,0.565575,-2.32498,-0.489529,2.63011,0.853981
0.638987,0.422027,0.565587,-2.32495,-0.489528,2.63008,0.853984
0.638984,0.422045,0.565586,-2.32491,-0.48953,2.63006,0.853979
0.638989,0.422066,0.565599,-2.32488,-0.48953,2.63003,0.853983
0.638994,0.422078,0.565607,-2.32485,-0.48953,2.63,0.853983
0.638996,0.422099,0.565614,-2.32482,-0.489531,2.62998,0.853985
0.639001,0.422118,0.565613,-2.32479,-0.489531,2.62996,0.853983
0.639002,0.422137,0.565622,-2.32476,-0.489534,2.62994,0.85398
0.639012,0.422156,0.565628,-2.32472,-0.489532,2.62992,0.853985
0.639008,0.422178,0.56563,-2.32469,-0.489532,2.6299,0.853983
0.639014,0.422195,0.565638,-2.32466,-0.489535,2.62988,0.853988
0.639025,0.422216,0.565644,-2.32463,-0.489536,2.62986,0.853981
0.639023,0.422236,0.565648,-2.32459,-0.489536,2.62985,0.853985
0.639029,0.422258,0.565649,-2.32456,-0.489537,2.62983,0.853984
0.639032,0.422282,0.565657,-2.32452,-0.489537,2.62982,0.853985
0.639036,0.422299,0.565661,-2.3245,-0.489534,2.62981,0.853986
0.639041,0.422326,0.565666,-2.32445,-0.489536,2.6298,0.853983
0.639047,0.422347,0.565668,-2.32442,-0.489532,2.6298,0.853986
0.639051,0.422374,0.565671,-2.32439,-0.489532,2.62979,0.853983
0.639065,0.422398,0.565677,-2.32436,-0.489535,2.62978,0.85399
0.639067,0.422419,0.56568,-2.32432,-0.489536,2.62978,0.853986
0.639078,0.422443,0.565681,-2.32429,-0.489533,2.62978,0.853987
0.639076,0.422472,0.565684,-2.32424,-0.489536,2.62977,0.853981
0.639085,0.422495,0.565682,-2.32421,-0.489536,2.62977,0.853984
0.639092,0.422528,0.56569,-2.32417,-0.489537,2.62977,0.853988
0.6391,0.422552,0.565689,-2.32413,-0.489537,2.62977,0.853989
0.63911,0.422576,0.565692,-2.3241,-0.489535,2.62978,0.853989
0.639122,0.422599,0.565692,-2.32405,-0.489535,2.62978,0.853982
0.639133,0.42263,0.565689,-2.32402,-0.489535,2.62978,0.853991
0.639136,0.422661,0.565689,-2.32398,-0.489532,2.62978,0.853985
0.639143,0.422691,0.565687,-2.32393,-0.489536,2.62978,0.853992
0.639156,0.422724,0.565689,-2.32389,-0.489536,2.62979,0.853988
0.639167,0.422747,0.565692,-2.32385,-0.489536,2.62979,0.853991
0.639173,0.422786,0.565684,-2.32381,-0.489537,2.62979,0.853989
0.639185,0.422818,0.565689,-2.32377,-0.489536,2.6298,0.85399
0.639195,0.422853,0.565687,-2.32372,-0.489533,2.6298,0.853994
0.639202,0.42289,0.565689,-2.32367,-0.489534,2.6298,0.853988
0.639209,0.422923,0.565694,-2.32363,-0.489534,2.6298,0.853992
0.639221,0.42296,0.565687,-2.32357,-0.489532,2.6298,0.853986
0.639227,0.422995,0.56569,-2.32353,-0.489534,2.62981,0.853992
0.63924,0.423034,0.565692,-2.32348,-0.489535,2.62981,0.85399
0.639253,0.423074,0.565692,-2.32343,-0.489537,2.62981,0.853992
0.639265,0.423112,0.565692,-2.32338,-0.489537,2.62981,0.85399
0.639271,0.423151,0.565691,-2.32333,-0.489532,2.62981,0.853992
0.63929,0.423186,0.56569,-2.32328,-0.489534,2.62981,0.853992
0.639296,0.423232,0.565692,-2.32322,-0.489535,2.62981,0.853993
0.639309,0.423274,0.565692,-2.32316,-0.489536,2.62981,0.853991
0.639317,0.423312,0.56569,-2.32312,-0.489533,2.62981,0.853994
0.639324,0.423349,0.565692,-2.32306,-0.489536,2.62981,0.853993
0.639337,0.423393,0.565695,-2.32301,-0.489536,2.62982,0.853992
0.639343,0.423437,0.565698,-2.32295,-0.489537,2.62982,0.853991
0.639353,0.423483,0.565701,-2.3229,-0.489538,2.62982,0.853988
0.639367,0.423525,0.565695,-2.32284,-0.489534,2.62982,0.853992
0.639374,0.423569,0.565697,-2.32278,-0.489536,2.62983,0.853988
0.639384,0.423619,0.565695,-2.32273,-0.489534,2.62983,0.853993
0.639394,0.423661,0.565696,-2.32267,-0.489537,2.62983,0.853989
0.639409,0.423708,0.565701,-2.32261,-0.489538,2.62983,0.853995
0.639413,0.423756,0.565703,-2.32255,-0.489538,2.62984,0.853989
0.63942,0.423804,0.565698,-2.3225,-0.489537,2.62984,0.853991
0.639432,0.423852,0.565704,-2.32244,-0.489537,2.62985,0.85399
0.63944,0.423905,0.565702,-2.32237,-0.489537,2.62985,0.853989
0.639451,0.423948,0.565705,-2.32232,-0.489535,2.62986,0.853991
0.639461,0.424001,0.565705,-2.32225,-0.489536,2.62987,0.853986
0.639463,0.424049,0.565709,-2.32219,-0.489536,2.62987,0.85399
0.639479,0.42411,0.56571,-2.32212,-0.489537,2.62988,0.853988
0.639485,0.424159,0.565713,-2.32205,-0.489537,2.62988,0.853992
0.639492,0.424206,0.565711,-2.32198,-0.489538,2.62989,0.853988
0.639505,0.424262,0.565719,-2.32192,-0.489532,2.62991,0.853988
0.639513,0.424318,0.565714,-2.32185,-0.489534,2.62992,0.85399
0.639523,0.424369,0.565719,-2.32178,-0.489536,2.62993,0.853989
0.639532,0.424432,0.565723,-2.32171,-0.489537,2.62994,0.853995
0.639539,0.424491,0.565723,-2.32164,-0.489537,2.62995,0.853992
0.639546,0.424546,0.565723,-2.32157,-0.489536,2.62996,0.853993
0.63956,0.424607,0.565725,-2.3215,-0.489536,2.62997,0.853987
0.639569,0.42467,0.565729,-2.32143,-0.489535,2.62999,0.853991
0.639572,0.424725,0.565729,-2.32135,-0.489531,2.63001,0.85399
0.639576,0.424783,0.565738,-2.32129,-0.489534,2.63003,0.853993
0.639587,0.424852,0.565738,-2.32121,-0.489532,2.63005,0.853994
0.639599,0.424907,0.565739,-2.32114,-0.489533,2.63006,0.85399
0.639601,0.424973,0.565745,-2.32106,-0.489532,2.63009,0.853992
0.639615,0.42504,0.565748,-2.321,-0.489534,2.63011,0.853988
0.639614,0.4251,0.565749,-2.32092,-0.48953,2.63013,0.853995
0.639623,0.425163,0.565751,-2.32085,-0.489533,2.63016,0.853988
0.639635,0.425228,0.565755,-2.32078,-0.48953,2.63019,0.853991
0.639636,0.425292,0.56576,-2.32071,-0.489534,2.63022,0.853989
0.639648,0.425362,0.565765,-2.32063,-0.48953,2.63024,0.853991
0.639649,0.425428,0.565762,-2.32056,-0.489533,2.63027,0.85399
0.639656,0.425485,0.565764,-2.32049,-0.489533,2.6303,0.853992
0.639669,0.425549,0.565768,-2.32041,-0.489534,2.63034,0.853993
0.639674,0.425615,0.565777,-2.32033,-0.489535,2.63037,0.853994
0.639681,0.425684,0.565777,-2.32026,-0.489534,2.6304,0.853987
0.639687,0.425751,0.565778,-2.32018,-0.489537,2.63043,0.853988
0.639691,0.425813,0.565784,-2.32011,-0.489538,2.63047,0.853989
0.639695,0.425887,0.565782,-2.32003,-0.489539,2.6305,0.853986
0.639708,0.425949,0.565791,-2.31995,-0.489539,2.63053,0.85399
0.639715,0.426015,0.56579,-2.31987,-0.489538,2.63057,0.853991
0.639714,0.426079,0.565793,-2.3198,-0.489537,2.6306,0.853993
0.639723,0.426151,0.565796,-2.31972,-0.489536,2.63063,0.853987
0.639731,0.426221,0.5658,-2.31965,-0.489537,2.63066,0.85399
0.639735,0.426283,0.565801,-2.31957,-0.489538,2.6307,0.853991
0.639748,0.426418,0.565801,-2.31941,-0.489543,2.63075,0.853986
0.639751,0.426486,0.565806,-2.31933,-0.489541,2.63078,0.853988
0.639757,0.426556,0.565809,-2.31925,-0.48954,2.63082,0.853987
0.639765,0.426692,0.565816,-2.3191,-0.48954,2.63087,0.85399
0.639771,0.426756,0.565817,-2.31902,-0.48954,2.6309,0.853987
0.639776,0.426829,0.565824,-2.31895,-0.489539,2.63092,0.853991
0.639778,0.426896,0.565822,-2.31887,-0.489539,2.63095,0.853984
0.639781,0.426966,0.565825,-2.3188,-0.48954,2.63098,0.853991
0.639787,0.427037,0.565831,-2.31872,-0.489539,2.631,0.853988
0.639788,0.427099,0.565837,-2.31864,-0.489539,2.63103,0.85399
0.639791,0.427164,0.56583,-2.31857,-0.489539,2.63106,0.853989
0.639795,0.427236,0.565843,-2.31849,-0.48954,2.63108,0.85399
0.639798,0.427308,0.565839,-2.31842,-0.48954,2.6311,0.85399
0.639804,0.427368,0.565846,-2.31834,-0.489539,2.63113,0.853987
0.639804,0.427434,0.56585,-2.31827,-0.489539,2.63115,0.853991
0.639805,0.427499,0.565859,-2.31819,-0.489542,2.63117,0.853985
0.639813,0.427563,0.565865,-2.31812,-0.489539,2.63119,0.85399
0.639814,0.427627,0.565866,-2.31804,-0.489543,2.63121,0.853987
0.639818,0.427695,0.565872,-2.31796,-0.489541,2.63123,0.853991
0.63981,0.427764,0.565881,-2.31789,-0.489541,2.63125,0.853989
0.639816,0.427831,0.565887,-2.31782,-0.489541,2.63127,0.853988
0.639815,0.427895,0.565891,-2.31775,-0.489542,2.63128,0.853991
0.639823,0.427962,0.565895,-2.31767,-0.489541,2.6313,0.853988
0.639816,0.428024,0.565902,-2.3176,-0.489543,2.63132,0.853991
0.639816,0.428088,0.56591,-2.31753,-0.489543,2.63134,0.853988
0.639811,0.42816,0.565915,-2.31746,-0.489541,2.63135,0.85399
0.639814,0.428225,0.565918,-2.31738,-0.48954,2.63136,0.853991
0.639816,0.428294,0.565929,-2.31731,-0.48954,2.63137,0.853991
0.639814,0.428357,0.56593,-2.31724,-0.48954,2.63138,0.853991
0.639811,0.428418,0.56594,-2.31716,-0.48954,2.63139,0.853992
0.639816,0.428485,0.56594,-2.31709,-0.489543,2.6314,0.853995
0.639808,0.428547,0.565944,-2.31702,-0.489538,2.63141,0.853996
0.639816,0.428613,0.565953,-2.31696,-0.489538,2.63142,0.853992
0.639814,0.428678,0.565962,-2.31688,-0.489537,2.63143,0.853987
0.639811,0.428737,0.565965,-2.31681,-0.489537,2.63143,0.853988
0.639814,0.428795,0.565972,-2.31674,-0.489541,2.63144,0.853992
0.639806,0.428854,0.565978,-2.31667,-0.489538,2.63144,0.853992
0.639811,0.428915,0.565982,-2.3166,-0.489538,2.63145,0.85399
0.639808,0.428974,0.565996,-2.31654,-0.489537,2.63146,0.853993
0.639808,0.42903,0.565997,-2.31646,-0.489537,2.63146,0.853988
0.639813,0.429085,0.566001,-2.31639,-0.489541,2.63147,0.85399
0.63981,0.429135,0.566013,-2.31632,-0.48954,2.63147,0.853987
0.639808,0.429187,0.566017,-2.31626,-0.489538,2.63148,0.853992
0.639805,0.429242,0.566026,-2.31619,-0.489538,2.63148,0.853988
0.639804,0.429293,0.566029,-2.31613,-0.489541,2.63147,0.853994
0.639813,0.429353,0.566043,-2.31606,-0.489538,2.63147,0.85399
0.639811,0.429406,0.566048,-2.316,-0.489537,2.63148,0.853989
0.63981,0.429454,0.566054,-2.31593,-0.489536,2.63148,0.853992
0.639807,0.429511,0.566059,-2.31587,-0.489538,2.63147,0.853991
0.63981,0.429563,0.566067,-2.3158,-0.489538,2.63147,0.853993
0.639805,0.429616,0.566078,-2.31574,-0.489538,2.63147,0.853986
0.639816,0.429668,0.566078,-2.31568,-0.489537,2.63146,0.853994
0.639812,0.429716,0.566087,-2.31561,-0.489539,2.63146,0.85399
0.639811,0.429767,0.566096,-2.31555,-0.489541,2.63146,0.853995
0.639816,0.429816,0.566106,-2.31548,-0.489538,2.63146,0.853991
0.639808,0.429912,0.566122,-2.31535,-0.489537,2.63146,0.853994
0.639816,0.429962,0.56613,-2.31528,-0.489538,2.63146,0.853987
0.63981,0.430014,0.56614,-2.31522,-0.489537,2.63146,0.853992
0.63981,0.430064,0.566147,-2.31516,-0.489538,2.63146,0.853988
0.63981,0.430111,0.566146,-2.31509,-0.489538,2.63146,0.85399
0.639811,0.430165,0.566157,-2.31504,-0.489539,2.63146,0.853987
0.639811,0.430211,0.566167,-2.31498,-0.489539,2.63146,0.853992
0.639815,0.430264,0.566174,-2.31491,-0.489538,2.63146,0.853991
0.639813,0.430312,0.566177,-2.31485,-0.489539,2.63146,0.853991
0.639814,0.430361,0.566188,-2.31479,-0.489538,2.63147,0.853995
0.639811,0.430414,0.566193,-2.31473,-0.489539,2.63147,0.853989
0.63981,0.430452,0.566202,-2.31467,-0.489539,2.63147,0.853989
0.639811,0.430506,0.566212,-2.31461,-0.489541,2.63146,0.853987
0.639813,0.43055,0.566213,-2.31455,-0.48954,2.63147,0.853991
0.639818,0.430594,0.566224,-2.31449,-0.489543,2.63147,0.853988
0.639826,0.430642,0.566228,-2.31443,-0.489543,2.63147,0.853991
0.639819,0.430691,0.566232,-2.31437,-0.48954,2.63147,0.853992
0.639822,0.430736,0.56624,-2.31431,-0.48954,2.63147,0.853991
0.639826,0.430778,0.566247,-2.31425,-0.48954,2.63147,0.853993
0.639824,0.430823,0.566256,-2.31419,-0.48954,2.63147,0.853995
0.639827,0.43087,0.566257,-2.31413,-0.48954,2.63147,0.853992
0.639824,0.430918,0.566261,-2.31407,-0.489542,2.63147,0.853988
0.639827,0.430962,0.566278,-2.31401,-0.489546,2.63147,0.85399
0.63983,0.43101,0.566285,-2.31396,-0.489543,2.63147,0.853988
0.639828,0.431055,0.566291,-2.3139,-0.489544,2.63147,0.853992
0.639827,0.431108,0.566298,-2.31384,-0.489545,2.63147,0.853987
0.639828,0.431151,0.566302,-2.31377,-0.489545,2.63147,0.85399
0.639825,0.431198,0.566313,-2.31371,-0.489546,2.63146,0.853985
0.639831,0.431246,0.566322,-2.31365,-0.489544,2.63147,0.853991
0.639833,0.431291,0.56633,-2.31359,-0.489544,2.63147,0.85399
0.639841,0.431336,0.566331,-2.31352,-0.489545,2.63147,0.85399
0.639831,0.431389,0.56634,-2.31347,-0.489545,2.63146,0.853988
0.639835,0.431431,0.566344,-2.3134,-0.489547,2.63146,0.853987
0.639839,0.431481,0.566356,-2.31335,-0.489547,2.63146,0.853994
0.639838,0.431522,0.566363,-2.31329,-0.489546,2.63146,0.853989
0.63984,0.431574,0.566369,-2.31322,-0.489547,2.63146,0.853992
0.639845,0.431614,0.566376,-2.31316,-0.489548,2.63146,0.853985
0.639843,0.431664,0.566382,-2.3131,-0.489548,2.63145,0.853992
0.639849,0.431704,0.566389,-2.31304,-0.489546,2.63145,0.853991
0.639849,0.431754,0.56639,-2.31298,-0.489546,2.63145,0.853993
0.639852,0.431807,0.566398,-2.31292,-0.489546,2.63146,0.853991
0.63986,0.431855,0.566402,-2.31286,-0.489546,2.63146,0.853988
0.639858,0.431906,0.566408,-2.31281,-0.489547,2.63146,0.853989
0.639861,0.431948,0.566414,-2.31275,-0.489548,2.63146,0.853989
0.639857,0.432002,0.566417,-2.31269,-0.489548,2.63146,0.853994
0.639867,0.432045,0.566419,-2.31263,-0.489548,2.63146,0.85399
0.639865,0.432098,0.56643,-2.31257,-0.489546,2.63146,0.853992
0.639871,0.432147,0.566436,-2.31251,-0.489547,2.63146,0.853986
0.639873,0.432192,0.566439,-2.31245,-0.489546,2.63146,0.853994
0.639873,0.43224,0.56644,-2.31239,-0.489546,2.63146,0.853995
0.639885,0.432285,0.566449,-2.31233,-0.489549,2.63146,0.853993
0.639883,0.432329,0.566449,-2.31227,-0.489551,2.63146,0.853992
0.639883,0.432376,0.56646,-2.31221,-0.48955,2.63146,0.853986
0.639881,0.432419,0.566461,-2.31215,-0.48955,2.63146,0.853992
0.639882,0.432467,0.566468,-2.31209,-0.489551,2.63146,0.853991
0.639887,0.43252,0.566472,-2.31203,-0.489551,2.63147,0.853994
0.639888,0.432562,0.56648,-2.31197,-0.489549,2.63146,0.85399
0.639891,0.432613,0.566487,-2.31191,-0.489548,2.63146,0.853992
