ubt-ai3/franka-proxy/tools/visual_studio_2017/projects/record_save_xz.csv
j0,j1,j2,j3,j4,j5,j6
-1.55514,1.24753,1.25395,-2.34561,-1.56806,2.02257,1.56253
-1.55514,1.24753,1.25395,-2.34562,-1.56806,2.02257,1.56253
-1.55514,1.24753,1.25395,-2.34561,-1.56806,2.02257,1.56252
-1.55514,1.24753,1.25396,-2.34561,-1.56806,2.02257,1.56252
-1.55514,1.24753,1.25396,-2.34561,-1.56806,2.02257,1.56253
-1.55513,1.24753,1.25396,-2.34561,-1.56806,2.02257,1.56252
-1.55514,1.24752,1.25396,-2.34561,-1.56806,2.02257,1.56253
-1.55514,1.24752,1.25395,-2.34561,-1.56806,2.02257,1.56252
-1.55513,1.24752,1.25396,-2.34562,-1.56807,2.02257,1.56253
-1.55513,1.24752,1.25396,-2.34562,-1.56806,2.02257,1.56252
-1.55513,1.24751,1.25395,-2.34562,-1.56806,2.02257,1.56253
-1.55513,1.24752,1.25396,-2.34561,-1.56806,2.02257,1.56253
-1.55513,1.24751,1.25396,-2.34561,-1.56806,2.02257,1.56252
-1.55513,1.24751,1.25395,-2.34561,-1.56806,2.02257,1.56253
-1.55514,1.24751,1.25396,-2.34561,-1.56806,2.02257,1.56253
-1.55513,1.24752,1.25396,-2.34561,-1.56806,2.02257,1.56253
-1.55514,1.24752,1.25396,-2.34561,-1.56807,2.02257,1.56252
-1.55513,1.24752,1.25396,-2.34562,-1.56807,2.02257,1.56253
-1.55513,1.24751,1.25395,-2.34562,-1.56806,2.02257,1.56252
-1.55513,1.24752,1.25396,-2.34561,-1.56806,2.02257,1.56252
-1.55513,1.24752,1.25395,-2.34562,-1.56807,2.02257,1.56253
-1.55513,1.24752,1.25395,-2.34562,-1.56806,2.02257,1.56253
-1.55513,1.24752,1.25395,-2.34562,-1.56806,2.02256,1.56253
-1.55513,1.24752,1.25396,-2.34562,-1.56806,2.02257,1.56253
-1.55513,1.24752,1.25396,-2.34562,-1.56806,2.02256,1.56253
-1.55513,1.24752,1.25396,-2.34561,-1.56806,2.02256,1.56253
-1.55513,1.24752,1.25396,-2.34562,-1.56806,2.02257,1.56253
-1.55513,1.24752,1.25395,-2.34562,-1.56806,2.02257,1.56253
-1.55513,1.24751,1.25396,-2.34562,-1.56806,2.02257,1.56252
-1.55513,1.24752,1.25396,-2.34562,-1.56806,2.02256,1.56253
-1.55513,1.24751,1.25396,-2.34562,-1.56806,2.02257,1.56252
-1.55513,1.24752,1.25396,-2.34562,-1.56806,2.02257,1.56252
-1.55513,1.24752,1.25396,-2.34562,-1.56806,2.02257,1.56252
-1.55513,1.24752,1.25396,-2.34562,-1.56806,2.02256,1.56253
-1.55513,1.24751,1.25396,-2.34562,-1.56806,2.02256,1.56253
-1.55512,1.24752,1.25396,-2.34562,-1.56806,2.02256,1.56252
-1.55513,1.24752,1.25396,-2.34562,-1.56806,2.02257,1.56253
-1.55513,1.24752,1.25395,-2.34562,-1.56806,2.02257,1.56252
-1.55513,1.24751,1.25396,-2.34562,-1.56806,2.02256,1.56253
-1.55513,1.24752,1.25396,-2.34562,-1.56806,2.02257,1.56253
-1.55513,1.24752,1.25396,-2.34562,-1.56806,2.02257,1.56252
-1.55513,1.24752,1.25396,-2.34562,-1.56806,2.02257,1.56253
-1.55513,1.24752,1.25396,-2.34562,-1.56806,2.02257,1.56253
-1.55513,1.24752,1.25396,-2.34562,-1.56806,2.02256,1.56252
-1.55513,1.24752,1.25396,-2.34562,-1.56806,2.02256,1.56252
-1.55513,1.24752,1.25396,-2.34562,-1.56806,2.02257,1.56253
-1.55513,1.24753,1.25396,-2.34562,-1.56806,2.02256,1.56252
-1.55512,1.24752,1.25396,-2.34562,-1.56806,2.02257,1.56252
-1.55513,1.24753,1.25396,-2.34562,-1.56807,2.02256,1.56253
-1.55512,1.24752,1.25396,-2.34562,-1.56806,2.02256,1.56252
-1.55512,1.24752,1.25396,-2.34562,-1.56806,2.02256,1.56252
-1.55512,1.24752,1.25396,-2.34562,-1.56806,2.02257,1.56252
-1.55513,1.24752,1.25396,-2.34562,-1.56806,2.02257,1.56253
-1.55513,1.24752,1.25396,-2.34562,-1.56806,2.02257,1.56252
-1.55513,1.24752,1.25396,-2.34562,-1.56806,2.02257,1.56253
-1.55512,1.24753,1.25396,-2.34562,-1.56806,2.02257,1.56253
-1.55513,1.24752,1.25396,-2.34561,-1.56806,2.02256,1.56252
-1.55513,1.24753,1.25396,-2.34561,-1.56806,2.02256,1.56253
-1.55513,1.24753,1.25396,-2.34561,-1.56806,2.02256,1.56253
-1.55513,1.24753,1.25396,-2.34562,-1.56806,2.02256,1.56253
-1.55513,1.24752,1.25396,-2.34562,-1.56806,2.02257,1.56253
-1.55513,1.24753,1.25396,-2.34562,-1.56806,2.02256,1.56253
-1.55512,1.24752,1.25396,-2.34562,-1.56806,2.02256,1.56253
-1.55513,1.24752,1.25396,-2.34562,-1.56806,2.02256,1.56253
-1.55513,1.24753,1.25396,-2.34562,-1.56806,2.02256,1.56252
-1.55513,1.24752,1.25396,-2.34562,-1.56806,2.02256,1.56253
-1.55513,1.24753,1.25396,-2.34562,-1.56806,2.02257,1.56252
-1.55513,1.24752,1.25396,-2.34562,-1.56806,2.02257,1.56253
-1.55513,1.24752,1.25396,-2.34562,-1.56806,2.02257,1.56253
-1.55513,1.24752,1.25396,-2.34562,-1.56807,2.02257,1.56252
-1.55513,1.24752,1.25396,-2.34561,-1.56806,2.02257,1.56253
-1.55513,1.24752,1.25395,-2.34561,-1.56806,2.02257,1.56252
-1.55513,1.24752,1.25395,-2.34562,-1.56806,2.02256,1.56253
-1.55513,1.24752,1.25395,-2.34561,-1.56806,2.02257,1.56253
-1.55513,1.24752,1.25395,-2.34562,-1.56806,2.02256,1.56253
-1.55513,1.24753,1.25396,-2.34562,-1.56806,2.02257,1.56253
-1.55513,1.24752,1.25396,-2.34562,-1.56806,2.02257,1.56253
-1.55513,1.24752,1.25396,-2.34562,-1.56806,2.02257,1.56252
-1.55513,1.24753,1.25396,-2.34561,-1.56806,2.02256,1.56252
-1.55513,1.24752,1.25396,-2.34562,-1.56806,2.02256,1.56253
-1.55513,1.24752,1.25395,-2.34562,-1.56806,2.02257,1.56252
-1.55513,1.24752,1.25395,-2.34562,-1.56806,2.02257,1.56253
-1.55513,1.24752,1.25396,-2.34562,-1.56806,2.02257,1.56253
-1.55513,1.24752,1.25395,-2.34562,-1.56806,2.02257,1.56252
-1.55513,1.24752,1.25396,-2.34562,-1.56806,2.02257,1.56253
-1.55513,1.24752,1.25396,-2.34562,-1.56806,2.02256,1.56252
-1.55513,1.24752,1.25396,-2.34562,-1.56807,2.02256,1.56253
-1.55513,1.24752,1.25396,-2.34562,-1.56806,2.02256,1.56253
-1.55513,1.24752,1.25396,-2.34562,-1.56806,2.02257,1.56253
-1.55513,1.24752,1.25396,-2.34562,-1.56806,2.02256,1.56252
-1.55513,1.24752,1.25396,-2.34562,-1.56806,2.02257,1.56253
-1.55513,1.24752,1.25396,-2.34562,-1.56806,2.02257,1.56253
-1.55513,1.24752,1.25396,-2.34562,-1.56806,2.02256,1.56252
-1.55513,1.24752,1.25396,-2.34562,-1.56806,2.02257,1.56253
-1.55513,1.24752,1.25396,-2.34562,-1.56806,2.02257,1.56253
-1.55513,1.24752,1.25396,-2.34561,-1.56806,2.02257,1.56253
-1.55512,1.24752,1.25396,-2.34562,-1.56806,2.02257,1.56253
-1.55512,1.24752,1.25396,-2.34562,-1.56806,2.02257,1.56253
-1.55512,1.24753,1.25396,-2.34562,-1.56806,2.02257,1.56253
-1.55512,1.24753,1.25396,-2.34562,-1.56806,2.02257,1.56252
-1.55512,1.24752,1.25396,-2.34562,-1.56806,2.02257,1.56253
-1.55512,1.24753,1.25396,-2.34561,-1.56806,2.02257,1.56252
-1.55513,1.24752,1.25396,-2.34562,-1.56806,2.02257,1.56252
-1.55512,1.24753,1.25396,-2.34562,-1.56806,2.02256,1.56253
-1.55512,1.24753,1.25396,-2.34561,-1.56806,2.02257,1.56253
-1.55512,1.24753,1.25397,-2.34562,-1.56806,2.02257,1.56253
-1.55513,1.24752,1.25396,-2.34561,-1.56806,2.02256,1.56252
-1.55512,1.24752,1.25396,-2.34562,-1.56806,2.02257,1.56253
-1.55513,1.24753,1.25396,-2.34562,-1.56806,2.02257,1.56252
-1.55513,1.24753,1.25396,-2.34562,-1.56806,2.02257,1.56253
-1.55512,1.24753,1.25396,-2.34562,-1.56806,2.02257,1.56253
-1.55512,1.24753,1.25396,-2.34562,-1.56806,2.02257,1.56252
-1.55513,1.24753,1.25396,-2.34562,-1.56806,2.02257,1.56253
-1.55512,1.24752,1.25396,-2.34562,-1.56806,2.02257,1.56252
-1.55512,1.24753,1.25396,-2.34562,-1.56806,2.02257,1.56253
-1.55512,1.24753,1.25396,-2.34562,-1.56806,2.02257,1.56253
-1.55512,1.24752,1.25396,-2.34562,-1.56806,2.02257,1.56252
-1.55513,1.24752,1.25396,-2.34561,-1.56806,2.02257,1.56252
-1.55512,1.24752,1.25396,-2.34562,-1.56806,2.02257,1.56252
-1.55513,1.24753,1.25396,-2.34562,-1.56806,2.02257,1.56253
-1.55513,1.24752,1.25396,-2.34562,-1.56806,2.02257,1.56253
-1.55513,1.24752,1.25396,-2.34562,-1.56806,2.02257,1.56253
-1.55513,1.24752,1.25396,-2.34562,-1.56806,2.02257,1.56252
-1.55512,1.24752,1.25396,-2.34562,-1.56806,2.02257,1.56253
-1.55512,1.24752,1.25395,-2.34562,-1.56806,2.02257,1.56252
-1.55513,1.24752,1.25396,-2.34562,-1.56806,2.02257,1.56253
-1.55513,1.24752,1.25396,-2.34562,-1.56806,2.02257,1.56253
-1.55513,1.24753,1.25396,-2.34562,-1.56806,2.02257,1.56252
-1.55513,1.24752,1.25395,-2.34562,-1.56807,2.02257,1.56253
-1.55513,1.24752,1.25396,-2.34562,-1.56806,2.02257,1.56252
-1.55513,1.24752,1.25396,-2.34562,-1.56806,2.02257,1.56253
-1.55513,1.24752,1.25395,-2.34562,-1.56806,2.02256,1.56253
-1.55513,1.24753,1.25396,-2.34562,-1.56806,2.02257,1.56253
-1.55513,1.24753,1.25395,-2.34562,-1.56806,2.02257,1.56252
-1.55513,1.24753,1.25395,-2.34562,-1.56806,2.02257,1.56252
-1.55513,1.24752,1.25396,-2.34562,-1.56806,2.02257,1.56253
-1.55513,1.24752,1.25396,-2.34562,-1.56806,2.02257,1.56252
-1.55513,1.24753,1.25395,-2.34562,-1.56806,2.02257,1.56253
-1.55513,1.24752,1.25396,-2.34562,-1.56806,2.02257,1.56253
-1.55513,1.24752,1.25396,-2.34562,-1.56806,2.02257,1.56252
-1.55513,1.24752,1.25396,-2.34562,-1.56806,2.02257,1.56253
-1.55513,1.24752,1.25395,-2.34562,-1.56806,2.02257,1.56252
-1.55513,1.24752,1.25395,-2.34562,-1.56806,2.02257,1.56253
-1.55513,1.24753,1.25396,-2.34562,-1.56806,2.02257,1.56253
-1.55513,1.24752,1.25395,-2.34562,-1.56806,2.02257,1.56252
-1.55513,1.24752,1.25395,-2.34562,-1.56806,2.02257,1.56252
-1.55513,1.24753,1.25395,-2.34562,-1.56806,2.02257,1.56253
-1.55513,1.24752,1.25395,-2.34562,-1.56806,2.02257,1.56253
-1.55513,1.24752,1.25395,-2.34562,-1.56806,2.02257,1.56252
-1.55513,1.24752,1.25396,-2.34561,-1.56806,2.02257,1.56253
-1.55513,1.24752,1.25395,-2.34562,-1.56806,2.02257,1.56253
-1.55513,1.24752,1.25396,-2.34562,-1.56806,2.02257,1.56252
-1.55513,1.24752,1.25395,-2.34562,-1.56806,2.02257,1.56253
-1.55513,1.24753,1.25395,-2.34562,-1.56806,2.02257,1.56252
-1.55513,1.24753,1.25396,-2.34562,-1.56806,2.02257,1.56253
-1.55513,1.24752,1.25395,-2.34562,-1.56806,2.02257,1.56252
-1.55513,1.24752,1.25395,-2.34562,-1.56806,2.02257,1.56253
-1.55513,1.24752,1.25396,-2.34562,-1.56806,2.02257,1.56253
-1.55513,1.24752,1.25395,-2.34561,-1.56806,2.02257,1.56252
-1.55513,1.24752,1.25395,-2.34562,-1.56806,2.02257,1.56253
-1.55513,1.24752,1.25395,-2.34562,-1.56806,2.02257,1.56253
-1.55513,1.24752,1.25395,-2.34562,-1.56806,2.02257,1.56253
-1.55513,1.24752,1.25395,-2.34562,-1.56806,2.02257,1.56252
-1.55513,1.24753,1.25396,-2.34562,-1.56806,2.02257,1.56253
-1.55513,1.24752,1.25395,-2.34562,-1.56806,2.02256,1.56252
-1.55513,1.24752,1.25395,-2.34562,-1.56806,2.02257,1.56253
-1.55513,1.24752,1.25395,-2.34561,-1.56806,2.02256,1.56253
-1.55513,1.24752,1.25395,-2.34562,-1.56806,2.02257,1.56252
-1.55513,1.24752,1.25395,-2.34562,-1.56806,2.02257,1.56253
-1.55513,1.24752,1.25396,-2.34562,-1.56806,2.02256,1.56252
-1.55513,1.24752,1.25395,-2.34562,-1.56806,2.02256,1.56253
-1.55513,1.24752,1.25395,-2.34562,-1.56806,2.02257,1.56253
-1.55513,1.24753,1.25395,-2.34561,-1.56806,2.02257,1.56252
-1.55513,1.24752,1.25395,-2.34562,-1.56806,2.02257,1.56252
-1.55513,1.24752,1.25395,-2.34562,-1.56806,2.02256,1.56252
-1.55513,1.24752,1.25396,-2.34562,-1.56806,2.02257,1.56253
-1.55512,1.24752,1.25395,-2.34562,-1.56806,2.02257,1.56252
-1.55513,1.24752,1.25396,-2.34562,-1.56806,2.02257,1.56253
-1.55513,1.24752,1.25396,-2.34562,-1.56806,2.02256,1.56253
-1.55512,1.24752,1.25396,-2.34562,-1.56806,2.02256,1.56253
-1.55513,1.24752,1.25395,-2.34562,-1.56806,2.02256,1.56253
-1.55513,1.24752,1.25396,-2.34562,-1.56806,2.02257,1.56252
-1.55513,1.24753,1.25396,-2.34562,-1.56806,2.02257,1.56253
-1.55512,1.24752,1.25396,-2.34562,-1.56806,2.02257,1.56252
-1.55513,1.24752,1.25396,-2.34561,-1.56806,2.02257,1.56253
-1.55513,1.24752,1.25396,-2.34562,-1.56806,2.02257,1.56252
-1.55512,1.24752,1.25396,-2.34561,-1.56806,2.02257,1.56253
-1.55512,1.24752,1.25396,-2.34562,-1.56806,2.02257,1.56253
-1.55512,1.24753,1.25396,-2.34562,-1.56806,2.02257,1.56252
-1.55512,1.24752,1.25396,-2.34561,-1.56806,2.02257,1.56252
-1.55512,1.24752,1.25396,-2.34562,-1.56806,2.02257,1.56252
-1.55512,1.24752,1.25396,-2.34562,-1.56806,2.02257,1.56253
-1.55512,1.24752,1.25396,-2.34561,-1.56806,2.02257,1.56252
-1.55512,1.24752,1.25396,-2.34562,-1.56806,2.02257,1.56253
-1.55512,1.24752,1.25396,-2.34562,-1.56806,2.02257,1.56253
-1.55512,1.24753,1.25397,-2.34562,-1.56806,2.02257,1.56253
-1.55512,1.24752,1.25396,-2.34562,-1.56806,2.02257,1.56253
-1.55511,1.24753,1.25396,-2.34562,-1.56806,2.02257,1.56253
-1.55512,1.24753,1.25396,-2.34562,-1.56806,2.02257,1.56253
-1.55511,1.24753,1.25396,-2.34562,-1.56806,2.02257,1.56252
-1.55512,1.24753,1.25396,-2.34562,-1.56806,2.02257,1.56252
-1.55512,1.24753,1.25396,-2.34562,-1.56806,2.02257,1.56252
-1.55512,1.24753,1.25397,-2.34562,-1.56806,2.02257,1.56253
-1.55512,1.24753,1.25396,-2.34562,-1.56806,2.02257,1.56253
-1.55511,1.24753,1.25396,-2.34562,-1.56806,2.02257,1.56253
-1.55512,1.24753,1.25396,-2.34562,-1.56806,2.02257,1.56253
-1.55511,1.24753,1.25397,-2.34562,-1.56806,2.02257,1.56253
-1.55512,1.24753,1.25396,-2.34562,-1.56806,2.02257,1.56253
-1.55512,1.24753,1.25396,-2.34562,-1.56806,2.02257,1.56252
-1.55512,1.24753,1.25396,-2.34562,-1.56806,2.02257,1.56253
-1.55513,1.24753,1.25396,-2.34562,-1.56806,2.02257,1.56253
-1.55512,1.24753,1.25396,-2.34562,-1.56806,2.02257,1.56252
-1.55511,1.24753,1.25396,-2.34562,-1.56806,2.02257,1.56253
-1.55512,1.24753,1.25396,-2.34562,-1.56806,2.02257,1.56252
-1.55512,1.24753,1.25395,-2.34562,-1.56806,2.02257,1.56252
-1.55512,1.24752,1.25395,-2.34562,-1.56806,2.02257,1.56253
-1.55512,1.24753,1.25396,-2.34562,-1.56806,2.02257,1.56252
-1.55512,1.24753,1.25395,-2.34562,-1.56806,2.02257,1.56252
-1.55512,1.24753,1.25396,-2.34562,-1.56806,2.02257,1.56253
-1.55512,1.24753,1.25396,-2.34562,-1.56806,2.02257,1.56253
-1.55512,1.24753,1.25396,-2.34562,-1.56806,2.02257,1.56252
-1.55512,1.24753,1.25396,-2.34562,-1.56806,2.02257,1.56253
-1.55513,1.24753,1.25396,-2.34562,-1.56806,2.02257,1.56253
-1.55512,1.24753,1.25396,-2.34562,-1.56806,2.02257,1.56253
-1.55512,1.24752,1.25396,-2.34562,-1.56806,2.02257,1.56253
-1.55513,1.24753,1.25396,-2.34562,-1.56806,2.02257,1.56252
-1.55513,1.24752,1.25396,-2.34561,-1.56806,2.02257,1.56253
-1.55513,1.24752,1.25396,-2.34562,-1.56806,2.02257,1.56252
-1.55512,1.24753,1.25396,-2.34562,-1.56806,2.02257,1.56253
-1.55513,1.24752,1.25396,-2.34562,-1.56806,2.02257,1.56253
-1.55512,1.24752,1.25396,-2.34562,-1.56806,2.02257,1.56252
-1.55513,1.24752,1.25396,-2.34561,-1.56806,2.02257,1.56253
-1.55513,1.24752,1.25395,-2.34561,-1.56806,2.02257,1.56252
-1.55512,1.24752,1.25396,-2.34562,-1.56806,2.02257,1.56253
-1.55512,1.24752,1.25396,-2.34561,-1.56806,2.02257,1.56252
-1.55513,1.24752,1.25395,-2.34562,-1.56806,2.02257,1.56253
-1.55513,1.24751,1.25396,-2.34562,-1.56806,2.02257,1.56252
-1.55513,1.24752,1.25395,-2.34561,-1.56806,2.02257,1.56253
-1.55513,1.24752,1.25396,-2.34562,-1.56806,2.02257,1.56253
-1.55513,1.24752,1.25396,-2.34562,-1.56806,2.02257,1.56252
-1.55513,1.24751,1.25396,-2.34561,-1.56806,2.02257,1.56253
-1.55513,1.24752,1.25395,-2.34562,-1.56806,2.02257,1.56252
-1.55513,1.24752,1.25395,-2.34561,-1.56806,2.02257,1.56253
-1.55513,1.24752,1.25396,-2.34562,-1.56807,2.02257,1.56253
-1.55513,1.24752,1.25396,-2.34562,-1.56806,2.02257,1.56252
-1.55513,1.24752,1.25396,-2.34561,-1.56806,2.02257,1.56253
-1.55513,1.24752,1.25395,-2.34561,-1.56806,2.02257,1.56252
-1.55512,1.24752,1.25396,-2.34562,-1.56806,2.02257,1.56253
-1.55513,1.24753,1.25396,-2.34561,-1.56806,2.02257,1.56252
-1.55513,1.24752,1.25395,-2.34562,-1.56806,2.02257,1.56253
-1.55513,1.24753,1.25396,-2.34562,-1.56806,2.02257,1.56252
-1.55513,1.24752,1.25396,-2.34561,-1.56806,2.02257,1.56253
-1.55513,1.24752,1.25396,-2.34562,-1.56806,2.02257,1.56252
-1.55513,1.24753,1.25396,-2.34561,-1.56806,2.02257,1.56253
-1.55512,1.24753,1.25396,-2.34561,-1.56806,2.02257,1.56253
-1.55512,1.24752,1.25396,-2.34561,-1.56806,2.02257,1.56252
-1.55513,1.24753,1.25395,-2.34562,-1.56806,2.02257,1.56253
-1.55513,1.24753,1.25395,-2.34561,-1.56806,2.02257,1.56253
-1.55513,1.24752,1.25396,-2.34561,-1.56806,2.02257,1.56252
-1.55513,1.24752,1.25396,-2.34562,-1.56806,2.02257,1.56253
-1.55513,1.24753,1.25395,-2.34561,-1.56806,2.02257,1.56252
-1.55513,1.24752,1.25395,-2.34562,-1.56806,2.02257,1.56253
-1.55513,1.24753,1.25395,-2.34562,-1.56806,2.02257,1.56253
-1.55513,1.24752,1.25396,-2.34562,-1.56806,2.02257,1.56253
-1.55513,1.24752,1.25396,-2.34562,-1.56806,2.02257,1.56252
-1.55513,1.24752,1.25396,-2.34562,-1.56806,2.02257,1.56253
-1.55513,1.24752,1.25395,-2.34562,-1.56806,2.02257,1.56253
-1.55513,1.24752,1.25396,-2.34562,-1.56806,2.02257,1.56252
-1.55513,1.24753,1.25396,-2.34562,-1.56806,2.02256,1.56253
-1.55513,1.24752,1.25396,-2.34562,-1.56806,2.02257,1.56252
-1.55513,1.24753,1.25396,-2.34561,-1.56806,2.02257,1.56252
-1.55513,1.24752,1.25396,-2.34561,-1.56806,2.02257,1.56253
-1.55513,1.24752,1.25396,-2.34562,-1.56806,2.02257,1.56252
-1.55513,1.24752,1.25396,-2.34561,-1.56806,2.02257,1.56253
-1.55513,1.24752,1.25396,-2.34562,-1.56806,2.02257,1.56253
-1.55513,1.24752,1.25395,-2.34562,-1.56806,2.02257,1.56253
-1.55513,1.24752,1.25395,-2.34561,-1.56806,2.02257,1.56252
-1.55513,1.24753,1.25396,-2.34562,-1.56806,2.02257,1.56253
-1.55513,1.24752,1.25395,-2.34562,-1.56806,2.02257,1.56253
-1.55513,1.24753,1.25396,-2.34562,-1.56806,2.02257,1.56252
-1.55513,1.24752,1.25395,-2.34562,-1.56806,2.02257,1.56253
-1.55513,1.24752,1.25395,-2.34562,-1.56806,2.02257,1.56253
-1.55513,1.24752,1.25395,-2.34562,-1.56806,2.02257,1.56253
-1.55513,1.24752,1.25396,-2.34562,-1.56806,2.02257,1.56253
-1.55513,1.24752,1.25396,-2.34561,-1.56806,2.02257,1.56252
-1.55513,1.24752,1.25396,-2.34563,-1.56806,2.02257,1.56253
-1.55513,1.24753,1.25395,-2.34562,-1.56806,2.02257,1.56253
-1.55512,1.24752,1.25395,-2.34562,-1.56806,2.02257,1.56253
-1.55512,1.24752,1.25396,-2.34562,-1.56806,2.02257,1.56253
-1.55513,1.24752,1.25395,-2.34562,-1.56806,2.02257,1.56253
-1.55513,1.24752,1.25396,-2.34562,-1.56806,2.02257,1.56252
-1.55512,1.24752,1.25395,-2.34562,-1.56806,2.02256,1.56253
-1.55513,1.24752,1.25396,-2.34562,-1.56806,2.02256,1.56253
-1.55513,1.24752,1.25395,-2.34562,-1.56806,2.02256,1.56252
-1.55513,1.24752,1.25395,-2.34562,-1.56806,2.02257,1.56253
-1.55512,1.24752,1.25396,-2.34562,-1.56806,2.02257,1.56253
-1.55513,1.24752,1.25396,-2.34562,-1.56806,2.02257,1.56253
-1.55512,1.24752,1.25396,-2.34562,-1.56806,2.02257,1.56253
-1.55512,1.24753,1.25396,-2.34562,-1.56806,2.02257,1.56252
-1.55513,1.24752,1.25396,-2.34562,-1.56806,2.02257,1.56252
-1.55513,1.24752,1.25396,-2.34562,-1.56806,2.02257,1.56253
-1.55513,1.24752,1.25396,-2.34562,-1.56806,2.02257,1.56253
-1.55512,1.24752,1.25396,-2.34562,-1.56807,2.02257,1.56253
-1.55513,1.24753,1.25396,-2.34562,-1.56806,2.02257,1.56252
-1.55513,1.24752,1.25396,-2.34562,-1.56806,2.02257,1.56253
-1.55512,1.24752,1.25396,-2.34562,-1.56806,2.02257,1.56253
-1.55512,1.24753,1.25396,-2.34562,-1.56806,2.02257,1.56252
-1.55512,1.24752,1.25396,-2.34562,-1.56806,2.02257,1.56253
-1.55513,1.24753,1.25396,-2.34562,-1.56806,2.02257,1.56252
-1.55513,1.24753,1.25396,-2.34562,-1.56806,2.02256,1.56253
-1.55512,1.24752,1.25396,-2.34562,-1.56806,2.02257,1.56253
-1.55513,1.24753,1.25396,-2.34562,-1.56806,2.02257,1.56253
-1.55512,1.24752,1.25396,-2.34562,-1.56806,2.02257,1.56253
-1.55513,1.24752,1.25396,-2.34562,-1.56806,2.02256,1.56253
-1.55512,1.24752,1.25396,-2.34562,-1.56806,2.02257,1.56253
-1.55513,1.24752,1.25396,-2.34561,-1.56806,2.02257,1.56252
-1.55513,1.24752,1.25396,-2.34562,-1.56806,2.02256,1.56253
-1.55512,1.24752,1.25396,-2.34562,-1.56806,2.02257,1.56253
-1.55513,1.24752,1.25396,-2.34561,-1.56806,2.02257,1.56252
-1.55513,1.24752,1.25396,-2.34561,-1.56806,2.02257,1.56253
-1.55513,1.24752,1.25396,-2.34561,-1.56806,2.02256,1.56252
-1.55512,1.24752,1.25396,-2.34561,-1.56806,2.02256,1.56253
-1.55512,1.24752,1.25396,-2.34561,-1.56806,2.02257,1.56253
-1.55512,1.24753,1.25396,-2.34562,-1.56806,2.02256,1.56253
-1.55513,1.24752,1.25396,-2.34561,-1.56806,2.02256,1.56253
-1.55513,1.24752,1.25396,-2.34562,-1.56806,2.02256,1.56252
-1.55513,1.24752,1.25396,-2.34562,-1.56806,2.02256,1.56253
-1.55513,1.24752,1.25396,-2.34562,-1.56806,2.02256,1.56252
-1.55513,1.24752,1.25396,-2.34561,-1.56806,2.02256,1.56252
-1.55513,1.24752,1.25396,-2.34561,-1.56806,2.02256,1.56252
-1.55513,1.24752,1.25396,-2.34561,-1.56806,2.02257,1.56253
-1.55513,1.24752,1.25396,-2.34561,-1.56806,2.02257,1.56252
-1.55513,1.24752,1.25396,-2.34561,-1.56806,2.02256,1.56253
-1.55513,1.24752,1.25396,-2.34562,-1.56806,2.02256,1.56253
-1.55513,1.24752,1.25396,-2.34562,-1.56806,2.02256,1.56252
-1.55513,1.24752,1.25396,-2.34561,-1.56806,2.02257,1.56253
-1.55513,1.24752,1.25395,-2.34562,-1.56806,2.02256,1.56252
-1.55513,1.24752,1.25396,-2.34562,-1.56806,2.02256,1.56252
-1.55513,1.24752,1.25396,-2.34562,-1.56806,2.02257,1.56253
-1.55513,1.24752,1.25396,-2.34562,-1.56806,2.02256,1.56252
-1.55513,1.24752,1.25396,-2.34561,-1.56806,2.02256,1.56253
-1.55513,1.24752,1.25396,-2.34562,-1.56806,2.02256,1.56253
-1.55513,1.24752,1.25396,-2.34562,-1.56806,2.02257,1.56253
-1.55513,1.24752,1.25396,-2.34562,-1.56806,2.02257,1.56252
-1.55513,1.24752,1.25395,-2.34561,-1.56807,2.02256,1.56253
-1.55513,1.24752,1.25396,-2.34562,-1.56806,2.02256,1.56253
-1.55513,1.24752,1.25396,-2.34562,-1.56806,2.02257,1.56252
-1.55513,1.24752,1.25396,-2.34561,-1.56806,2.02257,1.56253
-1.55513,1.24752,1.25396,-2.34561,-1.56806,2.02256,1.56252
-1.55513,1.24752,1.25396,-2.34561,-1.56806,2.02256,1.56252
-1.55513,1.24752,1.25395,-2.34561,-1.56807,2.02257,1.56253
-1.55513,1.24752,1.25396,-2.34561,-1.56806,2.02257,1.56252
-1.55513,1.24752,1.25396,-2.34561,-1.56806,2.02256,1.56252
-1.55513,1.24752,1.25396,-2.34562,-1.56806,2.02257,1.56252
-1.55513,1.24753,1.25396,-2.34561,-1.56806,2.02257,1.56253
-1.55513,1.24752,1.25396,-2.34561,-1.56806,2.02257,1.56252
-1.55513,1.24753,1.25395,-2.34561,-1.56807,2.02257,1.56253
-1.55513,1.24752,1.25395,-2.34561,-1.56806,2.02257,1.56253
-1.55513,1.24752,1.25395,-2.34562,-1.56806,2.02257,1.56252
-1.55513,1.24752,1.25395,-2.34562,-1.56806,2.02257,1.56253
-1.55513,1.24752,1.25395,-2.34561,-1.56806,2.02256,1.56252
-1.55513,1.24752,1.25396,-2.34561,-1.56806,2.02257,1.56253
-1.55513,1.24752,1.25395,-2.34562,-1.56806,2.02257,1.56253
-1.55513,1.24753,1.25396,-2.34562,-1.56806,2.02257,1.56253
-1.55513,1.24752,1.25396,-2.34562,-1.56806,2.02257,1.56253
-1.55513,1.24752,1.25395,-2.34562,-1.56806,2.02257,1.56252
-1.55513,1.24753,1.25395,-2.34562,-1.56806,2.02257,1.56252
-1.55513,1.24752,1.25395,-2.34562,-1.56806,2.02257,1.56252
-1.55513,1.24752,1.25395,-2.34561,-1.56806,2.02257,1.56253
-1.55513,1.24752,1.25395,-2.34562,-1.56806,2.02257,1.56253
-1.55513,1.24752,1.25395,-2.34562,-1.56806,2.02257,1.56253
-1.55513,1.24752,1.25395,-2.34562,-1.56806,2.02257,1.56252
-1.55513,1.24753,1.25395,-2.34562,-1.56806,2.02257,1.56253
-1.55513,1.24752,1.25396,-2.34562,-1.56806,2.02257,1.56253
-1.55514,1.24752,1.25395,-2.34562,-1.56806,2.02257,1.56252
-1.55513,1.24752,1.25396,-2.34562,-1.56806,2.02256,1.56253
-1.55513,1.24752,1.25396,-2.34562,-1.56806,2.02256,1.56252
-1.55513,1.24752,1.25396,-2.34562,-1.56806,2.02257,1.56252
-1.55513,1.24752,1.25396,-2.34562,-1.56806,2.02257,1.56253
-1.55513,1.24752,1.25396,-2.34562,-1.56806,2.02256,1.56252
-1.55513,1.24752,1.25396,-2.34562,-1.56806,2.02257,1.56253
-1.55513,1.24752,1.25395,-2.34562,-1.56806,2.02257,1.56252
-1.55513,1.24753,1.25395,-2.34562,-1.56806,2.02256,1.56253
-1.55513,1.24752,1.25396,-2.34562,-1.56806,2.02256,1.56252
-1.55513,1.24752,1.25396,-2.34562,-1.56806,2.02257,1.56253
-1.55513,1.24752,1.25396,-2.34562,-1.56806,2.02256,1.56253
-1.55513,1.24752,1.25395,-2.34562,-1.56806,2.02257,1.56253
-1.55513,1.24752,1.25395,-2.34562,-1.56806,2.02257,1.56253
-1.55513,1.24751,1.25395,-2.34562,-1.56806,2.02257,1.56252
-1.55513,1.24751,1.25396,-2.34562,-1.56806,2.02257,1.56252
-1.55513,1.24752,1.25396,-2.34562,-1.56806,2.02257,1.56253
-1.55513,1.24752,1.25396,-2.34562,-1.56806,2.02256,1.56252
-1.55513,1.24752,1.25396,-2.34562,-1.56806,2.02257,1.56253
-1.55513,1.24752,1.25396,-2.34562,-1.56806,2.02256,1.56253
-1.55513,1.24752,1.25396,-2.34562,-1.56806,2.02257,1.56253
-1.55512,1.24752,1.25396,-2.34562,-1.56806,2.02257,1.56253
-1.55512,1.24752,1.25396,-2.34562,-1.56806,2.02257,1.56253
-1.55512,1.24752,1.25396,-2.34562,-1.56806,2.02256,1.56253
-1.55512,1.24752,1.25396,-2.34562,-1.56806,2.02256,1.56252
-1.55512,1.24753,1.25396,-2.34562,-1.56806,2.02256,1.56253
-1.55513,1.24752,1.25395,-2.34562,-1.56806,2.02257,1.56252
-1.55512,1.24752,1.25396,-2.34562,-1.56806,2.02257,1.56252
-1.55512,1.24752,1.25396,-2.34562,-1.56806,2.02257,1.56253
-1.55513,1.24752,1.25396,-2.34562,-1.56806,2.02257,1.56253
-1.55512,1.24752,1.25396,-2.34562,-1.56806,2.02256,1.56253
-1.55512,1.24752,1.25396,-2.34562,-1.56806,2.02256,1.56252
-1.55512,1.24752,1.25396,-2.34563,-1.56806,2.02256,1.56253
-1.55513,1.24752,1.25395,-2.34562,-1.56806,2.02257,1.56253
-1.55513,1.24753,1.25396,-2.34562,-1.56806,2.02257,1.56253
-1.55513,1.24752,1.25396,-2.34562,-1.56806,2.02256,1.56252
-1.55513,1.24752,1.25396,-2.34562,-1.56807,2.02257,1.56252
-1.55513,1.24752,1.25396,-2.34562,-1.56806,2.02257,1.56253
-1.55512,1.24752,1.25396,-2.34562,-1.56806,2.02256,1.56253
-1.55513,1.24752,1.25396,-2.34561,-1.56806,2.02256,1.56253
-1.55513,1.24752,1.25396,-2.34562,-1.56806,2.02256,1.56252
-1.55513,1.24752,1.25396,-2.34562,-1.56806,2.02256,1.56253
-1.55513,1.24752,1.25396,-2.34562,-1.56806,2.02256,1.56253
-1.55513,1.24752,1.25396,-2.34561,-1.56806,2.02256,1.56252
-1.55513,1.24752,1.25396,-2.34562,-1.56806,2.02256,1.56253
-1.55513,1.24752,1.25396,-2.34562,-1.56806,2.02256,1.56252
-1.55513,1.24752,1.25396,-2.34561,-1.56806,2.02257,1.56253
-1.55513,1.24752,1.25396,-2.34562,-1.56806,2.02256,1.56253
-1.55513,1.24752,1.25396,-2.34561,-1.56806,2.02257,1.56252
-1.55513,1.24752,1.25396,-2.34561,-1.56806,2.02257,1.56253
-1.55513,1.24752,1.25396,-2.34561,-1.56806,2.02256,1.56253
-1.55513,1.24752,1.25396,-2.34561,-1.56806,2.02257,1.56253
-1.55513,1.24752,1.25396,-2.34561,-1.56806,2.02256,1.56253
-1.55513,1.24752,1.25395,-2.34561,-1.56806,2.02257,1.56253
-1.55513,1.24752,1.25396,-2.34562,-1.56806,2.02256,1.56252
-1.55513,1.24752,1.25396,-2.34562,-1.56806,2.02256,1.56253
-1.55513,1.24752,1.25395,-2.34561,-1.56806,2.02256,1.56253
-1.55513,1.24752,1.25395,-2.34562,-1.56806,2.02256,1.56252
-1.55514,1.24752,1.25396,-2.34561,-1.56806,2.02257,1.56253
-1.55513,1.24752,1.25396,-2.34562,-1.56806,2.02257,1.56252
-1.55513,1.24752,1.25396,-2.34561,-1.56806,2.02257,1.56252
-1.55513,1.24752,1.25396,-2.34561,-1.56806,2.02257,1.56252
-1.55513,1.24752,1.25396,-2.34561,-1.56806,2.02256,1.56253
-1.55513,1.24752,1.25396,-2.34561,-1.56806,2.02257,1.56253
-1.55513,1.24752,1.25396,-2.34562,-1.56806,2.02257,1.56252
-1.55513,1.24752,1.25396,-2.34562,-1.56806,2.02257,1.56253
-1.55513,1.24752,1.25396,-2.34561,-1.56806,2.02257,1.56252
-1.55513,1.24752,1.25396,-2.34561,-1.56806,2.02257,1.56253
-1.55513,1.24752,1.25396,-2.34562,-1.56806,2.02256,1.56252
-1.55513,1.24752,1.25396,-2.34562,-1.56806,2.02256,1.56253
-1.55513,1.24752,1.25396,-2.34562,-1.56806,2.02257,1.56253
-1.55513,1.24752,1.25395,-2.34562,-1.56806,2.02257,1.56252
-1.55513,1.24752,1.25396,-2.34561,-1.56806,2.02257,1.56253
-1.55513,1.24752,1.25396,-2.34562,-1.56806,2.02257,1.56252
-1.55513,1.24752,1.25396,-2.34561,-1.56806,2.02257,1.56253
-1.55513,1.24752,1.25396,-2.34561,-1.56806,2.02256,1.56253
-1.55513,1.24752,1.25396,-2.34561,-1.56806,2.02257,1.56252
-1.55513,1.24752,1.25396,-2.34561,-1.56806,2.02257,1.56253
-1.55513,1.24753,1.25396,-2.34561,-1.56806,2.02257,1.56252
-1.55513,1.24752,1.25396,-2.34561,-1.56806,2.02256,1.56253
-1.55513,1.24752,1.25396,-2.34561,-1.56806,2.02256,1.56252
-1.55512,1.24752,1.25396,-2.34562,-1.56806,2.02256,1.56253
-1.55512,1.24752,1.25395,-2.34562,-1.56806,2.02256,1.56252
-1.55513,1.24752,1.25396,-2.34561,-1.56806,2.02256,1.56252
-1.55513,1.24752,1.25396,-2.34562,-1.56806,2.02257,1.56253
-1.55513,1.24752,1.25396,-2.34562,-1.56806,2.02256,1.56252
-1.55513,1.24752,1.25396,-2.34561,-1.56806,2.02257,1.56253
-1.55513,1.24752,1.25396,-2.34562,-1.56806,2.02257,1.56253
-1.55513,1.24752,1.25396,-2.34562,-1.56807,2.02257,1.56252
-1.55513,1.24752,1.25396,-2.34562,-1.56806,2.02257,1.56253
-1.55513,1.24752,1.25396,-2.34561,-1.56806,2.02257,1.56252
-1.55513,1.24753,1.25396,-2.34562,-1.56806,2.02257,1.56252
-1.55513,1.24752,1.25396,-2.34562,-1.56806,2.02256,1.56252
-1.55513,1.24752,1.25396,-2.34562,-1.56806,2.02256,1.56253
-1.55513,1.24752,1.25396,-2.34562,-1.56806,2.02257,1.56252
-1.55513,1.24752,1.25396,-2.34562,-1.56806,2.02256,1.56253
-1.55513,1.24752,1.25395,-2.34561,-1.56806,2.02257,1.56253
-1.55513,1.24752,1.25396,-2.34562,-1.56806,2.02256,1.56252
-1.55513,1.24752,1.25396,-2.34561,-1.56806,2.02257,1.56253
-1.55513,1.24753,1.25395,-2.34562,-1.56806,2.02256,1.56252
-1.55512,1.24752,1.25396,-2.34562,-1.56806,2.02256,1.56253
-1.55513,1.24752,1.25396,-2.34562,-1.56806,2.02257,1.56253
-1.55512,1.24752,1.25396,-2.34562,-1.56806,2.02257,1.56252
-1.55513,1.24753,1.25396,-2.34561,-1.56806,2.02257,1.56252
-1.55513,1.24752,1.25396,-2.34562,-1.56806,2.02257,1.56253
-1.55513,1.24752,1.25396,-2.34562,-1.56806,2.02257,1.56253
-1.55513,1.24753,1.25396,-2.34562,-1.56806,2.02257,1.56253
-1.55513,1.24752,1.25395,-2.34562,-1.56806,2.02257,1.56253
-1.55513,1.24753,1.25395,-2.34562,-1.56806,2.02256,1.56253
-1.55513,1.24753,1.25396,-2.34562,-1.56806,2.02257,1.56252
-1.55513,1.24752,1.25396,-2.34562,-1.56806,2.02257,1.56253
-1.55512,1.24752,1.25395,-2.34563,-1.56806,2.02257,1.56253
-1.55513,1.24752,1.25396,-2.34562,-1.56806,2.02256,1.56253
-1.55512,1.24752,1.25396,-2.34562,-1.56806,2.02256,1.56253
-1.55513,1.24752,1.25395,-2.34562,-1.56806,2.02257,1.56252
-1.55513,1.24752,1.25395,-2.34562,-1.56806,2.02257,1.56253
-1.55513,1.24752,1.25396,-2.34561,-1.56806,2.02256,1.56252
-1.55513,1.24752,1.25396,-2.34562,-1.56806,2.02257,1.56253
-1.55513,1.24752,1.25395,-2.34563,-1.56806,2.02257,1.56253
-1.55513,1.24752,1.25396,-2.34562,-1.56807,2.02256,1.56252
-1.55513,1.24752,1.25395,-2.34562,-1.56806,2.02256,1.56253
-1.55513,1.24752,1.25395,-2.34562,-1.56806,2.02256,1.56253
-1.55513,1.24752,1.25396,-2.34562,-1.56806,2.02257,1.56253
-1.55513,1.24752,1.25395,-2.34562,-1.56806,2.02256,1.56252
-1.55513,1.24752,1.25395,-2.34562,-1.56806,2.02256,1.56253
-1.55513,1.24752,1.25395,-2.34562,-1.56806,2.02256,1.56253
-1.55513,1.24752,1.25396,-2.34562,-1.56806,2.02256,1.56253
-1.55513,1.24752,1.25395,-2.34562,-1.56806,2.02256,1.56253
-1.55513,1.24752,1.25395,-2.34562,-1.56806,2.02257,1.56252
-1.55513,1.24752,1.25395,-2.34562,-1.56807,2.02256,1.56252
-1.55513,1.24752,1.25395,-2.34562,-1.56806,2.02256,1.56252
-1.55513,1.24752,1.25395,-2.34562,-1.56806,2.02256,1.56252
-1.55513,1.24752,1.25395,-2.34562,-1.56806,2.02256,1.56253
-1.55514,1.24752,1.25395,-2.34562,-1.56806,2.02256,1.56252
-1.55513,1.24752,1.25395,-2.34562,-1.56806,2.02256,1.56253
-1.55513,1.24752,1.25395,-2.34562,-1.56806,2.02256,1.56252
-1.55513,1.24752,1.25396,-2.34561,-1.56806,2.02256,1.56253
-1.55513,1.24752,1.25395,-2.34562,-1.56806,2.02256,1.56253
-1.55513,1.24752,1.25395,-2.34562,-1.56806,2.02257,1.56252
-1.55513,1.24752,1.25395,-2.34562,-1.56807,2.02257,1.56253
-1.55514,1.24751,1.25395,-2.34562,-1.56806,2.02256,1.56252
-1.55513,1.24752,1.25395,-2.34562,-1.56806,2.02256,1.56253
-1.55514,1.24751,1.25395,-2.34561,-1.56806,2.02256,1.56252
-1.55514,1.24752,1.25395,-2.34561,-1.56806,2.02256,1.56252
-1.55513,1.24752,1.25396,-2.34562,-1.56807,2.02256,1.56253
-1.55513,1.24751,1.25395,-2.34562,-1.56806,2.02256,1.56252
-1.55514,1.24751,1.25395,-2.34562,-1.56806,2.02256,1.56253
-1.55513,1.24752,1.25396,-2.34562,-1.56806,2.02256,1.56253
-1.55513,1.24752,1.25395,-2.34561,-1.56806,2.02256,1.56253
-1.55513,1.24751,1.25395,-2.34561,-1.56806,2.02256,1.56253
-1.55513,1.24752,1.25395,-2.34562,-1.56806,2.02256,1.56252
-1.55513,1.24752,1.25396,-2.34561,-1.56806,2.02257,1.56252
-1.55513,1.24752,1.25396,-2.34562,-1.56806,2.02257,1.56253
-1.55513,1.24751,1.25395,-2.34562,-1.56807,2.02256,1.56253
-1.55513,1.24752,1.25395,-2.34561,-1.56806,2.02256,1.56252
-1.55513,1.24751,1.25396,-2.34562,-1.56807,2.02256,1.56252
-1.55513,1.24752,1.25396,-2.34562,-1.56806,2.02256,1.56252
-1.55513,1.24752,1.25396,-2.34561,-1.56806,2.02256,1.56253
-1.55513,1.24752,1.25396,-2.34561,-1.56806,2.02256,1.56252
-1.55513,1.24752,1.25396,-2.34562,-1.56806,2.02256,1.56252
-1.55513,1.24752,1.25396,-2.34562,-1.56806,2.02257,1.56253
-1.55513,1.24752,1.25396,-2.34562,-1.56806,2.02257,1.56252
-1.55513,1.24753,1.25396,-2.34562,-1.56806,2.02256,1.56253
-1.55513,1.24752,1.25396,-2.34562,-1.56806,2.02256,1.56252
-1.55513,1.24752,1.25396,-2.34561,-1.56806,2.02257,1.56253
-1.55513,1.24752,1.25396,-2.34562,-1.56806,2.02256,1.56253
-1.55512,1.24752,1.25396,-2.34562,-1.56806,2.02256,1.56252
-1.55513,1.24752,1.25396,-2.34562,-1.56806,2.02256,1.56253
-1.55513,1.24752,1.25396,-2.34562,-1.56806,2.02256,1.56252
-1.55513,1.24752,1.25396,-2.34561,-1.56806,2.02256,1.56253
-1.55513,1.24752,1.25396,-2.34561,-1.56806,2.02256,1.56253
-1.55513,1.24752,1.25396,-2.34562,-1.56806,2.02256,1.56252
-1.55512,1.24752,1.25396,-2.34562,-1.56806,2.02256,1.56253
-1.55513,1.24752,1.25396,-2.34562,-1.56806,2.02256,1.56252
-1.55513,1.24752,1.25396,-2.34562,-1.56806,2.02256,1.56253
-1.55513,1.24752,1.25396,-2.34562,-1.56806,2.02257,1.56252
-1.55513,1.24752,1.25396,-2.34561,-1.56806,2.02257,1.56253
-1.55513,1.24752,1.25396,-2.34561,-1.56806,2.02257,1.56253
-1.55513,1.24752,1.25396,-2.34561,-1.56806,2.02256,1.56252
-1.55512,1.24752,1.25396,-2.34562,-1.56806,2.02256,1.56253
-1.55512,1.24752,1.25396,-2.34562,-1.56806,2.02256,1.56252
-1.55513,1.24752,1.25396,-2.34561,-1.56806,2.02256,1.56253
-1.55513,1.24753,1.25396,-2.34561,-1.56806,2.02256,1.56253
-1.55513,1.24752,1.25396,-2.34562,-1.56806,2.02256,1.56252
-1.55513,1.24752,1.25396,-2.34561,-1.56806,2.02256,1.56253
-1.55512,1.24752,1.25396,-2.34562,-1.56806,2.02256,1.56253
-1.55512,1.24753,1.25396,-2.34562,-1.56806,2.02256,1.56253
-1.55512,1.24753,1.25396,-2.34561,-1.56806,2.02256,1.56253
-1.55513,1.24752,1.25396,-2.34562,-1.56806,2.02257,1.56253
-1.55513,1.24752,1.25396,-2.34562,-1.56806,2.02257,1.56253
-1.55512,1.24752,1.25395,-2.34562,-1.56806,2.02257,1.56252
-1.55512,1.24752,1.25395,-2.34562,-1.56806,2.02256,1.56253
-1.55512,1.24753,1.25396,-2.34562,-1.56806,2.02256,1.56252
-1.55512,1.24752,1.25396,-2.34562,-1.56806,2.02256,1.56252
-1.55512,1.24752,1.25396,-2.34562,-1.56806,2.02256,1.56253
-1.55512,1.24752,1.25396,-2.34562,-1.56806,2.02256,1.56252
-1.55513,1.24752,1.25395,-2.34562,-1.56806,2.02256,1.56253
-1.55512,1.24752,1.25396,-2.34562,-1.56806,2.02256,1.56253
-1.55513,1.24752,1.25395,-2.34561,-1.56806,2.02257,1.56253
-1.55513,1.24752,1.25395,-2.34562,-1.56806,2.02256,1.56252
-1.55513,1.24752,1.25395,-2.34562,-1.56806,2.02257,1.56252
-1.55513,1.24752,1.25395,-2.34562,-1.56806,2.02257,1.56253
-1.55513,1.24752,1.25395,-2.34562,-1.56806,2.02256,1.56252
-1.55512,1.24752,1.25395,-2.34561,-1.56806,2.02257,1.56253
-1.55513,1.24752,1.25395,-2.34562,-1.56806,2.02256,1.56252
-1.55513,1.24752,1.25395,-2.34562,-1.56806,2.02256,1.56252
-1.55513,1.24752,1.25395,-2.34562,-1.56806,2.02256,1.56252
-1.55513,1.24752,1.25395,-2.34562,-1.56806,2.02257,1.56253
-1.55513,1.24752,1.25395,-2.34562,-1.56806,2.02257,1.56253
-1.55513,1.24752,1.25395,-2.34562,-1.56806,2.02256,1.56253
-1.55513,1.24753,1.25395,-2.34562,-1.56806,2.02256,1.56253
-1.55513,1.24752,1.25395,-2.34562,-1.56806,2.02256,1.56253
-1.55513,1.24752,1.25395,-2.34562,-1.56806,2.02256,1.56253
-1.55513,1.24752,1.25395,-2.34562,-1.56806,2.02256,1.56253
-1.55513,1.24752,1.25395,-2.34562,-1.56806,2.02256,1.56252
-1.55513,1.24752,1.25395,-2.34562,-1.56806,2.02257,1.56253
-1.55513,1.24753,1.25396,-2.34562,-1.56806,2.02256,1.56252
-1.55513,1.24753,1.25395,-2.34561,-1.56806,2.02256,1.56252
-1.55513,1.24752,1.25395,-2.34562,-1.56806,2.02256,1.56253
-1.55513,1.24752,1.25395,-2.34562,-1.56806,2.02256,1.56253
-1.55513,1.24752,1.25395,-2.34562,-1.56806,2.02257,1.56253
-1.55513,1.24753,1.25395,-2.34562,-1.56806,2.02256,1.56252
-1.55513,1.24753,1.25395,-2.34562,-1.56806,2.02256,1.56253
-1.55513,1.24752,1.25395,-2.34562,-1.56806,2.02256,1.56252
-1.55513,1.24753,1.25395,-2.34562,-1.56806,2.02256,1.56253
-1.55513,1.24753,1.25395,-2.34562,-1.56806,2.02256,1.56253
-1.55513,1.24753,1.25395,-2.34562,-1.56806,2.02256,1.56252
-1.55513,1.24753,1.25395,-2.34562,-1.56806,2.02256,1.56253
-1.55513,1.24753,1.25395,-2.34562,-1.56806,2.02256,1.56252
-1.55513,1.24753,1.25395,-2.34561,-1.56806,2.02256,1.56253
-1.55513,1.24753,1.25395,-2.34562,-1.56806,2.02256,1.56252
-1.55513,1.24752,1.25395,-2.34562,-1.56806,2.02257,1.56253
-1.55513,1.24752,1.25395,-2.34562,-1.56806,2.02256,1.56252
-1.55513,1.24753,1.25395,-2.34562,-1.56806,2.02256,1.56252
-1.55513,1.24753,1.25395,-2.34562,-1.56806,2.02256,1.56253
-1.55513,1.24753,1.25395,-2.34562,-1.56806,2.02257,1.56253
-1.55513,1.24753,1.25395,-2.34562,-1.56806,2.02256,1.56253
-1.55513,1.24752,1.25395,-2.34562,-1.56806,2.02257,1.56252
-1.55513,1.24752,1.25395,-2.34562,-1.56807,2.02257,1.56253
-1.55513,1.24753,1.25395,-2.34562,-1.56806,2.02257,1.56253
-1.55513,1.24753,1.25395,-2.34562,-1.56806,2.02256,1.56252
-1.55513,1.24753,1.25395,-2.34562,-1.56806,2.02256,1.56253
-1.55513,1.24753,1.25395,-2.34562,-1.56806,2.02256,1.56253
-1.55513,1.24752,1.25395,-2.34562,-1.56806,2.02257,1.56253
-1.55513,1.24753,1.25395,-2.34562,-1.56806,2.02256,1.56253
-1.55513,1.24753,1.25395,-2.34561,-1.56806,2.02257,1.56253
-1.55513,1.24752,1.25395,-2.34562,-1.56806,2.02256,1.56252
-1.55513,1.24752,1.25395,-2.34562,-1.56806,2.02256,1.56253
-1.55513,1.24752,1.25395,-2.34562,-1.56806,2.02256,1.56253
-1.55513,1.24753,1.25395,-2.34562,-1.56806,2.02256,1.56252
-1.55513,1.24752,1.25395,-2.34562,-1.56806,2.02256,1.56253
-1.55513,1.24752,1.25395,-2.34562,-1.56806,2.02257,1.56253
-1.55513,1.24752,1.25395,-2.34562,-1.56806,2.02256,1.56253
-1.55513,1.24752,1.25395,-2.34562,-1.56806,2.02256,1.56253
-1.55513,1.24751,1.25395,-2.34562,-1.56806,2.02256,1.56252
-1.55513,1.24751,1.25395,-2.34562,-1.56806,2.02256,1.56253
-1.55513,1.24751,1.25396,-2.34562,-1.56806,2.02256,1.56253
-1.55513,1.24751,1.25395,-2.34562,-1.56806,2.02256,1.56253
-1.55513,1.24751,1.25395,-2.34562,-1.56806,2.02256,1.56252
-1.55513,1.24751,1.25395,-2.34562,-1.56806,2.02256,1.56253
-1.55513,1.24751,1.25395,-2.34562,-1.56806,2.02256,1.56252
-1.55513,1.24751,1.25395,-2.34562,-1.56806,2.02256,1.56252
-1.55513,1.24751,1.25395,-2.34562,-1.56806,2.02256,1.56253
-1.55513,1.24752,1.25395,-2.34561,-1.56806,2.02256,1.56252
-1.55513,1.24752,1.25395,-2.34562,-1.56806,2.02256,1.56253
-1.55513,1.24752,1.25395,-2.34561,-1.56806,2.02256,1.56253
-1.55512,1.24752,1.25395,-2.34562,-1.56806,2.02256,1.56252
-1.55513,1.24752,1.25395,-2.34562,-1.56806,2.02256,1.56253
-1.55513,1.24752,1.25395,-2.34562,-1.56806,2.02256,1.56253
-1.55513,1.24752,1.25395,-2.34562,-1.56806,2.02256,1.56253
-1.55513,1.24751,1.25396,-2.34562,-1.56806,2.02256,1.56252
-1.55513,1.24752,1.25396,-2.34562,-1.56806,2.02257,1.56253
-1.55513,1.24752,1.25395,-2.34562,-1.56806,2.02256,1.56252
-1.55512,1.24752,1.25396,-2.34562,-1.56806,2.02257,1.56252
-1.55512,1.24752,1.25395,-2.34562,-1.56806,2.02257,1.56253
-1.55512,1.24752,1.25396,-2.34562,-1.56806,2.02256,1.56252
-1.55512,1.24752,1.25396,-2.34562,-1.56806,2.02256,1.56253
-1.55513,1.24752,1.25395,-2.34562,-1.56806,2.02256,1.56253
-1.55513,1.24752,1.25395,-2.34563,-1.56806,2.02256,1.56252
-1.55513,1.24752,1.25395,-2.34562,-1.56806,2.02256,1.56253
-1.55513,1.24752,1.25395,-2.34562,-1.56806,2.02257,1.56252
-1.55512,1.24753,1.25395,-2.34562,-1.56806,2.02256,1.56253
-1.55512,1.24753,1.25395,-2.34562,-1.56806,2.02257,1.56252
-1.55512,1.24752,1.25395,-2.34562,-1.56806,2.02256,1.56252
-1.55512,1.24752,1.25396,-2.34562,-1.56806,2.02256,1.56252
-1.55513,1.24752,1.25395,-2.34562,-1.56806,2.02256,1.56252
-1.55513,1.24753,1.25395,-2.34562,-1.56806,2.02256,1.56253
-1.55513,1.24753,1.25395,-2.34561,-1.56806,2.02256,1.56252
-1.55513,1.24752,1.25395,-2.34561,-1.56806,2.02256,1.56253
-1.55513,1.24752,1.25395,-2.34562,-1.56806,2.02257,1.56252
-1.55513,1.24753,1.25396,-2.34562,-1.56806,2.02256,1.56252
-1.55513,1.24753,1.25395,-2.34562,-1.56806,2.02256,1.56253
-1.55513,1.24752,1.25395,-2.34562,-1.56806,2.02256,1.56252
-1.55512,1.24752,1.25395,-2.34562,-1.56806,2.02256,1.56253
-1.55513,1.24752,1.25396,-2.34561,-1.56806,2.02256,1.56253
-1.55513,1.24753,1.25396,-2.34562,-1.56806,2.02256,1.56253
-1.55513,1.24753,1.25395,-2.34562,-1.56806,2.02256,1.56253
-1.55513,1.24753,1.25395,-2.34562,-1.56806,2.02256,1.56253
-1.55513,1.24752,1.25395,-2.34562,-1.56806,2.02257,1.56253
-1.55513,1.24752,1.25395,-2.34562,-1.56806,2.02256,1.56252
-1.55513,1.24752,1.25395,-2.34562,-1.56806,2.02257,1.56253
-1.55513,1.24752,1.25395,-2.34562,-1.56806,2.02256,1.56252
-1.55513,1.24752,1.25395,-2.34562,-1.56806,2.02256,1.56253
-1.55513,1.24752,1.25396,-2.34562,-1.56806,2.02257,1.56253
-1.55513,1.24752,1.25395,-2.34562,-1.56806,2.02256,1.56252
-1.55513,1.24752,1.25396,-2.34562,-1.56806,2.02256,1.56253
-1.55513,1.24752,1.25395,-2.34562,-1.56806,2.02256,1.56252
-1.55513,1.24752,1.25395,-2.34562,-1.56806,2.02256,1.56253
-1.55513,1.24752,1.25396,-2.34562,-1.56806,2.02256,1.56253
-1.55513,1.24752,1.25396,-2.34562,-1.56806,2.02256,1.56252
-1.55513,1.24752,1.25395,-2.34562,-1.56806,2.02257,1.56252
-1.55513,1.24752,1.25395,-2.34562,-1.56806,2.02256,1.56253
-1.55513,1.24752,1.25395,-2.34562,-1.56807,2.02256,1.56253
-1.55513,1.24752,1.25395,-2.34562,-1.56806,2.02256,1.56252
-1.55513,1.24752,1.25395,-2.34562,-1.56806,2.02257,1.56253
-1.55513,1.24752,1.25395,-2.34562,-1.56806,2.02257,1.56252
-1.55512,1.24753,1.25395,-2.34562,-1.56806,2.02256,1.56253
-1.55513,1.24752,1.25395,-2.34562,-1.56806,2.02257,1.56253
-1.55512,1.24752,1.25395,-2.34562,-1.56806,2.02256,1.56252
-1.55513,1.24752,1.25395,-2.34562,-1.56806,2.02257,1.56253
-1.55513,1.24752,1.25395,-2.34562,-1.56806,2.02257,1.56252
-1.55513,1.24752,1.25395,-2.34562,-1.56806,2.02256,1.56252
-1.55512,1.24753,1.25396,-2.34562,-1.56806,2.02256,1.56252
-1.55513,1.24752,1.25395,-2.34562,-1.56806,2.02256,1.56253
-1.55512,1.24752,1.25395,-2.34562,-1.56806,2.02256,1.56253
-1.55513,1.24753,1.25395,-2.34562,-1.56806,2.02256,1.56252
-1.55513,1.24752,1.25395,-2.34562,-1.56806,2.02256,1.56253
-1.55512,1.24753,1.25395,-2.34562,-1.56806,2.02256,1.56252
-1.55513,1.24752,1.25395,-2.34562,-1.56806,2.02256,1.56253
-1.55513,1.24752,1.25396,-2.34562,-1.56806,2.02256,1.56253
-1.55513,1.24752,1.25395,-2.34562,-1.56806,2.02257,1.56253
-1.55513,1.24753,1.25396,-2.34562,-1.56806,2.02257,1.56253
-1.55513,1.24752,1.25395,-2.34562,-1.56806,2.02256,1.56252
-1.55513,1.24753,1.25395,-2.34562,-1.56806,2.02257,1.56253
-1.55513,1.24753,1.25396,-2.34562,-1.56806,2.02256,1.56253
-1.55513,1.24752,1.25396,-2.34562,-1.56806,2.02257,1.56253
-1.55513,1.24752,1.25396,-2.34562,-1.56806,2.02256,1.56253
-1.55513,1.24752,1.25395,-2.34562,-1.56806,2.02256,1.56252
-1.55513,1.24753,1.25395,-2.34562,-1.56806,2.02256,1.56252
-1.55513,1.24753,1.25395,-2.34562,-1.56806,2.02256,1.56253
-1.55513,1.24752,1.25395,-2.34562,-1.56806,2.02256,1.56252
-1.55513,1.24752,1.25395,-2.34562,-1.56806,2.02256,1.56252
-1.55513,1.24752,1.25395,-2.34562,-1.56806,2.02256,1.56253
-1.55513,1.24753,1.25395,-2.34562,-1.56806,2.02256,1.56253
-1.55513,1.24753,1.25395,-2.34562,-1.56807,2.02256,1.56253
-1.55513,1.24752,1.25395,-2.34562,-1.56806,2.02256,1.56253
-1.55513,1.24752,1.25395,-2.34562,-1.56806,2.02256,1.56252
-1.55513,1.24753,1.25395,-2.34562,-1.56806,2.02256,1.56253
-1.55513,1.24753,1.25395,-2.34562,-1.56807,2.02257,1.56252
-1.55513,1.24752,1.25395,-2.34562,-1.56806,2.02256,1.56253
-1.55513,1.24753,1.25395,-2.34562,-1.56806,2.02256,1.56253
-1.55513,1.24752,1.25395,-2.34562,-1.56806,2.02256,1.56253
-1.55513,1.24753,1.25395,-2.34561,-1.56806,2.02256,1.56253
-1.55513,1.24752,1.25395,-2.34562,-1.56806,2.02256,1.56252
-1.55513,1.24752,1.25395,-2.34561,-1.56806,2.02256,1.56253
-1.55513,1.24752,1.25395,-2.34562,-1.56806,2.02256,1.56253
-1.55513,1.24752,1.25395,-2.34562,-1.56806,2.02256,1.56253
-1.55513,1.24752,1.25395,-2.34562,-1.56806,2.02256,1.56252
-1.55514,1.24753,1.25395,-2.34562,-1.56806,2.02257,1.56253
-1.55513,1.24752,1.25395,-2.34562,-1.56806,2.02256,1.56252
-1.55513,1.24752,1.25395,-2.34562,-1.56806,2.02256,1.56253
-1.55513,1.24752,1.25395,-2.34562,-1.56806,2.02256,1.56253
-1.55513,1.24752,1.25395,-2.34562,-1.56806,2.02256,1.56252
-1.55513,1.24752,1.25395,-2.34562,-1.56806,2.02256,1.56253
-1.55514,1.24752,1.25396,-2.34562,-1.56806,2.02256,1.56252
-1.55513,1.24752,1.25395,-2.34562,-1.56806,2.02256,1.56252
-1.55513,1.24753,1.25395,-2.34562,-1.56806,2.02256,1.56252
-1.55513,1.24753,1.25395,-2.34562,-1.56806,2.02256,1.56252
-1.55513,1.24753,1.25395,-2.34562,-1.56806,2.02256,1.56253
-1.55513,1.24752,1.25395,-2.34562,-1.56806,2.02257,1.56252
-1.55513,1.24752,1.25395,-2.34562,-1.56807,2.02256,1.56253
-1.55513,1.24752,1.25395,-2.34562,-1.56806,2.02256,1.56252
-1.55513,1.24752,1.25395,-2.34562,-1.56806,2.02256,1.56253
-1.55513,1.24753,1.25395,-2.34562,-1.56806,2.02257,1.56253
-1.55513,1.24752,1.25395,-2.34562,-1.56806,2.02257,1.56252
-1.55513,1.24752,1.25396,-2.34562,-1.56806,2.02256,1.56253
-1.55513,1.24752,1.25395,-2.34561,-1.56806,2.02256,1.56253
-1.55513,1.24752,1.25395,-2.34562,-1.56807,2.02256,1.56253
-1.55513,1.24752,1.25395,-2.34562,-1.56806,2.02256,1.56252
-1.55513,1.24753,1.25395,-2.34562,-1.56806,2.02256,1.56253
-1.55513,1.24752,1.25396,-2.34562,-1.56806,2.02256,1.56253
-1.55513,1.24753,1.25395,-2.34562,-1.56806,2.02256,1.56252
-1.55513,1.24752,1.25396,-2.34562,-1.56806,2.02256,1.56253
-1.55513,1.24752,1.25395,-2.34562,-1.56806,2.02257,1.56253
-1.55513,1.24752,1.25395,-2.34562,-1.56806,2.02256,1.56253
-1.55513,1.24752,1.25395,-2.34562,-1.56806,2.02256,1.56253
-1.55513,1.24752,1.25396,-2.34562,-1.56806,2.02256,1.56253
-1.55513,1.24752,1.25395,-2.34562,-1.56806,2.02257,1.56252
-1.55513,1.24753,1.25395,-2.34562,-1.56806,2.02256,1.56253
-1.55512,1.24752,1.25395,-2.34562,-1.56806,2.02256,1.56253
-1.55513,1.24753,1.25395,-2.34562,-1.56806,2.02256,1.56252
-1.55512,1.24752,1.25396,-2.34562,-1.56806,2.02256,1.56253
-1.55513,1.24752,1.25395,-2.34562,-1.56806,2.02257,1.56252
-1.55513,1.24752,1.25396,-2.34562,-1.56806,2.02256,1.56253
-1.55513,1.24752,1.25395,-2.34562,-1.56807,2.02256,1.56253
-1.55513,1.24752,1.25395,-2.34562,-1.56806,2.02256,1.56253
-1.55513,1.24752,1.25395,-2.34562,-1.56806,2.02256,1.56253
-1.55513,1.24753,1.25395,-2.34562,-1.56806,2.02257,1.56253
-1.55512,1.24753,1.25395,-2.34562,-1.56806,2.02256,1.56252
-1.55513,1.24752,1.25396,-2.34562,-1.56806,2.02256,1.56252
-1.55513,1.24752,1.25396,-2.34562,-1.56806,2.02256,1.56253
-1.55513,1.24752,1.25395,-2.34562,-1.56806,2.02256,1.56252
-1.55513,1.24752,1.25396,-2.34562,-1.56806,2.02257,1.56253
-1.55513,1.24752,1.25395,-2.34562,-1.56806,2.02257,1.56253
-1.55512,1.24752,1.25395,-2.34562,-1.56806,2.02256,1.56253
-1.55513,1.24752,1.25395,-2.34562,-1.56806,2.02256,1.56253
-1.55512,1.24752,1.25396,-2.34562,-1.56806,2.02257,1.56252
-1.55513,1.24752,1.25395,-2.34562,-1.56806,2.02256,1.56253
-1.55513,1.24753,1.25396,-2.34562,-1.56806,2.02256,1.56252
-1.55513,1.24753,1.25395,-2.34562,-1.56806,2.02257,1.56252
-1.55513,1.24752,1.25396,-2.34562,-1.56806,2.02256,1.56252
-1.55513,1.24752,1.25395,-2.34562,-1.56806,2.02256,1.56253
-1.55513,1.24752,1.25395,-2.34562,-1.56806,2.02256,1.56252
-1.55513,1.24752,1.25396,-2.34562,-1.56806,2.02256,1.56253
-1.55512,1.24752,1.25395,-2.34562,-1.56806,2.02257,1.56253
-1.55513,1.24752,1.25396,-2.34562,-1.56806,2.02256,1.56253
-1.55513,1.24752,1.25395,-2.34562,-1.56806,2.02256,1.56253
-1.55513,1.24752,1.25395,-2.34562,-1.56806,2.02256,1.56253
-1.55513,1.24752,1.25395,-2.34562,-1.56806,2.02256,1.56253
-1.55512,1.24753,1.25396,-2.34562,-1.56806,2.02257,1.56253
-1.55512,1.24752,1.25395,-2.34562,-1.56806,2.02257,1.56253
-1.55513,1.24753,1.25396,-2.34562,-1.56806,2.02256,1.56253
-1.55513,1.24752,1.25395,-2.34562,-1.56806,2.02256,1.56253
-1.55513,1.24752,1.25395,-2.34561,-1.56806,2.02256,1.56253
-1.55513,1.24752,1.25395,-2.34562,-1.56806,2.02256,1.56253
-1.55513,1.24753,1.25396,-2.34562,-1.56806,2.02256,1.56253
-1.55513,1.24752,1.25396,-2.34562,-1.56806,2.02256,1.56253
-1.55513,1.24752,1.25395,-2.34562,-1.56806,2.02257,1.56253
-1.55513,1.24752,1.25395,-2.34562,-1.56806,2.02256,1.56253
-1.55513,1.24752,1.25395,-2.34562,-1.56806,2.02256,1.56253
-1.55513,1.24752,1.25395,-2.34562,-1.56806,2.02257,1.56253
-1.55513,1.24752,1.25396,-2.34562,-1.56807,2.02256,1.56252
-1.55513,1.24752,1.25396,-2.34561,-1.56806,2.02256,1.56253
-1.55513,1.24752,1.25395,-2.34562,-1.56806,2.02257,1.56252
-1.55513,1.24752,1.25395,-2.34562,-1.56806,2.02257,1.56252
-1.55513,1.24752,1.25395,-2.34562,-1.56806,2.02256,1.56253
-1.55513,1.24752,1.25395,-2.34562,-1.56806,2.02256,1.56252
-1.55513,1.24752,1.25395,-2.34562,-1.56806,2.02256,1.56253
-1.55513,1.24752,1.25395,-2.34562,-1.56806,2.02256,1.56253
-1.55513,1.24752,1.25395,-2.34562,-1.56806,2.02256,1.56253
-1.55513,1.24752,1.25395,-2.34562,-1.56806,2.02256,1.56252
-1.55514,1.24752,1.25395,-2.34562,-1.56806,2.02256,1.56253
-1.55513,1.24752,1.25395,-2.34562,-1.56806,2.02257,1.56252
-1.55514,1.24752,1.25395,-2.34561,-1.56806,2.02256,1.56252
-1.55513,1.24752,1.25395,-2.34561,-1.56806,2.02256,1.56253
-1.55513,1.24752,1.25395,-2.34562,-1.56806,2.02257,1.56252
-1.55513,1.24752,1.25395,-2.34562,-1.56806,2.02256,1.56253
-1.55513,1.24753,1.25395,-2.34562,-1.56806,2.02257,1.56252
-1.55513,1.24752,1.25395,-2.34561,-1.56806,2.02256,1.56253
-1.55513,1.24753,1.25395,-2.34562,-1.56806,2.02256,1.56253
-1.55513,1.24752,1.25395,-2.34562,-1.56806,2.02257,1.56253
-1.55513,1.24752,1.25395,-2.34562,-1.56806,2.02257,1.56253
-1.55513,1.24752,1.25396,-2.34562,-1.56806,2.02257,1.56253
-1.55513,1.24752,1.25395,-2.34561,-1.56806,2.02257,1.56253
-1.55513,1.24752,1.25395,-2.34562,-1.56806,2.02257,1.56252
-1.55514,1.24752,1.25395,-2.34562,-1.56806,2.02256,1.56252
-1.55513,1.24752,1.25395,-2.34562,-1.56806,2.02256,1.56252
-1.55513,1.24752,1.25395,-2.34562,-1.56806,2.02256,1.56253
-1.55513,1.24752,1.25395,-2.34562,-1.56806,2.02256,1.56253
-1.55513,1.24752,1.25395,-2.34562,-1.56806,2.02257,1.56252
-1.55513,1.24752,1.25395,-2.34562,-1.56806,2.02256,1.56253
-1.55513,1.24752,1.25395,-2.34562,-1.56807,2.02256,1.56252
-1.55513,1.24752,1.25395,-2.34562,-1.56806,2.02256,1.56253
-1.55513,1.24752,1.25395,-2.34562,-1.56806,2.02256,1.56252
-1.55513,1.24752,1.25395,-2.34562,-1.56806,2.02256,1.56252
-1.55513,1.24753,1.25395,-2.34562,-1.56806,2.02256,1.56253
-1.55513,1.24752,1.25395,-2.34562,-1.56806,2.02256,1.56253
-1.55513,1.24752,1.25395,-2.34562,-1.56806,2.02257,1.56253
-1.55513,1.24752,1.25395,-2.34562,-1.56806,2.02256,1.56252
-1.55513,1.24752,1.25395,-2.34562,-1.56806,2.02256,1.56253
-1.55513,1.24752,1.25395,-2.34562,-1.56806,2.02256,1.56252
-1.55513,1.24752,1.25395,-2.34562,-1.56806,2.02257,1.56253
-1.55513,1.24752,1.25395,-2.34562,-1.56806,2.02256,1.56253
-1.55513,1.24752,1.25395,-2.34562,-1.56806,2.02256,1.56252
-1.55513,1.24752,1.25395,-2.34562,-1.56806,2.02256,1.56253
-1.55513,1.24752,1.25395,-2.34562,-1.56806,2.02256,1.56252
-1.55513,1.24752,1.25395,-2.34562,-1.56806,2.02257,1.56253
-1.55513,1.24752,1.25395,-2.34562,-1.56806,2.02257,1.56253
-1.55513,1.24752,1.25396,-2.34562,-1.56806,2.02256,1.56253
-1.55513,1.24752,1.25395,-2.34562,-1.56806,2.02256,1.56252
-1.55512,1.24753,1.25395,-2.34562,-1.56806,2.02257,1.56253
-1.55513,1.24752,1.25395,-2.34562,-1.56806,2.02256,1.56253
-1.55513,1.24752,1.25395,-2.34562,-1.56806,2.02256,1.56253
-1.55513,1.24753,1.25395,-2.34562,-1.56806,2.02256,1.56253
-1.55513,1.24752,1.25395,-2.34562,-1.56806,2.02256,1.56252
-1.55513,1.24752,1.25395,-2.34562,-1.56806,2.02257,1.56253
-1.55512,1.24752,1.25395,-2.34562,-1.56806,2.02256,1.56252
-1.55513,1.24752,1.25395,-2.34562,-1.56806,2.02257,1.56253
-1.55513,1.24752,1.25395,-2.34562,-1.56806,2.02257,1.56253
-1.55512,1.24752,1.25395,-2.34562,-1.56806,2.02256,1.56252
-1.55512,1.24752,1.25395,-2.34562,-1.56806,2.02256,1.56253
-1.55513,1.24752,1.25395,-2.34562,-1.56806,2.02257,1.56252
-1.55513,1.24752,1.25395,-2.34562,-1.56806,2.02257,1.56253
-1.55513,1.24752,1.25395,-2.34562,-1.56806,2.02257,1.56253
-1.55513,1.24753,1.25395,-2.34562,-1.56806,2.02257,1.56253
-1.55513,1.24753,1.25395,-2.34562,-1.56806,2.02256,1.56252
-1.55513,1.24752,1.25395,-2.34562,-1.56806,2.02257,1.56253
-1.55513,1.24753,1.25395,-2.34562,-1.56806,2.02257,1.56253
-1.55513,1.24752,1.25395,-2.34562,-1.56806,2.02256,1.56253
-1.55513,1.24752,1.25395,-2.34562,-1.56806,2.02257,1.56252
-1.55512,1.24752,1.25395,-2.34562,-1.56806,2.02256,1.56253
-1.55513,1.24752,1.25396,-2.34562,-1.56806,2.02256,1.56252
-1.55513,1.24752,1.25395,-2.34562,-1.56806,2.02256,1.56252
-1.55512,1.24752,1.25395,-2.34562,-1.56806,2.02257,1.56253
-1.55513,1.24752,1.25395,-2.34562,-1.56806,2.02256,1.56252
-1.55513,1.24753,1.25395,-2.34562,-1.56806,2.02256,1.56253
-1.55513,1.24753,1.25395,-2.34562,-1.56806,2.02256,1.56252
-1.55513,1.24753,1.25395,-2.34562,-1.56806,2.02256,1.56252
-1.55513,1.24752,1.25395,-2.34562,-1.56806,2.02256,1.56252
-1.55513,1.24753,1.25395,-2.34562,-1.56806,2.02257,1.56253
-1.55513,1.24752,1.25395,-2.34562,-1.56806,2.02256,1.56253
-1.55513,1.24752,1.25395,-2.34562,-1.56806,2.02257,1.56252
-1.55513,1.24752,1.25395,-2.34562,-1.56806,2.02256,1.56253
-1.55513,1.24752,1.25395,-2.34562,-1.56806,2.02257,1.56252
-1.55512,1.24752,1.25395,-2.34562,-1.56806,2.02256,1.56253
-1.55513,1.24752,1.25395,-2.34562,-1.56806,2.02256,1.56253
-1.55513,1.24752,1.25396,-2.34562,-1.56806,2.02257,1.56253
-1.55513,1.24752,1.25395,-2.34562,-1.56806,2.02256,1.56253
-1.55513,1.24752,1.25395,-2.34562,-1.56806,2.02257,1.56252
-1.55513,1.24752,1.25395,-2.34562,-1.56806,2.02256,1.56253
-1.55513,1.24752,1.25395,-2.34562,-1.56806,2.02257,1.56252
-1.55513,1.24752,1.25395,-2.34562,-1.56806,2.02256,1.56253
-1.55513,1.24752,1.25396,-2.34562,-1.56806,2.02256,1.56253
-1.55513,1.24753,1.25395,-2.34562,-1.56806,2.02257,1.56253
-1.55513,1.24752,1.25395,-2.34562,-1.56806,2.02256,1.56253
-1.55513,1.24752,1.25396,-2.34562,-1.56806,2.02257,1.56253
-1.55513,1.24752,1.25395,-2.34562,-1.56806,2.02257,1.56253
-1.55513,1.24752,1.25396,-2.34562,-1.56806,2.02256,1.56252
-1.55513,1.24752,1.25395,-2.34562,-1.56806,2.02257,1.56253
-1.55513,1.24752,1.25396,-2.34562,-1.56806,2.02257,1.56253
-1.55513,1.24752,1.25395,-2.34562,-1.56806,2.02257,1.56252
-1.55513,1.24752,1.25395,-2.34562,-1.56806,2.02256,1.56253
-1.55513,1.24752,1.25395,-2.34562,-1.56806,2.02257,1.56252
-1.55513,1.24752,1.25395,-2.34562,-1.56806,2.02257,1.56253
-1.55513,1.24752,1.25395,-2.34562,-1.56806,2.02256,1.56252
-1.55513,1.24752,1.25395,-2.34562,-1.56806,2.02256,1.56252
-1.55513,1.24752,1.25396,-2.34562,-1.56806,2.02257,1.56252
-1.55513,1.24752,1.25395,-2.34561,-1.56806,2.02256,1.56253
-1.55513,1.24752,1.25395,-2.34562,-1.56806,2.02256,1.56253
-1.55512,1.24752,1.25395,-2.34562,-1.56806,2.02257,1.56252
-1.55513,1.24752,1.25395,-2.34562,-1.56806,2.02257,1.56253
-1.55513,1.24752,1.25395,-2.34562,-1.56806,2.02257,1.56252
-1.55513,1.24752,1.25395,-2.34562,-1.56806,2.02256,1.56253
-1.55513,1.24752,1.25395,-2.34562,-1.56806,2.02256,1.56253
-1.55513,1.24752,1.25395,-2.34562,-1.56806,2.02256,1.56253
-1.55513,1.24752,1.25395,-2.34562,-1.56806,2.02256,1.56253
-1.55512,1.24753,1.25395,-2.34562,-1.56806,2.02256,1.56252
-1.55513,1.24752,1.25395,-2.34562,-1.56807,2.02257,1.56253
-1.55513,1.24752,1.25395,-2.34562,-1.56806,2.02256,1.56252
-1.55513,1.24752,1.25395,-2.34561,-1.56806,2.02256,1.56252
-1.55513,1.24752,1.25395,-2.34562,-1.56806,2.02256,1.56252
-1.55513,1.24752,1.25395,-2.34562,-1.56806,2.02257,1.56253
-1.55513,1.24752,1.25395,-2.34562,-1.56806,2.02256,1.56253
-1.55513,1.24752,1.25395,-2.34562,-1.56806,2.02257,1.56253
-1.55513,1.24753,1.25395,-2.34562,-1.56806,2.02257,1.56253
-1.55513,1.24752,1.25395,-2.34562,-1.56806,2.02257,1.56252
-1.55513,1.24753,1.25395,-2.34562,-1.56806,2.02256,1.56253
-1.55513,1.24752,1.25395,-2.34562,-1.56806,2.02256,1.56252
-1.55513,1.24753,1.25395,-2.34562,-1.56806,2.02257,1.56252
-1.55513,1.24752,1.25395,-2.34562,-1.56806,2.02256,1.56253
-1.55513,1.24752,1.25396,-2.34561,-1.56806,2.02256,1.56252
-1.55513,1.24753,1.25395,-2.34562,-1.56806,2.02256,1.56253
-1.55513,1.24752,1.25395,-2.34562,-1.56806,2.02256,1.56253
-1.55513,1.24752,1.25395,-2.34562,-1.56806,2.02256,1.56253
-1.55513,1.24752,1.25395,-2.34561,-1.56806,2.02257,1.56253
-1.55512,1.24752,1.25395,-2.34562,-1.56806,2.02256,1.56253
-1.55513,1.24753,1.25395,-2.34562,-1.56806,2.02256,1.56253
-1.55513,1.24753,1.25395,-2.34562,-1.56806,2.02257,1.56253
-1.55513,1.24753,1.25395,-2.34562,-1.56806,2.02256,1.56252
-1.55513,1.24752,1.25395,-2.34562,-1.56806,2.02256,1.56253
-1.55513,1.24753,1.25396,-2.34562,-1.56806,2.02256,1.56253
-1.55513,1.24752,1.25395,-2.34562,-1.56806,2.02256,1.56252
-1.55513,1.24752,1.25395,-2.34562,-1.56807,2.02257,1.56252
-1.55513,1.24752,1.25395,-2.34562,-1.56806,2.02256,1.56252
-1.55512,1.24752,1.25395,-2.34562,-1.56806,2.02256,1.56252
-1.55513,1.24752,1.25395,-2.34562,-1.56806,2.02257,1.56253
-1.55513,1.24753,1.25395,-2.34562,-1.56806,2.02257,1.56252
-1.55513,1.24752,1.25395,-2.34562,-1.56806,2.02256,1.56253
-1.55513,1.24752,1.25395,-2.34562,-1.56806,2.02257,1.56252
-1.55513,1.24753,1.25395,-2.34562,-1.56806,2.02256,1.56253
-1.55513,1.24752,1.25395,-2.34562,-1.56806,2.02257,1.56252
-1.55513,1.24752,1.25395,-2.34562,-1.56806,2.02257,1.56253
-1.55513,1.24752,1.25395,-2.34562,-1.56806,2.02256,1.56253
-1.55513,1.24753,1.25395,-2.34562,-1.56806,2.02257,1.56252
-1.55513,1.24752,1.25395,-2.34562,-1.56806,2.02256,1.56253
-1.55513,1.24752,1.25395,-2.34562,-1.56806,2.02256,1.56252
-1.55513,1.24752,1.25395,-2.34562,-1.56806,2.02256,1.56252
-1.55513,1.24753,1.25395,-2.34562,-1.56806,2.02256,1.56252
-1.55513,1.24752,1.25395,-2.34562,-1.56806,2.02257,1.56253
-1.55513,1.24752,1.25395,-2.34562,-1.56806,2.02256,1.56253
-1.55513,1.24752,1.25395,-2.34562,-1.56806,2.02256,1.56252
-1.55513,1.24752,1.25395,-2.34562,-1.56806,2.02256,1.56252
-1.55513,1.24753,1.25395,-2.34562,-1.56806,2.02256,1.56252
-1.55513,1.24752,1.25395,-2.34562,-1.56806,2.02256,1.56252
-1.55513,1.24753,1.25395,-2.34562,-1.56806,2.02257,1.56252
-1.55513,1.24752,1.25395,-2.34562,-1.56806,2.02257,1.56253
-1.55513,1.24753,1.25395,-2.34562,-1.56806,2.02257,1.56252
-1.55513,1.24752,1.25395,-2.34562,-1.56806,2.02257,1.56253
-1.55513,1.24753,1.25395,-2.34562,-1.56806,2.02257,1.56253
-1.55513,1.24752,1.25396,-2.34562,-1.56806,2.02257,1.56252
-1.55513,1.24752,1.25395,-2.34562,-1.56806,2.02256,1.56253
-1.55513,1.24752,1.25395,-2.34562,-1.56806,2.02257,1.56252
-1.55513,1.24752,1.25395,-2.34562,-1.56806,2.02257,1.56253
-1.55513,1.24752,1.25395,-2.34562,-1.56806,2.02257,1.56253
-1.55513,1.24752,1.25395,-2.34562,-1.56806,2.02256,1.56253
-1.55513,1.24752,1.25395,-2.34562,-1.56806,2.02257,1.56253
-1.55513,1.24752,1.25395,-2.34562,-1.56806,2.02256,1.56253
-1.55513,1.24752,1.25395,-2.34562,-1.56806,2.02257,1.56252
-1.55513,1.24753,1.25395,-2.34562,-1.56806,2.02257,1.56252
-1.55513,1.24753,1.25395,-2.34562,-1.56806,2.02257,1.56252
-1.55513,1.24752,1.25395,-2.34562,-1.56806,2.02257,1.56252
-1.55513,1.24752,1.25395,-2.34562,-1.56806,2.02256,1.56253
-1.55513,1.24752,1.25395,-2.34562,-1.56806,2.02257,1.56253
-1.55513,1.24752,1.25395,-2.34562,-1.56806,2.02256,1.56253
-1.55513,1.24752,1.25395,-2.34561,-1.56806,2.02257,1.56253
-1.55513,1.24752,1.25395,-2.34562,-1.56806,2.02256,1.56253
-1.55513,1.24752,1.25395,-2.34562,-1.56806,2.02256,1.56253
-1.55513,1.24752,1.25395,-2.34562,-1.56806,2.02256,1.56252
-1.55513,1.24752,1.25395,-2.34562,-1.56806,2.02257,1.56253
-1.55513,1.24752,1.25395,-2.34561,-1.56806,2.02257,1.56252
-1.55513,1.24753,1.25395,-2.34562,-1.56806,2.02257,1.56253
-1.55513,1.24752,1.25395,-2.34562,-1.56806,2.02256,1.56253
-1.55513,1.24752,1.25395,-2.34562,-1.56806,2.02256,1.56253
-1.55513,1.24752,1.25395,-2.34562,-1.56806,2.02256,1.56253
-1.55513,1.24752,1.25395,-2.34562,-1.56806,2.02256,1.56252
-1.55513,1.24752,1.25396,-2.34562,-1.56806,2.02257,1.56253
-1.55513,1.24752,1.25395,-2.34562,-1.56806,2.02256,1.56252
-1.55513,1.24752,1.25395,-2.34562,-1.56806,2.02256,1.56253
-1.55513,1.24752,1.25396,-2.34562,-1.56806,2.02256,1.56253
-1.55513,1.24753,1.25395,-2.34562,-1.56806,2.02257,1.56252
-1.55513,1.24752,1.25395,-2.34562,-1.56806,2.02256,1.56253
-1.55513,1.24752,1.25396,-2.34562,-1.56806,2.02256,1.56252
-1.55513,1.24752,1.25395,-2.34562,-1.56806,2.02256,1.56253
-1.55513,1.24752,1.25395,-2.34562,-1.56806,2.02256,1.56253
-1.55513,1.24752,1.25395,-2.34562,-1.56807,2.02256,1.56253
-1.55513,1.24752,1.25396,-2.34562,-1.56806,2.02256,1.56253
-1.55513,1.24752,1.25395,-2.34562,-1.56806,2.02256,1.56253
-1.55513,1.24752,1.25395,-2.34562,-1.56806,2.02256,1.56252
-1.55512,1.24751,1.25395,-2.34562,-1.56806,2.02256,1.56253
-1.55513,1.24752,1.25396,-2.34561,-1.56806,2.02256,1.56253
-1.55513,1.24752,1.25395,-2.34562,-1.56806,2.02257,1.56253
-1.55513,1.24752,1.25395,-2.34562,-1.56806,2.02257,1.56253
-1.55513,1.24752,1.25396,-2.34562,-1.56806,2.02256,1.56252
-1.55513,1.24752,1.25395,-2.34562,-1.56806,2.02257,1.56253
-1.55513,1.24752,1.25396,-2.34562,-1.56806,2.02257,1.56252
-1.55513,1.24752,1.25395,-2.34562,-1.56806,2.02257,1.56253
-1.55512,1.24752,1.25396,-2.34562,-1.56806,2.02257,1.56252
-1.55513,1.24753,1.25395,-2.34562,-1.56806,2.02256,1.56253
-1.55513,1.24752,1.25395,-2.34562,-1.56806,2.02256,1.56252
-1.55513,1.24752,1.25395,-2.34562,-1.56806,2.02256,1.56252
-1.55513,1.24752,1.25395,-2.34562,-1.56806,2.02256,1.56253
-1.55513,1.24752,1.25396,-2.34562,-1.56806,2.02257,1.56253
-1.55513,1.24753,1.25395,-2.34562,-1.56806,2.02256,1.56253
-1.55513,1.24752,1.25395,-2.34562,-1.56806,2.02256,1.56253
-1.55513,1.24753,1.25395,-2.34562,-1.56806,2.02256,1.56253
-1.55513,1.24752,1.25396,-2.34562,-1.56806,2.02256,1.56252
-1.55512,1.24752,1.25395,-2.34562,-1.56806,2.02257,1.56253
-1.55513,1.24752,1.25396,-2.34562,-1.56806,2.02256,1.56253
-1.55513,1.24752,1.25396,-2.34562,-1.56806,2.02256,1.56253
-1.55513,1.24752,1.25396,-2.34562,-1.56806,2.02257,1.56253
-1.55512,1.24753,1.25395,-2.34562,-1.56806,2.02256,1.56252
-1.55513,1.24752,1.25396,-2.34562,-1.56806,2.02257,1.56253
-1.55513,1.24753,1.25396,-2.34561,-1.56806,2.02257,1.56252
-1.55513,1.24753,1.25396,-2.34562,-1.56806,2.02257,1.56252
-1.55513,1.24753,1.25396,-2.34562,-1.56806,2.02257,1.56252
-1.55513,1.24752,1.25395,-2.34562,-1.56806,2.02257,1.56252
-1.55513,1.24752,1.25395,-2.34562,-1.56806,2.02257,1.56252
-1.55513,1.24752,1.25395,-2.34562,-1.56806,2.02256,1.56252
-1.55513,1.24752,1.25395,-2.34562,-1.56806,2.02257,1.56253
-1.55513,1.24752,1.25395,-2.34562,-1.56806,2.02257,1.56252
-1.55513,1.24753,1.25396,-2.34562,-1.56807,2.02256,1.56253
-1.55513,1.24752,1.25395,-2.34562,-1.56806,2.02256,1.56252
-1.55513,1.24752,1.25395,-2.34562,-1.56806,2.02256,1.56253
-1.55513,1.24752,1.25395,-2.34562,-1.56806,2.02256,1.56252
-1.55512,1.24753,1.25395,-2.34562,-1.56807,2.02256,1.56253
-1.55513,1.24752,1.25395,-2.34562,-1.56806,2.02256,1.56253
-1.55513,1.24753,1.25395,-2.34562,-1.56806,2.02256,1.56252
-1.55513,1.24753,1.25395,-2.34562,-1.56806,2.02256,1.56253
-1.55513,1.24752,1.25395,-2.34562,-1.56806,2.02257,1.56252
-1.55513,1.24752,1.25395,-2.34562,-1.56806,2.02257,1.56253
-1.55513,1.24752,1.25395,-2.34562,-1.56806,2.02257,1.56252
-1.55513,1.24752,1.25395,-2.34562,-1.56806,2.02256,1.56253
-1.55512,1.24752,1.25395,-2.34562,-1.56806,2.02256,1.56252
-1.55513,1.24752,1.25395,-2.34561,-1.56806,2.02256,1.56253
-1.55513,1.24752,1.25395,-2.34562,-1.56806,2.02257,1.56253
-1.55513,1.24753,1.25395,-2.34562,-1.56806,2.02256,1.56253
-1.55513,1.24752,1.25395,-2.34562,-1.56806,2.02257,1.56253
-1.55513,1.24752,1.25395,-2.34562,-1.56806,2.02256,1.56252
-1.55513,1.24752,1.25395,-2.34562,-1.56806,2.02257,1.56253
-1.55513,1.24752,1.25395,-2.34562,-1.56806,2.02256,1.56252
-1.55513,1.24752,1.25395,-2.34562,-1.56806,2.02256,1.56253
-1.55513,1.24752,1.25395,-2.34562,-1.56806,2.02256,1.56253
-1.55513,1.24753,1.25395,-2.34562,-1.56806,2.02256,1.56253
-1.55513,1.24752,1.25395,-2.34562,-1.56806,2.02257,1.56253
-1.55513,1.24752,1.25395,-2.34562,-1.56806,2.02256,1.56252
-1.55513,1.24752,1.25395,-2.34562,-1.56806,2.02256,1.56253
-1.55513,1.24752,1.25395,-2.34562,-1.56806,2.02256,1.56252
-1.55513,1.24752,1.25395,-2.34562,-1.56806,2.02256,1.56252
-1.55513,1.24752,1.25395,-2.34562,-1.56806,2.02256,1.56252
-1.55513,1.24752,1.25396,-2.34562,-1.56807,2.02256,1.56253
-1.55513,1.24753,1.25395,-2.34562,-1.56806,2.02256,1.56252
-1.55513,1.24752,1.25395,-2.34562,-1.56806,2.02256,1.56253
-1.55513,1.24752,1.25395,-2.34561,-1.56806,2.02257,1.56252
-1.55513,1.24752,1.25396,-2.34561,-1.56807,2.02257,1.56252
-1.55513,1.24752,1.25396,-2.34562,-1.56806,2.02256,1.56253
-1.55513,1.24753,1.25395,-2.34562,-1.56806,2.02256,1.56252
-1.55513,1.24752,1.25395,-2.34562,-1.56806,2.02257,1.56253
-1.55513,1.24752,1.25395,-2.34562,-1.56806,2.02257,1.56253
-1.55513,1.24752,1.25395,-2.34562,-1.56806,2.02257,1.56253
-1.55513,1.24752,1.25395,-2.34562,-1.56806,2.02256,1.56253
-1.55513,1.24753,1.25395,-2.34562,-1.56806,2.02256,1.56253
-1.55513,1.24752,1.25396,-2.34562,-1.56806,2.02256,1.56253
-1.55513,1.24753,1.25395,-2.34562,-1.56806,2.02257,1.56253
-1.55513,1.24752,1.25396,-2.34562,-1.56806,2.02256,1.56252
-1.55513,1.24753,1.25395,-2.34562,-1.56806,2.02256,1.56253
-1.55513,1.24752,1.25395,-2.34562,-1.56806,2.02257,1.56252
-1.55513,1.24752,1.25395,-2.34562,-1.56806,2.02257,1.56252
-1.55513,1.24753,1.25395,-2.34562,-1.56806,2.02256,1.56252
-1.55513,1.24753,1.25395,-2.34562,-1.56806,2.02257,1.56253
-1.55513,1.24752,1.25395,-2.34562,-1.56806,2.02257,1.56253
-1.55513,1.24752,1.25395,-2.34562,-1.56806,2.02256,1.56252
-1.55513,1.24753,1.25396,-2.34562,-1.56806,2.02256,1.56253
-1.55513,1.24752,1.25395,-2.34562,-1.56806,2.02256,1.56253
-1.55513,1.24753,1.25395,-2.34562,-1.56806,2.02257,1.56253
-1.55513,1.24752,1.25396,-2.34563,-1.56806,2.02257,1.56252
-1.55513,1.24752,1.25395,-2.34563,-1.56806,2.02256,1.56253
-1.55513,1.24752,1.25395,-2.34563,-1.56806,2.02256,1.56252
-1.55513,1.24752,1.25395,-2.34563,-1.56806,2.02256,1.56253
-1.55513,1.24752,1.25395,-2.34563,-1.56806,2.02256,1.56252
-1.55513,1.24752,1.25395,-2.34563,-1.56806,2.02256,1.56253
-1.55513,1.24753,1.25395,-2.34563,-1.56807,2.02257,1.56253
-1.55513,1.24753,1.25395,-2.34564,-1.56806,2.02256,1.56252
-1.55513,1.24752,1.25395,-2.34564,-1.56807,2.02256,1.56253
-1.55513,1.24753,1.25395,-2.34564,-1.56807,2.02256,1.56252
-1.55513,1.24752,1.25395,-2.34564,-1.56807,2.02256,1.56253
-1.55512,1.24752,1.25395,-2.34565,-1.56807,2.02256,1.56253
-1.55512,1.24753,1.25395,-2.34564,-1.56807,2.02256,1.56253
-1.55513,1.24752,1.25395,-2.34564,-1.56807,2.02256,1.56252
-1.55512,1.24752,1.25395,-2.34565,-1.56807,2.02256,1.56253
-1.55513,1.24753,1.25395,-2.34564,-1.56806,2.02256,1.56253
-1.55512,1.24752,1.25395,-2.34564,-1.56806,2.02256,1.56253
-1.55512,1.24753,1.25395,-2.34564,-1.56806,2.02256,1.56253
-1.55513,1.24752,1.25395,-2.34564,-1.56806,2.02256,1.56252
-1.55512,1.24752,1.25395,-2.34564,-1.56806,2.02256,1.56253
-1.55512,1.24752,1.25395,-2.34564,-1.56806,2.02256,1.56253
-1.55513,1.24752,1.25395,-2.34565,-1.56806,2.02256,1.56253
-1.55512,1.24753,1.25395,-2.34565,-1.56806,2.02256,1.56253
-1.55512,1.24752,1.25395,-2.34564,-1.56806,2.02256,1.56253
-1.55512,1.24752,1.25395,-2.34565,-1.56806,2.02256,1.56253
-1.55512,1.24752,1.25395,-2.34564,-1.56806,2.02256,1.56253
-1.55511,1.24752,1.25395,-2.34565,-1.56806,2.02256,1.56253
-1.55512,1.24752,1.25395,-2.34564,-1.56806,2.02256,1.56253
-1.55512,1.24752,1.25395,-2.34564,-1.56806,2.02256,1.56253
-1.55513,1.24753,1.25396,-2.34564,-1.56806,2.02256,1.56253
-1.55511,1.24752,1.25395,-2.34564,-1.56806,2.02256,1.56253
-1.55511,1.24752,1.25395,-2.34564,-1.56806,2.02256,1.56252
-1.55511,1.24752,1.25395,-2.34564,-1.56806,2.02256,1.56253
-1.55511,1.24753,1.25396,-2.34564,-1.56806,2.02256,1.56253
-1.55511,1.24753,1.25395,-2.34564,-1.56806,2.02256,1.56253
-1.55511,1.24752,1.25396,-2.34564,-1.56806,2.02256,1.56253
-1.55511,1.24752,1.25395,-2.34564,-1.56806,2.02256,1.56252
-1.55511,1.24752,1.25395,-2.34563,-1.56806,2.02256,1.56253
-1.55511,1.24753,1.25395,-2.34563,-1.56806,2.02256,1.56252
-1.55511,1.24752,1.25395,-2.34563,-1.56806,2.02257,1.56253
-1.55511,1.24753,1.25395,-2.34563,-1.56805,2.02257,1.56253
-1.55511,1.24753,1.25395,-2.34563,-1.56805,2.02257,1.56253
-1.55511,1.24753,1.25396,-2.34563,-1.56805,2.02257,1.56253
-1.55511,1.24752,1.25395,-2.34563,-1.56805,2.02257,1.56253
-1.55512,1.24754,1.25395,-2.34563,-1.56805,2.02257,1.56253
-1.55512,1.24753,1.25395,-2.34563,-1.56805,2.02257,1.56253
-1.55512,1.24753,1.25395,-2.34563,-1.56805,2.02257,1.56253
-1.55512,1.24754,1.25395,-2.34564,-1.56805,2.02257,1.56253
-1.55512,1.24754,1.25395,-2.34564,-1.56806,2.02257,1.56253
-1.55512,1.24754,1.25395,-2.34564,-1.56806,2.02257,1.56253
-1.55512,1.24753,1.25395,-2.34564,-1.56806,2.02257,1.56253
-1.55512,1.24754,1.25395,-2.34565,-1.56806,2.02257,1.56253
-1.55512,1.24754,1.25395,-2.34565,-1.56806,2.02257,1.56253
-1.55512,1.24754,1.25394,-2.34565,-1.56806,2.02257,1.56253
-1.55512,1.24754,1.25394,-2.34565,-1.56806,2.02257,1.56253
-1.55512,1.24753,1.25395,-2.34565,-1.56806,2.02257,1.56253
-1.55512,1.24754,1.25395,-2.34565,-1.56806,2.02256,1.56253
-1.55512,1.24754,1.25394,-2.34565,-1.56806,2.02257,1.56254
-1.55511,1.24754,1.25395,-2.34565,-1.56806,2.02257,1.56254
-1.55512,1.24754,1.25394,-2.34565,-1.56806,2.02257,1.56253
-1.55512,1.24754,1.25395,-2.34565,-1.56806,2.02257,1.56253
-1.55512,1.24754,1.25394,-2.34565,-1.56806,2.02257,1.56254
-1.55511,1.24754,1.25394,-2.34565,-1.56806,2.02257,1.56253
-1.55512,1.24754,1.25394,-2.34565,-1.56806,2.02257,1.56254
-1.55512,1.24754,1.25394,-2.34565,-1.56806,2.02257,1.56253
-1.55512,1.24754,1.25395,-2.34565,-1.56806,2.02257,1.56253
-1.55512,1.24754,1.25394,-2.34565,-1.56806,2.02257,1.56253
-1.55512,1.24754,1.25394,-2.34566,-1.56806,2.02257,1.56253
-1.55512,1.24754,1.25395,-2.34565,-1.56806,2.02257,1.56253
-1.55511,1.24754,1.25394,-2.34565,-1.56806,2.02257,1.56253
-1.55512,1.24754,1.25394,-2.34566,-1.56806,2.02257,1.56253
-1.55512,1.24753,1.25395,-2.34566,-1.56806,2.02257,1.56253
-1.55512,1.24754,1.25394,-2.34566,-1.56806,2.02257,1.56253
-1.55511,1.24754,1.25395,-2.34566,-1.56806,2.02257,1.56253
-1.55511,1.24753,1.25395,-2.34566,-1.56806,2.02257,1.56253
-1.55511,1.24754,1.25394,-2.34566,-1.56806,2.02257,1.56253
-1.55511,1.24753,1.25395,-2.34566,-1.56806,2.02257,1.56253
-1.55511,1.24753,1.25395,-2.34565,-1.56806,2.02257,1.56253
-1.55511,1.24754,1.25395,-2.34566,-1.56806,2.02257,1.56253
-1.55511,1.24753,1.25395,-2.34565,-1.56806,2.02257,1.56253
-1.55511,1.24753,1.25395,-2.34566,-1.56806,2.02257,1.56253
-1.55511,1.24753,1.25395,-2.34566,-1.56806,2.02257,1.56253
-1.55511,1.24753,1.25395,-2.34565,-1.56806,2.02257,1.56253
-1.55511,1.24753,1.25395,-2.34565,-1.56806,2.02257,1.56253
-1.5551,1.24754,1.25395,-2.34565,-1.56806,2.02257,1.56253
-1.55511,1.24753,1.25395,-2.34565,-1.56806,2.02257,1.56253
-1.5551,1.24754,1.25395,-2.34565,-1.56806,2.02257,1.56253
-1.5551,1.24753,1.25395,-2.34565,-1.56806,2.02257,1.56252
-1.5551,1.24754,1.25395,-2.34564,-1.56806,2.02257,1.56253
-1.5551,1.24753,1.25395,-2.34564,-1.56806,2.02257,1.56253
-1.5551,1.24753,1.25395,-2.34565,-1.56806,2.02257,1.56253
-1.5551,1.24753,1.25395,-2.34564,-1.56806,2.02258,1.56253
-1.5551,1.24753,1.25395,-2.34564,-1.56806,2.02257,1.56253
-1.55511,1.24754,1.25395,-2.34564,-1.56806,2.02257,1.56253
-1.55511,1.24753,1.25395,-2.34564,-1.56806,2.02258,1.56253
-1.5551,1.24753,1.25395,-2.34564,-1.56806,2.02258,1.56253
-1.5551,1.24754,1.25395,-2.34564,-1.56806,2.02258,1.56253
-1.55511,1.24754,1.25396,-2.34564,-1.56806,2.02258,1.56253
-1.55511,1.24754,1.25395,-2.34564,-1.56806,2.02258,1.56253
-1.55511,1.24753,1.25395,-2.34563,-1.56806,2.02258,1.56253
-1.5551,1.24753,1.25395,-2.34564,-1.56806,2.02258,1.56253
-1.55511,1.24754,1.25395,-2.34563,-1.56805,2.02258,1.56253
-1.55511,1.24754,1.25395,-2.34563,-1.56805,2.02258,1.56253
-1.55511,1.24754,1.25395,-2.34563,-1.56806,2.02258,1.56253
-1.55511,1.24754,1.25395,-2.34563,-1.56806,2.02258,1.56253
-1.55511,1.24754,1.25395,-2.34563,-1.56806,2.02258,1.56253
-1.55511,1.24754,1.25394,-2.34563,-1.56806,2.02258,1.56253
-1.55511,1.24754,1.25395,-2.34563,-1.56805,2.02258,1.56253
-1.55511,1.24754,1.25396,-2.34563,-1.56805,2.02258,1.56253
-1.55511,1.24754,1.25395,-2.34562,-1.56806,2.02258,1.56253
-1.55512,1.24754,1.25395,-2.34563,-1.56806,2.02258,1.56253
-1.55512,1.24754,1.25395,-2.34562,-1.56806,2.02258,1.56253
-1.55511,1.24754,1.25395,-2.34563,-1.56806,2.02258,1.56253
-1.55511,1.24754,1.25395,-2.34562,-1.56806,2.02258,1.56253
-1.55512,1.24754,1.25396,-2.34563,-1.56806,2.02258,1.56253
-1.55512,1.24754,1.25395,-2.34562,-1.56805,2.02258,1.56253
-1.55512,1.24754,1.25395,-2.34563,-1.56806,2.02258,1.56253
-1.55512,1.24754,1.25395,-2.34562,-1.56805,2.02258,1.56253
-1.55512,1.24754,1.25396,-2.34562,-1.56806,2.02258,1.56253
-1.55512,1.24754,1.25395,-2.34562,-1.56806,2.02258,1.56253
-1.55512,1.24754,1.25395,-2.34562,-1.56806,2.02258,1.56253
-1.55512,1.24754,1.25395,-2.34562,-1.56806,2.02258,1.56253
-1.55512,1.24754,1.25395,-2.34562,-1.56806,2.02258,1.56253
-1.55512,1.24754,1.25395,-2.34562,-1.56806,2.02258,1.56252
-1.55511,1.24754,1.25395,-2.34562,-1.56806,2.02258,1.56253
-1.55512,1.24754,1.25395,-2.34562,-1.56806,2.02258,1.56253
-1.55512,1.24754,1.25395,-2.34562,-1.56806,2.02258,1.56253
-1.55512,1.24754,1.25395,-2.34562,-1.56806,2.02258,1.56253
-1.55512,1.24754,1.25395,-2.34562,-1.56806,2.02258,1.56253
-1.55512,1.24754,1.25395,-2.34562,-1.56806,2.02258,1.56253
-1.55512,1.24754,1.25395,-2.34562,-1.56806,2.02258,1.56253
-1.55512,1.24754,1.25395,-2.34562,-1.56806,2.02258,1.56253
-1.55512,1.24754,1.25395,-2.34562,-1.56806,2.02258,1.56253
-1.55512,1.24754,1.25395,-2.34561,-1.56806,2.02258,1.56253
-1.55512,1.24754,1.25395,-2.34561,-1.56806,2.02258,1.56252
-1.55511,1.24754,1.25395,-2.34562,-1.56806,2.02258,1.56253
-1.55512,1.24754,1.25395,-2.34562,-1.56806,2.02258,1.56253
-1.55512,1.24754,1.25395,-2.34562,-1.56806,2.02258,1.56253
-1.55512,1.24754,1.25396,-2.34562,-1.56806,2.02258,1.56253
-1.55511,1.24753,1.25395,-2.34561,-1.56806,2.02258,1.56253
-1.55512,1.24754,1.25396,-2.34561,-1.56806,2.02258,1.56253
-1.55511,1.24754,1.25396,-2.34562,-1.56806,2.02258,1.56252
-1.55512,1.24753,1.25396,-2.34562,-1.56806,2.02258,1.56253
-1.55512,1.24753,1.25395,-2.34562,-1.56805,2.02258,1.56252
-1.55512,1.24753,1.25395,-2.34561,-1.56806,2.02258,1.56253
-1.55511,1.24754,1.25395,-2.34562,-1.56805,2.02258,1.56253
-1.55512,1.24753,1.25396,-2.34562,-1.56805,2.02258,1.56252
-1.55512,1.24753,1.25395,-2.34562,-1.56806,2.02258,1.56253
-1.55512,1.24753,1.25395,-2.34561,-1.56806,2.02258,1.56253
-1.55512,1.24753,1.25396,-2.34561,-1.56806,2.02258,1.56253
-1.55512,1.24753,1.25395,-2.34562,-1.56806,2.02258,1.56252
-1.55512,1.24754,1.25395,-2.34561,-1.56806,2.02258,1.56252
-1.55512,1.24754,1.25395,-2.34562,-1.56806,2.02258,1.56252
-1.55512,1.24753,1.25395,-2.34562,-1.56806,2.02258,1.56253
-1.55512,1.24754,1.25395,-2.34562,-1.56806,2.02258,1.56253
-1.55512,1.24754,1.25395,-2.34562,-1.56806,2.02258,1.56253
-1.55512,1.24754,1.25395,-2.34562,-1.56806,2.02258,1.56253
-1.55512,1.24754,1.25395,-2.34562,-1.56806,2.02258,1.56253
-1.55513,1.24754,1.25395,-2.34562,-1.56806,2.02258,1.56253
-1.55512,1.24754,1.25395,-2.34562,-1.56806,2.02258,1.56253
-1.55513,1.24754,1.25395,-2.34561,-1.56806,2.02258,1.56253
-1.55512,1.24754,1.25395,-2.34561,-1.56806,2.02258,1.56253
-1.55512,1.24753,1.25395,-2.34561,-1.56806,2.02258,1.56252
-1.55513,1.24753,1.25395,-2.34561,-1.56806,2.02258,1.56253
-1.55513,1.24753,1.25395,-2.34561,-1.56806,2.02258,1.56253
-1.55512,1.24754,1.25396,-2.34561,-1.56806,2.02258,1.56253
-1.55512,1.24754,1.25395,-2.34561,-1.56806,2.02258,1.56252
-1.55513,1.24754,1.25395,-2.34561,-1.56806,2.02258,1.56253
-1.55512,1.24754,1.25395,-2.34561,-1.56806,2.02258,1.56252
-1.55513,1.24754,1.25395,-2.34561,-1.56806,2.02258,1.56252
-1.55513,1.24753,1.25395,-2.3456,-1.56806,2.02258,1.56253
-1.55513,1.24753,1.25395,-2.3456,-1.56806,2.02258,1.56252
-1.55513,1.24754,1.25396,-2.3456,-1.56806,2.02258,1.56253
-1.55513,1.24754,1.25395,-2.3456,-1.56806,2.02258,1.56253
-1.55513,1.24753,1.25395,-2.3456,-1.56806,2.02258,1.56253
-1.55513,1.24753,1.25395,-2.3456,-1.56806,2.02258,1.56253
-1.55513,1.24754,1.25395,-2.3456,-1.56806,2.02258,1.56253
-1.55513,1.24754,1.25395,-2.3456,-1.56806,2.02258,1.56253
-1.55513,1.24754,1.25395,-2.3456,-1.56806,2.02258,1.56253
-1.55513,1.24754,1.25395,-2.3456,-1.56806,2.02258,1.56253
-1.55513,1.24754,1.25395,-2.3456,-1.56806,2.02258,1.56252
-1.55514,1.24754,1.25395,-2.3456,-1.56806,2.02258,1.56253
-1.55514,1.24753,1.25395,-2.3456,-1.56806,2.02258,1.56253
-1.55513,1.24753,1.25395,-2.3456,-1.56806,2.02258,1.56253
-1.55513,1.24754,1.25395,-2.3456,-1.56806,2.02258,1.56253
-1.55514,1.24753,1.25395,-2.34559,-1.56806,2.02258,1.56252
-1.55514,1.24754,1.25395,-2.3456,-1.56806,2.02258,1.56253
-1.55514,1.24754,1.25395,-2.3456,-1.56806,2.02258,1.56253
-1.55514,1.24753,1.25396,-2.3456,-1.56806,2.02258,1.56253
-1.55514,1.24753,1.25395,-2.3456,-1.56806,2.02258,1.56253
-1.55513,1.24753,1.25395,-2.34559,-1.56806,2.02258,1.56253
-1.55513,1.24752,1.25395,-2.3456,-1.56806,2.02258,1.56253
-1.55513,1.24753,1.25395,-2.3456,-1.56806,2.02258,1.56253
-1.55513,1.24753,1.25395,-2.3456,-1.56806,2.02258,1.56253
-1.55513,1.24753,1.25395,-2.3456,-1.56806,2.02258,1.56253
-1.55513,1.24753,1.25395,-2.3456,-1.56806,2.02258,1.56253
-1.55513,1.24754,1.25395,-2.3456,-1.56806,2.02258,1.56252
-1.55514,1.24753,1.25394,-2.3456,-1.56806,2.02258,1.56253
-1.55514,1.24754,1.25395,-2.3456,-1.56806,2.02258,1.56252
-1.55513,1.24754,1.25395,-2.3456,-1.56806,2.02258,1.56253
-1.55513,1.24753,1.25395,-2.3456,-1.56806,2.02258,1.56253
-1.55513,1.24753,1.25395,-2.34561,-1.56806,2.02258,1.56253
-1.55514,1.24753,1.25395,-2.34561,-1.56806,2.02258,1.56253
-1.55514,1.24753,1.25395,-2.3456,-1.56806,2.02258,1.56252
-1.55514,1.24753,1.25394,-2.34561,-1.56806,2.02258,1.56253
-1.55514,1.24753,1.25394,-2.34561,-1.56806,2.02258,1.56253
-1.55515,1.24753,1.25394,-2.34561,-1.56806,2.02258,1.56253
-1.55514,1.24754,1.25395,-2.34561,-1.56806,2.02258,1.56252
-1.55514,1.24753,1.25394,-2.34561,-1.56806,2.02258,1.56253
-1.55515,1.24753,1.25394,-2.34561,-1.56806,2.02258,1.56253
-1.55515,1.24754,1.25394,-2.34561,-1.56806,2.02258,1.56253
-1.55514,1.24753,1.25394,-2.34561,-1.56805,2.02258,1.56253
-1.55515,1.24753,1.25394,-2.34561,-1.56806,2.02258,1.56253
-1.55514,1.24753,1.25394,-2.34561,-1.56805,2.02258,1.56253
-1.55515,1.24753,1.25394,-2.34561,-1.56805,2.02258,1.56253
-1.55515,1.24753,1.25393,-2.34561,-1.56805,2.02258,1.56253
-1.55515,1.24753,1.25394,-2.34561,-1.56805,2.02258,1.56253
-1.55515,1.24753,1.25393,-2.34561,-1.56805,2.02258,1.56252
-1.55516,1.24753,1.25393,-2.3456,-1.56805,2.02258,1.56253
-1.55516,1.24753,1.25394,-2.34561,-1.56805,2.02258,1.56253
-1.55516,1.24753,1.25393,-2.3456,-1.56804,2.02258,1.56253
-1.55516,1.24754,1.25393,-2.3456,-1.56805,2.02258,1.56253
-1.55516,1.24754,1.25393,-2.34561,-1.56805,2.02258,1.56253
-1.55516,1.24754,1.25393,-2.3456,-1.56805,2.02258,1.56253
-1.55516,1.24754,1.25393,-2.3456,-1.56805,2.02258,1.56253
-1.55517,1.24754,1.25393,-2.34561,-1.56804,2.02258,1.56253
-1.55516,1.24754,1.25393,-2.3456,-1.56804,2.02258,1.56253
-1.55517,1.24753,1.25393,-2.3456,-1.56804,2.02258,1.56253
-1.55517,1.24753,1.25393,-2.3456,-1.56804,2.02258,1.56253
-1.55517,1.24753,1.25393,-2.3456,-1.56804,2.02258,1.56253
-1.55517,1.24754,1.25393,-2.3456,-1.56804,2.02258,1.56252
-1.55518,1.24753,1.25392,-2.3456,-1.56804,2.02258,1.56253
-1.55518,1.24754,1.25393,-2.34561,-1.56804,2.02258,1.56253
-1.55518,1.24753,1.25393,-2.3456,-1.56804,2.02258,1.56253
-1.55518,1.24754,1.25393,-2.3456,-1.56804,2.02258,1.56253
-1.55518,1.24754,1.25392,-2.34561,-1.56804,2.02258,1.56253
-1.55518,1.24754,1.25393,-2.3456,-1.56804,2.02258,1.56253
-1.55518,1.24754,1.25392,-2.3456,-1.56805,2.02257,1.56253
-1.55517,1.24754,1.25392,-2.34561,-1.56805,2.02257,1.56253
-1.55518,1.24754,1.25393,-2.34561,-1.56805,2.02257,1.56253
-1.55518,1.24753,1.25392,-2.34561,-1.56805,2.02257,1.56253
-1.55518,1.24754,1.25393,-2.34561,-1.56805,2.02257,1.56253
-1.55518,1.24753,1.25392,-2.34561,-1.56804,2.02257,1.56253
-1.55518,1.24753,1.25393,-2.34561,-1.56804,2.02257,1.56253
-1.55518,1.24753,1.25392,-2.34561,-1.56804,2.02257,1.56253
-1.55518,1.24753,1.25392,-2.34561,-1.56804,2.02257,1.56253
-1.55518,1.24753,1.25392,-2.34561,-1.56805,2.02257,1.56253
-1.55518,1.24753,1.25393,-2.34561,-1.56805,2.02257,1.56253
-1.55518,1.24754,1.25393,-2.34561,-1.56804,2.02257,1.56253
-1.55518,1.24753,1.25392,-2.34562,-1.56804,2.02257,1.56253
-1.55519,1.24753,1.25392,-2.34561,-1.56805,2.02257,1.56253
-1.55518,1.24753,1.25393,-2.34561,-1.56805,2.02257,1.56253
-1.55518,1.24753,1.25393,-2.34561,-1.56804,2.02257,1.56253
-1.55519,1.24752,1.25392,-2.34561,-1.56804,2.02257,1.56253
-1.55519,1.24752,1.25392,-2.34562,-1.56804,2.02257,1.56253
-1.55519,1.24753,1.25392,-2.34561,-1.56805,2.02257,1.56253
-1.55519,1.24753,1.25392,-2.34561,-1.56804,2.02257,1.56253
-1.55519,1.24753,1.25392,-2.34561,-1.56804,2.02257,1.56253
-1.55519,1.24752,1.25392,-2.34561,-1.56804,2.02257,1.56253
-1.55518,1.24752,1.25392,-2.34561,-1.56804,2.02257,1.56253
-1.55519,1.24753,1.25392,-2.34561,-1.56804,2.02257,1.56253
-1.55519,1.24752,1.25392,-2.34561,-1.56804,2.02257,1.56253
-1.55519,1.24753,1.25392,-2.34562,-1.56804,2.02257,1.56253
-1.55519,1.24752,1.25392,-2.34562,-1.56804,2.02257,1.56253
-1.55519,1.24753,1.25392,-2.34562,-1.56804,2.02257,1.56253
-1.55519,1.24753,1.25392,-2.34562,-1.56804,2.02257,1.56253
-1.55519,1.24753,1.25392,-2.34562,-1.56804,2.02257,1.56253
-1.55519,1.24753,1.25392,-2.34562,-1.56804,2.02257,1.56253
-1.55518,1.24753,1.25392,-2.34562,-1.56804,2.02257,1.56253
-1.55518,1.24752,1.25392,-2.34562,-1.56805,2.02257,1.56253
-1.55519,1.24753,1.25392,-2.34562,-1.56805,2.02257,1.56253
-1.55519,1.24753,1.25392,-2.34563,-1.56805,2.02257,1.56253
-1.55518,1.24753,1.25392,-2.34563,-1.56805,2.02257,1.56253
-1.55519,1.24753,1.25392,-2.34563,-1.56804,2.02257,1.56253
-1.55519,1.24753,1.25392,-2.34563,-1.56804,2.02257,1.56253
-1.55519,1.24753,1.25392,-2.34563,-1.56805,2.02257,1.56253
-1.55518,1.24753,1.25392,-2.34563,-1.56805,2.02257,1.56253
-1.55519,1.24753,1.25392,-2.34563,-1.56805,2.02257,1.56253
-1.55518,1.24753,1.25392,-2.34563,-1.56805,2.02257,1.56253
-1.55518,1.24753,1.25393,-2.34563,-1.56805,2.02257,1.56253
-1.55518,1.24754,1.25392,-2.34563,-1.56805,2.02256,1.56253
-1.55518,1.24753,1.25392,-2.34563,-1.56804,2.02257,1.56253
-1.55518,1.24753,1.25392,-2.34562,-1.56804,2.02257,1.56253
-1.55518,1.24754,1.25392,-2.34563,-1.56805,2.02257,1.56253
-1.55518,1.24754,1.25392,-2.34563,-1.56805,2.02257,1.56253
-1.55519,1.24753,1.25392,-2.34562,-1.56804,2.02257,1.56253
-1.55518,1.24754,1.25392,-2.34562,-1.56805,2.02257,1.56253
-1.55519,1.24753,1.25392,-2.34563,-1.56804,2.02257,1.56253
-1.55519,1.24754,1.25393,-2.34562,-1.56805,2.02258,1.56253
-1.55519,1.24754,1.25392,-2.34563,-1.56804,2.02257,1.56253
-1.55519,1.24754,1.25392,-2.34562,-1.56804,2.02257,1.56253
-1.55519,1.24754,1.25393,-2.34563,-1.56804,2.02257,1.56253
-1.55519,1.24754,1.25392,-2.34563,-1.56804,2.02257,1.56253
-1.55519,1.24754,1.25392,-2.34563,-1.56804,2.02258,1.56253
-1.55518,1.24754,1.25392,-2.34562,-1.56804,2.02258,1.56253
-1.55518,1.24754,1.25392,-2.34563,-1.56805,2.02257,1.56253
-1.55518,1.24754,1.25392,-2.34563,-1.56805,2.02257,1.56253
-1.55518,1.24754,1.25393,-2.34562,-1.56805,2.02257,1.56253
-1.55517,1.24754,1.25392,-2.34563,-1.56805,2.02257,1.56253
-1.55518,1.24754,1.25393,-2.34563,-1.56805,2.02257,1.56253
-1.55518,1.24754,1.25392,-2.34563,-1.56805,2.02257,1.56253
-1.55517,1.24754,1.25393,-2.34563,-1.56805,2.02257,1.56253
-1.55517,1.24754,1.25392,-2.34562,-1.56805,2.02257,1.56253
-1.55517,1.24754,1.25393,-2.34562,-1.56805,2.02257,1.56253
-1.55517,1.24753,1.25392,-2.34562,-1.56805,2.02257,1.56253
-1.55517,1.24754,1.25393,-2.34563,-1.56805,2.02257,1.56253
-1.55517,1.24754,1.25393,-2.34562,-1.56805,2.02257,1.56253
-1.55517,1.24754,1.25393,-2.34562,-1.56805,2.02257,1.56253
-1.55517,1.24753,1.25393,-2.34562,-1.56805,2.02257,1.56253
-1.55517,1.24754,1.25392,-2.34562,-1.56805,2.02257,1.56253
-1.55517,1.24753,1.25392,-2.34562,-1.56805,2.02257,1.56253
-1.55517,1.24754,1.25393,-2.34562,-1.56805,2.02257,1.56253
-1.55517,1.24754,1.25392,-2.34563,-1.56805,2.02257,1.56253
-1.55517,1.24753,1.25392,-2.34562,-1.56805,2.02257,1.56253
-1.55517,1.24753,1.25392,-2.34563,-1.56805,2.02257,1.56253
-1.55517,1.24754,1.25392,-2.34563,-1.56804,2.02257,1.56254
-1.55517,1.24753,1.25393,-2.34563,-1.56805,2.02257,1.56253
-1.55517,1.24753,1.25393,-2.34563,-1.56805,2.02257,1.56253
-1.55517,1.24753,1.25392,-2.34563,-1.56805,2.02257,1.56253
-1.55517,1.24753,1.25392,-2.34563,-1.56804,2.02257,1.56253
-1.55517,1.24753,1.25392,-2.34563,-1.56804,2.02257,1.56253
-1.55517,1.24753,1.25392,-2.34563,-1.56805,2.02257,1.56253
-1.55517,1.24753,1.25392,-2.34562,-1.56805,2.02257,1.56254
-1.55517,1.24753,1.25393,-2.34563,-1.56805,2.02257,1.56253
-1.55517,1.24753,1.25393,-2.34563,-1.56805,2.02256,1.56253
-1.55517,1.24753,1.25393,-2.34563,-1.56805,2.02256,1.56253
-1.55517,1.24753,1.25393,-2.34563,-1.56805,2.02256,1.56253
-1.55518,1.24752,1.25392,-2.34563,-1.56805,2.02256,1.56253
-1.55517,1.24753,1.25392,-2.34563,-1.56805,2.02256,1.56253
-1.55517,1.24753,1.25393,-2.34563,-1.56805,2.02256,1.56253
-1.55517,1.24753,1.25393,-2.34563,-1.56805,2.02256,1.56253
-1.55517,1.24753,1.25392,-2.34563,-1.56805,2.02256,1.56253
-1.55517,1.24753,1.25392,-2.34563,-1.56805,2.02256,1.56253
-1.55517,1.24753,1.25393,-2.34563,-1.56805,2.02256,1.56254
-1.55517,1.24753,1.25392,-2.34563,-1.56805,2.02256,1.56253
-1.55517,1.24753,1.25392,-2.34563,-1.56805,2.02256,1.56253
-1.55518,1.24753,1.25392,-2.34563,-1.56805,2.02256,1.56253
-1.55518,1.24753,1.25393,-2.34563,-1.56805,2.02256,1.56253
-1.55518,1.24754,1.25392,-2.34563,-1.56805,2.02256,1.56254
-1.55517,1.24753,1.25392,-2.34563,-1.56805,2.02256,1.56253
-1.55518,1.24753,1.25392,-2.34563,-1.56805,2.02256,1.56253
-1.55518,1.24753,1.25392,-2.34563,-1.56805,2.02256,1.56253
-1.55518,1.24753,1.25392,-2.34563,-1.56805,2.02256,1.56253
-1.55518,1.24753,1.25393,-2.34563,-1.56805,2.02256,1.56253
-1.55518,1.24753,1.25392,-2.34563,-1.56805,2.02256,1.56253
-1.55518,1.24753,1.25392,-2.34563,-1.56804,2.02256,1.56253
-1.55518,1.24753,1.25392,-2.34563,-1.56805,2.02256,1.56253
-1.55519,1.24753,1.25392,-2.34563,-1.56804,2.02256,1.56254
-1.55518,1.24753,1.25392,-2.34563,-1.56804,2.02256,1.56253
-1.55518,1.24753,1.25392,-2.34563,-1.56805,2.02256,1.56253
-1.55518,1.24753,1.25392,-2.34562,-1.56804,2.02256,1.56253
-1.55518,1.24753,1.25392,-2.34563,-1.56805,2.02256,1.56253
-1.55518,1.24752,1.25393,-2.34562,-1.56805,2.02256,1.56253
-1.55518,1.24753,1.25392,-2.34562,-1.56805,2.02256,1.56253
-1.55519,1.24753,1.25392,-2.34562,-1.56804,2.02256,1.56253
-1.55519,1.24753,1.25392,-2.34562,-1.56805,2.02256,1.56253
-1.55518,1.24752,1.25392,-2.34562,-1.56804,2.02256,1.56254
-1.55519,1.24753,1.25392,-2.34562,-1.56805,2.02256,1.56253
-1.55518,1.24753,1.25392,-2.34562,-1.56805,2.02256,1.56254
-1.55518,1.24753,1.25392,-2.34562,-1.56804,2.02256,1.56254
-1.55518,1.24753,1.25392,-2.34562,-1.56804,2.02256,1.56253
-1.55518,1.24753,1.25392,-2.34562,-1.56805,2.02256,1.56254
-1.55518,1.24753,1.25393,-2.34562,-1.56805,2.02256,1.56253
-1.55519,1.24753,1.25392,-2.34562,-1.56804,2.02256,1.56254
-1.55519,1.24753,1.25392,-2.34562,-1.56805,2.02256,1.56253
-1.55518,1.24753,1.25393,-2.34562,-1.56805,2.02256,1.56254
-1.55518,1.24753,1.25392,-2.34562,-1.56805,2.02256,1.56253
-1.55518,1.24753,1.25392,-2.34563,-1.56805,2.02256,1.56253
-1.55519,1.24753,1.25392,-2.34562,-1.56805,2.02256,1.56253
-1.55518,1.24752,1.25392,-2.34562,-1.56805,2.02256,1.56254
-1.55518,1.24753,1.25392,-2.34563,-1.56805,2.02256,1.56254
-1.55518,1.24753,1.25392,-2.34562,-1.56805,2.02256,1.56253
-1.55518,1.24753,1.25392,-2.34563,-1.56805,2.02256,1.56254
-1.55517,1.24753,1.25393,-2.34562,-1.56805,2.02256,1.56253
-1.55518,1.24753,1.25393,-2.34563,-1.56805,2.02256,1.56254
-1.55518,1.24752,1.25393,-2.34563,-1.56805,2.02256,1.56254
-1.55518,1.24753,1.25392,-2.34563,-1.56805,2.02256,1.56253
-1.55517,1.24752,1.25392,-2.34563,-1.56805,2.02256,1.56254
-1.55517,1.24753,1.25392,-2.34563,-1.56805,2.02256,1.56253
-1.55517,1.24752,1.25393,-2.34562,-1.56806,2.02256,1.56254
-1.55517,1.24753,1.25393,-2.34563,-1.56805,2.02256,1.56254
-1.55517,1.24752,1.25393,-2.34563,-1.56805,2.02256,1.56254
-1.55517,1.24753,1.25393,-2.34562,-1.56805,2.02256,1.56254
-1.55517,1.24752,1.25393,-2.34562,-1.56805,2.02256,1.56253
-1.55517,1.24752,1.25393,-2.34562,-1.56806,2.02256,1.56254
-1.55517,1.24752,1.25393,-2.34562,-1.56806,2.02256,1.56253
-1.55517,1.24752,1.25393,-2.34562,-1.56806,2.02256,1.56254
-1.55517,1.24752,1.25393,-2.34562,-1.56806,2.02256,1.56254
-1.55517,1.24753,1.25394,-2.34562,-1.56806,2.02256,1.56253
-1.55517,1.24752,1.25393,-2.34562,-1.56806,2.02256,1.56254
-1.55517,1.24752,1.25393,-2.34562,-1.56806,2.02256,1.56253
-1.55517,1.24752,1.25394,-2.34562,-1.56806,2.02256,1.56253
-1.55516,1.24752,1.25394,-2.34561,-1.56806,2.02256,1.56253
-1.55517,1.24752,1.25394,-2.34561,-1.56806,2.02256,1.56254
-1.55517,1.24752,1.25394,-2.34561,-1.56806,2.02256,1.56253
-1.55517,1.24752,1.25394,-2.34561,-1.56806,2.02256,1.56253
-1.55517,1.24752,1.25393,-2.34561,-1.56806,2.02256,1.56254
-1.55517,1.24752,1.25394,-2.3456,-1.56806,2.02256,1.56253
-1.55517,1.24752,1.25394,-2.3456,-1.56806,2.02256,1.56254
-1.55517,1.24752,1.25394,-2.3456,-1.56806,2.02256,1.56254
-1.55517,1.24752,1.25394,-2.3456,-1.56806,2.02256,1.56253
-1.55517,1.24752,1.25394,-2.34561,-1.56807,2.02256,1.56253
-1.55517,1.24752,1.25394,-2.3456,-1.56806,2.02256,1.56253
-1.55517,1.24752,1.25394,-2.3456,-1.56807,2.02256,1.56253
-1.55517,1.24752,1.25394,-2.34559,-1.56807,2.02256,1.56253
-1.55517,1.24752,1.25394,-2.34559,-1.56806,2.02256,1.56254
-1.55517,1.24752,1.25394,-2.34559,-1.56807,2.02256,1.56253
-1.55517,1.24751,1.25394,-2.34559,-1.56807,2.02256,1.56253
-1.55517,1.24752,1.25394,-2.34559,-1.56806,2.02256,1.56253
-1.55517,1.24752,1.25394,-2.34559,-1.56807,2.02256,1.56253
-1.55518,1.24752,1.25394,-2.34558,-1.56806,2.02256,1.56253
-1.55517,1.24752,1.25394,-2.34559,-1.56807,2.02256,1.56253
-1.55518,1.24752,1.25394,-2.34558,-1.56806,2.02256,1.56253
-1.55517,1.24752,1.25394,-2.34558,-1.56807,2.02256,1.56253
-1.55518,1.24751,1.25394,-2.34558,-1.56806,2.02256,1.56253
-1.55518,1.24752,1.25394,-2.34558,-1.56807,2.02256,1.56253
-1.55517,1.24752,1.25395,-2.34558,-1.56807,2.02256,1.56253
-1.55518,1.24752,1.25394,-2.34558,-1.56807,2.02257,1.56253
-1.55517,1.24752,1.25394,-2.34558,-1.56807,2.02256,1.56253
-1.55517,1.24752,1.25395,-2.34558,-1.56807,2.02257,1.56253
-1.55517,1.24752,1.25394,-2.34558,-1.56807,2.02257,1.56253
-1.55517,1.24752,1.25395,-2.34558,-1.56807,2.02256,1.56253
-1.55517,1.24752,1.25394,-2.34558,-1.56807,2.02257,1.56253
-1.55518,1.24751,1.25394,-2.34558,-1.56807,2.02256,1.56252
-1.55517,1.24752,1.25394,-2.34558,-1.56807,2.02257,1.56253
-1.55517,1.24752,1.25394,-2.34557,-1.56807,2.02257,1.56253
-1.55517,1.24752,1.25394,-2.34557,-1.56807,2.02257,1.56253
-1.55517,1.24752,1.25395,-2.34558,-1.56807,2.02256,1.56253
-1.55517,1.24752,1.25395,-2.34557,-1.56807,2.02257,1.56253
-1.55517,1.24752,1.25394,-2.34557,-1.56807,2.02257,1.56253
-1.55517,1.24752,1.25395,-2.34558,-1.56807,2.02256,1.56253
-1.55517,1.24752,1.25394,-2.34557,-1.56807,2.02256,1.56253
-1.55517,1.24752,1.25394,-2.34558,-1.56807,2.02257,1.56253
-1.55517,1.24752,1.25395,-2.34557,-1.56806,2.02257,1.56253
-1.55517,1.24752,1.25394,-2.34557,-1.56807,2.02256,1.56252
-1.55517,1.24752,1.25395,-2.34557,-1.56807,2.02257,1.56253
-1.55518,1.24752,1.25394,-2.34557,-1.56807,2.02257,1.56253
-1.55517,1.24752,1.25394,-2.34557,-1.56807,2.02257,1.56253
-1.55517,1.24753,1.25394,-2.34557,-1.56807,2.02257,1.56253
-1.55517,1.24752,1.25395,-2.34557,-1.56806,2.02257,1.56252
-1.55517,1.24752,1.25395,-2.34557,-1.56806,2.02257,1.56253
-1.55517,1.24752,1.25395,-2.34557,-1.56807,2.02257,1.56252
-1.55516,1.24752,1.25395,-2.34557,-1.56807,2.02257,1.56253
-1.55516,1.24752,1.25395,-2.34556,-1.56807,2.02257,1.56253
-1.55517,1.24752,1.25395,-2.34557,-1.56807,2.02257,1.56252
-1.55516,1.24752,1.25395,-2.34557,-1.56807,2.02257,1.56253
-1.55516,1.24752,1.25395,-2.34557,-1.56807,2.02257,1.56253
-1.55516,1.24752,1.25395,-2.34557,-1.56806,2.02257,1.56252
-1.55516,1.24752,1.25395,-2.34557,-1.56806,2.02257,1.56253
-1.55516,1.24752,1.25395,-2.34557,-1.56806,2.02257,1.56253
-1.55516,1.24752,1.25395,-2.34556,-1.56806,2.02257,1.56252
-1.55516,1.24752,1.25395,-2.34557,-1.56807,2.02257,1.56252
-1.55516,1.24752,1.25395,-2.34557,-1.56807,2.02257,1.56253
-1.55516,1.24752,1.25395,-2.34557,-1.56807,2.02257,1.56253
-1.55516,1.24752,1.25395,-2.34557,-1.56806,2.02257,1.56253
-1.55516,1.24752,1.25395,-2.34557,-1.56807,2.02257,1.56252
-1.55515,1.24752,1.25395,-2.34557,-1.56807,2.02257,1.56253
-1.55515,1.24752,1.25395,-2.34557,-1.56807,2.02257,1.56252
-1.55515,1.24752,1.25395,-2.34557,-1.56806,2.02257,1.56253
-1.55515,1.24752,1.25396,-2.34557,-1.56806,2.02257,1.56253
-1.55515,1.24752,1.25395,-2.34557,-1.56807,2.02257,1.56252
-1.55515,1.24752,1.25395,-2.34557,-1.56807,2.02257,1.56253
-1.55515,1.24752,1.25395,-2.34557,-1.56807,2.02257,1.56252
-1.55515,1.24752,1.25395,-2.34557,-1.56807,2.02257,1.56252
-1.55515,1.24752,1.25395,-2.34557,-1.56807,2.02257,1.56252
-1.55515,1.24752,1.25395,-2.34557,-1.56807,2.02257,1.56253
-1.55515,1.24752,1.25395,-2.34557,-1.56806,2.02257,1.56253
-1.55515,1.24752,1.25395,-2.34557,-1.56806,2.02257,1.56252
-1.55515,1.24752,1.25395,-2.34557,-1.56806,2.02257,1.56253
-1.55515,1.24753,1.25395,-2.34557,-1.56806,2.02257,1.56253
-1.55514,1.24752,1.25395,-2.34558,-1.56806,2.02258,1.56253
-1.55515,1.24752,1.25395,-2.34557,-1.56806,2.02258,1.56253
-1.55514,1.24752,1.25395,-2.34557,-1.56806,2.02258,1.56252
-1.55515,1.24753,1.25395,-2.34557,-1.56806,2.02258,1.56253
-1.55515,1.24753,1.25395,-2.34558,-1.56806,2.02258,1.56252
-1.55514,1.24753,1.25395,-2.34558,-1.56806,2.02258,1.56253
-1.55515,1.24753,1.25395,-2.34558,-1.56806,2.02258,1.56253
-1.55515,1.24754,1.25395,-2.34558,-1.56806,2.02258,1.56253
-1.55514,1.24754,1.25395,-2.34558,-1.56806,2.02258,1.56253
-1.55514,1.24754,1.25395,-2.34559,-1.56806,2.02258,1.56253
-1.55514,1.24753,1.25395,-2.34559,-1.56806,2.02258,1.56253
-1.55514,1.24754,1.25395,-2.34559,-1.56806,2.02257,1.56252
-1.55514,1.24754,1.25395,-2.34559,-1.56806,2.02257,1.56253
-1.55514,1.24753,1.25395,-2.34559,-1.56806,2.02257,1.56253
-1.55513,1.24754,1.25395,-2.34559,-1.56806,2.02257,1.56253
-1.55513,1.24754,1.25395,-2.3456,-1.56806,2.02257,1.56253
-1.55513,1.24754,1.25395,-2.3456,-1.56806,2.02257,1.56253
-1.55513,1.24754,1.25395,-2.3456,-1.56806,2.02257,1.56253
-1.55513,1.24754,1.25395,-2.3456,-1.56806,2.02257,1.56253
-1.55513,1.24754,1.25395,-2.3456,-1.56805,2.02258,1.56253
-1.55513,1.24754,1.25395,-2.3456,-1.56805,2.02258,1.56252
-1.55514,1.24754,1.25395,-2.34561,-1.56805,2.02258,1.56252
-1.55513,1.24754,1.25395,-2.3456,-1.56805,2.02258,1.56253
-1.55513,1.24754,1.25395,-2.34561,-1.56806,2.02258,1.56253
-1.55513,1.24754,1.25395,-2.34561,-1.56806,2.02258,1.56253
-1.55513,1.24754,1.25395,-2.34561,-1.56806,2.02258,1.56253
-1.55513,1.24755,1.25395,-2.34561,-1.56806,2.02258,1.56253
-1.55513,1.24754,1.25394,-2.34561,-1.56805,2.02258,1.56252
-1.55513,1.24754,1.25395,-2.34561,-1.56805,2.02258,1.56253
-1.55513,1.24754,1.25395,-2.34561,-1.56805,2.02258,1.56253
-1.55512,1.24754,1.25395,-2.34561,-1.56806,2.02258,1.56252
-1.55512,1.24754,1.25395,-2.34561,-1.56805,2.02258,1.56253
-1.55513,1.24755,1.25395,-2.34561,-1.56805,2.02258,1.56253
-1.55512,1.24754,1.25395,-2.34562,-1.56806,2.02258,1.56253
-1.55512,1.24754,1.25395,-2.34562,-1.56806,2.02258,1.56253
-1.55512,1.24754,1.25394,-2.34561,-1.56806,2.02258,1.56253
-1.55512,1.24755,1.25395,-2.34562,-1.56806,2.02258,1.56253
-1.55512,1.24754,1.25395,-2.34561,-1.56806,2.02258,1.56252
-1.55512,1.24754,1.25395,-2.34561,-1.56805,2.02258,1.56253
-1.55512,1.24754,1.25395,-2.34562,-1.56805,2.02258,1.56253
-1.55512,1.24755,1.25395,-2.34562,-1.56805,2.02258,1.56253
-1.55512,1.24754,1.25395,-2.34561,-1.56805,2.02258,1.56253
-1.55512,1.24754,1.25395,-2.34561,-1.56805,2.02258,1.56253
-1.55512,1.24755,1.25395,-2.34561,-1.56805,2.02258,1.56253
-1.55512,1.24754,1.25394,-2.34562,-1.56805,2.02258,1.56253
-1.55512,1.24754,1.25395,-2.34561,-1.56805,2.02258,1.56253
-1.55512,1.24755,1.25395,-2.34561,-1.56805,2.02258,1.56253
-1.55512,1.24754,1.25395,-2.34561,-1.56805,2.02258,1.56252
-1.55512,1.24755,1.25394,-2.34561,-1.56805,2.02258,1.56253
-1.55512,1.24755,1.25395,-2.34561,-1.56805,2.02258,1.56253
-1.55512,1.24755,1.25395,-2.34561,-1.56805,2.02258,1.56253
-1.55512,1.24755,1.25395,-2.34561,-1.56806,2.02258,1.56253
-1.55512,1.24755,1.25395,-2.34562,-1.56805,2.02258,1.56253
-1.55512,1.24755,1.25395,-2.34561,-1.56805,2.02258,1.56253
-1.55512,1.24755,1.25395,-2.34561,-1.56806,2.02258,1.56253
-1.55512,1.24755,1.25395,-2.34561,-1.56805,2.02258,1.56253
-1.55512,1.24755,1.25395,-2.34561,-1.56805,2.02258,1.56252
-1.55512,1.24755,1.25395,-2.34561,-1.56805,2.02258,1.56253
-1.55511,1.24754,1.25395,-2.34561,-1.56805,2.02258,1.56252
-1.55512,1.24755,1.25395,-2.34561,-1.56805,2.02258,1.56253
-1.55512,1.24755,1.25395,-2.34561,-1.56805,2.02258,1.56253
-1.55512,1.24755,1.25395,-2.34562,-1.56805,2.02258,1.56252
-1.55512,1.24755,1.25395,-2.34562,-1.56806,2.02258,1.56253
-1.55512,1.24755,1.25395,-2.34562,-1.56806,2.02258,1.56253
-1.55512,1.24755,1.25395,-2.34562,-1.56806,2.02258,1.56253
-1.55512,1.24755,1.25395,-2.34562,-1.56805,2.02258,1.56253
-1.55511,1.24755,1.25395,-2.34561,-1.56805,2.02258,1.56253
-1.55511,1.24755,1.25395,-2.34561,-1.56806,2.02258,1.56252
-1.55512,1.24755,1.25395,-2.34561,-1.56805,2.02258,1.56253
-1.55512,1.24755,1.25395,-2.34562,-1.56806,2.02258,1.56253
-1.55512,1.24755,1.25395,-2.34561,-1.56805,2.02258,1.56253
-1.55512,1.24755,1.25395,-2.34561,-1.56806,2.02258,1.56253
-1.55512,1.24755,1.25395,-2.34561,-1.56806,2.02258,1.56253
-1.55512,1.24755,1.25395,-2.34561,-1.56806,2.02259,1.56253
-1.55512,1.24755,1.25395,-2.3456,-1.56806,2.02258,1.56253
-1.55512,1.24755,1.25395,-2.34561,-1.56806,2.02258,1.56253
-1.55512,1.24755,1.25395,-2.3456,-1.56806,2.02258,1.56253
-1.55512,1.24755,1.25395,-2.34561,-1.56806,2.02258,1.56253
-1.55512,1.24755,1.25395,-2.34561,-1.56806,2.02258,1.56253
-1.55512,1.24755,1.25395,-2.3456,-1.56805,2.02258,1.56253
-1.55512,1.24755,1.25395,-2.3456,-1.56805,2.02259,1.56253
-1.55512,1.24755,1.25395,-2.3456,-1.56805,2.02258,1.56252
-1.55512,1.24755,1.25395,-2.3456,-1.56805,2.02258,1.56253
-1.55512,1.24755,1.25395,-2.3456,-1.56805,2.02258,1.56253
-1.55511,1.24755,1.25396,-2.3456,-1.56805,2.02259,1.56253
-1.55512,1.24754,1.25395,-2.3456,-1.56805,2.02258,1.56254
-1.55512,1.24754,1.25395,-2.3456,-1.56805,2.02258,1.56253
-1.55512,1.24754,1.25395,-2.3456,-1.56805,2.02259,1.56253
-1.55512,1.24755,1.25395,-2.3456,-1.56805,2.02259,1.56253
-1.55512,1.24754,1.25396,-2.34559,-1.56805,2.02259,1.56253
-1.55511,1.24754,1.25396,-2.3456,-1.56805,2.02258,1.56253
-1.55512,1.24754,1.25396,-2.3456,-1.56805,2.02258,1.56253
-1.55512,1.24755,1.25395,-2.34559,-1.56805,2.02258,1.56253
-1.55511,1.24755,1.25395,-2.3456,-1.56805,2.02258,1.56252
-1.55511,1.24754,1.25395,-2.3456,-1.56805,2.02259,1.56253
-1.55512,1.24755,1.25396,-2.3456,-1.56805,2.02259,1.56252
-1.55511,1.24754,1.25396,-2.3456,-1.56805,2.02258,1.56253
-1.55511,1.24754,1.25395,-2.3456,-1.56805,2.02259,1.56253
-1.55511,1.24754,1.25395,-2.3456,-1.56805,2.02258,1.56253
-1.55511,1.24755,1.25395,-2.34561,-1.56805,2.02258,1.56253
-1.55512,1.24755,1.25396,-2.34561,-1.56805,2.02258,1.56252
-1.55511,1.24755,1.25395,-2.34561,-1.56805,2.02258,1.56253
-1.55511,1.24755,1.25395,-2.34561,-1.56805,2.02258,1.56253
-1.55511,1.24754,1.25395,-2.34561,-1.56805,2.02258,1.56253
-1.55511,1.24755,1.25395,-2.34562,-1.56805,2.02258,1.56253
-1.55511,1.24755,1.25395,-2.34562,-1.56805,2.02258,1.56252
-1.55511,1.24755,1.25395,-2.34562,-1.56805,2.02258,1.56253
-1.5551,1.24755,1.25395,-2.34562,-1.56805,2.02258,1.56253
-1.55511,1.24755,1.25395,-2.34563,-1.56805,2.02258,1.56253
-1.5551,1.24755,1.25395,-2.34563,-1.56805,2.02259,1.56253
-1.5551,1.24755,1.25395,-2.34563,-1.56805,2.02258,1.56253
-1.5551,1.24755,1.25395,-2.34563,-1.56805,2.02258,1.56252
-1.5551,1.24755,1.25396,-2.34563,-1.56805,2.02258,1.56253
-1.5551,1.24756,1.25395,-2.34563,-1.56805,2.02258,1.56252
-1.5551,1.24755,1.25396,-2.34563,-1.56806,2.02258,1.56253
-1.5551,1.24755,1.25395,-2.34564,-1.56806,2.02258,1.56253
-1.55509,1.24756,1.25395,-2.34564,-1.56806,2.02258,1.56252
-1.5551,1.24756,1.25396,-2.34564,-1.56806,2.02258,1.56253
-1.5551,1.24756,1.25395,-2.34564,-1.56806,2.02258,1.56252
-1.5551,1.24756,1.25395,-2.34564,-1.56805,2.02258,1.56253
-1.55509,1.24755,1.25395,-2.34564,-1.56806,2.02258,1.56253
-1.55509,1.24755,1.25395,-2.34564,-1.56806,2.02258,1.56253
-1.55509,1.24756,1.25395,-2.34564,-1.56805,2.02258,1.56252
-1.55509,1.24755,1.25395,-2.34564,-1.56806,2.02258,1.56252
-1.5551,1.24756,1.25395,-2.34565,-1.56806,2.02258,1.56253
-1.55509,1.24755,1.25396,-2.34564,-1.56806,2.02258,1.56253
-1.55509,1.24755,1.25395,-2.34564,-1.56805,2.02258,1.56253
-1.55509,1.24755,1.25396,-2.34564,-1.56806,2.02258,1.56253
