ubt-ai3/franka-proxy/tools/visual_studio_2017/projects/record.csv
j0,j1,j2,j3,j4,j5,j6
1.21146,0.626992,0.077368,-1.45621,-0.132777,2.01547,0.614904
1.21145,0.626987,0.077373,-1.45621,-0.132774,2.01547,0.614908
1.21146,0.626989,0.077368,-1.45621,-0.132775,2.01548,0.614903
1.21145,0.626993,0.077373,-1.45621,-0.132777,2.01548,0.614908
1.21146,0.626992,0.077373,-1.45621,-0.132778,2.01548,0.614909
1.21145,0.626992,0.077375,-1.4562,-0.132776,2.01547,0.614907
1.21145,0.626989,0.077371,-1.4562,-0.132776,2.01547,0.61491
1.21145,0.62699,0.077373,-1.4562,-0.132773,2.01548,0.614906
1.21145,0.626989,0.077373,-1.4562,-0.132777,2.01548,0.614908
1.21145,0.626984,0.077374,-1.45621,-0.132774,2.01548,0.614906
1.21146,0.626986,0.077373,-1.45619,-0.132773,2.01547,0.614905
1.21146,0.626986,0.077374,-1.4562,-0.132774,2.01547,0.614907
1.21146,0.626986,0.077379,-1.4562,-0.132777,2.01547,0.614907
1.21146,0.626989,0.077375,-1.4562,-0.132774,2.01547,0.614906
1.21146,0.626984,0.077379,-1.4562,-0.132777,2.01547,0.614908
1.21146,0.626986,0.077381,-1.4562,-0.132775,2.01548,0.614907
1.21146,0.626987,0.077377,-1.4562,-0.132773,2.01548,0.614902
1.21146,0.626983,0.077378,-1.4562,-0.132773,2.01548,0.614906
1.21146,0.626989,0.077379,-1.4562,-0.132776,2.01548,0.614904
1.21146,0.626987,0.077378,-1.4562,-0.132778,2.01548,0.614904
1.21146,0.626983,0.077381,-1.4562,-0.132778,2.01548,0.614906
1.21146,0.626984,0.077379,-1.4562,-0.132778,2.01548,0.614905
1.21147,0.626987,0.077381,-1.4562,-0.132778,2.01547,0.614901
1.21147,0.626984,0.077384,-1.4562,-0.132775,2.01548,0.614907
1.21148,0.626989,0.077381,-1.4562,-0.132777,2.01548,0.614907
1.21147,0.626984,0.077387,-1.4562,-0.132775,2.01547,0.614903
1.21147,0.626989,0.077384,-1.4562,-0.132776,2.01548,0.614908
1.21147,0.626982,0.077379,-1.4562,-0.132778,2.01548,0.614907
1.21147,0.626986,0.077387,-1.45621,-0.132774,2.01547,0.614906
1.21147,0.626989,0.077389,-1.4562,-0.132777,2.01548,0.614909
1.21147,0.626984,0.077387,-1.4562,-0.132777,2.01547,0.614905
1.21147,0.626987,0.077384,-1.45621,-0.132779,2.01547,0.614907
1.21147,0.626987,0.077381,-1.45621,-0.132778,2.01548,0.614907
1.21148,0.626991,0.077381,-1.4562,-0.132778,2.01547,0.614903
1.21147,0.626992,0.077392,-1.45621,-0.13278,2.01547,0.614912
1.21147,0.626992,0.077387,-1.45621,-0.132778,2.01547,0.614909
1.21147,0.626994,0.077389,-1.45621,-0.132774,2.01547,0.614903
1.21147,0.62699,0.077389,-1.4562,-0.132774,2.01548,0.614907
1.21147,0.626992,0.077387,-1.45621,-0.132777,2.01548,0.614907
1.21147,0.626991,0.077392,-1.45621,-0.132777,2.01548,0.614904
1.21148,0.626989,0.07739,-1.4562,-0.132773,2.01547,0.614907
1.21147,0.626986,0.077392,-1.45621,-0.132776,2.01548,0.614906
1.21148,0.626996,0.077392,-1.45621,-0.132777,2.01547,0.614901
1.21147,0.626995,0.077388,-1.45621,-0.132777,2.01547,0.614907
1.21148,0.626996,0.077392,-1.4562,-0.132777,2.01548,0.614902
1.21147,0.626997,0.077387,-1.45621,-0.132775,2.01547,0.614908
1.21147,0.626997,0.077391,-1.45621,-0.132776,2.01547,0.614908
1.21148,0.626997,0.077387,-1.45621,-0.132778,2.01547,0.614903
1.21147,0.626998,0.077392,-1.45621,-0.132777,2.01548,0.614903
1.21148,0.627001,0.07739,-1.45621,-0.132774,2.01548,0.614908
1.21148,0.626997,0.07739,-1.45621,-0.132773,2.01547,0.614911
1.21148,0.627,0.077387,-1.45621,-0.132777,2.01547,0.614907
1.21147,0.627004,0.077387,-1.4562,-0.132776,2.01547,0.61491
1.21148,0.627,0.077387,-1.4562,-0.132777,2.01547,0.614905
1.21147,0.627004,0.077387,-1.45621,-0.132775,2.01547,0.614909
1.21148,0.627005,0.077384,-1.45621,-0.132774,2.01548,0.61491
1.21147,0.627002,0.077389,-1.45621,-0.132773,2.01548,0.614904
1.21147,0.627007,0.077389,-1.45621,-0.132773,2.01548,0.61491
1.21148,0.62701,0.077384,-1.45621,-0.132773,2.01548,0.614907
1.21148,0.627008,0.077389,-1.45621,-0.132773,2.01548,0.614904
1.21147,0.62701,0.077385,-1.45621,-0.132777,2.01548,0.614908
1.21147,0.62701,0.077384,-1.45621,-0.132775,2.01548,0.614907
1.21147,0.62701,0.077387,-1.45621,-0.132777,2.01547,0.61491
1.21147,0.627011,0.077387,-1.45621,-0.132777,2.01548,0.614906
1.21147,0.627007,0.077384,-1.45621,-0.132775,2.01548,0.614905
1.21147,0.627009,0.077384,-1.45621,-0.132774,2.01548,0.614905
1.21148,0.62701,0.077381,-1.45621,-0.132774,2.01548,0.614908
1.21147,0.627009,0.077381,-1.45621,-0.132774,2.01548,0.614905
1.21147,0.627015,0.077381,-1.45621,-0.132777,2.01548,0.614905
1.21147,0.627011,0.077381,-1.45621,-0.132774,2.01548,0.614907
1.21147,0.627015,0.077379,-1.4562,-0.132777,2.01547,0.614905
1.21147,0.627017,0.077381,-1.45621,-0.132774,2.01547,0.614905
1.21147,0.627013,0.077387,-1.4562,-0.132778,2.01547,0.614908
1.21147,0.627017,0.077384,-1.4562,-0.132774,2.01548,0.614903
1.21146,0.627018,0.077381,-1.45621,-0.132778,2.01548,0.614908
1.21147,0.62702,0.077379,-1.45621,-0.132775,2.01548,0.614908
1.21147,0.627018,0.077377,-1.45621,-0.132776,2.01548,0.614905
1.21147,0.627015,0.077378,-1.45621,-0.132777,2.01548,0.614909
1.21147,0.627015,0.077379,-1.45621,-0.132774,2.01548,0.614906
1.21147,0.627016,0.077377,-1.45621,-0.132774,2.01548,0.614906
1.21147,0.62702,0.077373,-1.45621,-0.132773,2.01548,0.61491
1.21147,0.62702,0.077376,-1.45621,-0.132773,2.01548,0.614908
1.21146,0.627018,0.077376,-1.45621,-0.132773,2.01548,0.614903
1.21146,0.627018,0.077376,-1.45622,-0.132773,2.01547,0.614907
1.21146,0.627023,0.077374,-1.45621,-0.132777,2.01547,0.614905
1.21146,0.627021,0.077371,-1.45621,-0.132778,2.01548,0.614899
1.21145,0.627026,0.077379,-1.45622,-0.132775,2.01548,0.614906
1.21146,0.627021,0.077376,-1.45622,-0.132775,2.01547,0.614904
1.21146,0.627021,0.077374,-1.45621,-0.132777,2.01547,0.614907
1.21146,0.627018,0.077379,-1.45621,-0.132775,2.01548,0.614907
1.21145,0.627024,0.077376,-1.45621,-0.132776,2.01548,0.614902
1.21146,0.627025,0.077374,-1.45621,-0.132777,2.01548,0.614907
1.21145,0.627028,0.077371,-1.45622,-0.132775,2.01548,0.614909
1.21145,0.627018,0.077376,-1.45621,-0.132773,2.01548,0.614905
1.21146,0.627023,0.077374,-1.45621,-0.132773,2.01547,0.614905
1.21145,0.627025,0.077373,-1.45621,-0.132773,2.01548,0.614909
1.21145,0.627023,0.077373,-1.45621,-0.132773,2.01547,0.614904
1.21145,0.627023,0.077374,-1.45621,-0.132777,2.01547,0.614911
1.21145,0.627028,0.077368,-1.45621,-0.132777,2.01547,0.614912
1.21145,0.627026,0.07737,-1.45622,-0.132774,2.01548,0.614909
1.21145,0.627018,0.077369,-1.45621,-0.132778,2.01548,0.614909
1.21145,0.627021,0.07737,-1.45621,-0.132777,2.01548,0.614905
1.21145,0.627023,0.077366,-1.45621,-0.132778,2.01547,0.614906
1.21145,0.627018,0.07737,-1.45621,-0.13278,2.01548,0.614911
1.21145,0.627021,0.077369,-1.45621,-0.132779,2.01548,0.614907
1.21145,0.627023,0.077371,-1.45622,-0.132778,2.01548,0.614904
1.21145,0.627018,0.07737,-1.45622,-0.132778,2.01547,0.614908
1.21145,0.627023,0.077369,-1.45621,-0.13278,2.01548,0.614905
1.21145,0.627018,0.077363,-1.45621,-0.132778,2.01547,0.614906
1.21145,0.627021,0.07737,-1.45622,-0.132778,2.01548,0.614909
1.21145,0.627023,0.077369,-1.45621,-0.132778,2.01547,0.614905
1.21145,0.627018,0.077368,-1.45621,-0.132776,2.01547,0.614908
1.21145,0.627018,0.077366,-1.45621,-0.132774,2.01548,0.614907
1.21145,0.627015,0.077366,-1.45621,-0.132777,2.01547,0.614902
1.21145,0.627016,0.077368,-1.45622,-0.132778,2.01548,0.614906
1.21145,0.627017,0.077368,-1.45621,-0.132779,2.01548,0.614906
1.21145,0.627012,0.077367,-1.45621,-0.132777,2.01548,0.614904
1.21145,0.627018,0.077371,-1.45621,-0.132778,2.01548,0.614907
1.21145,0.627018,0.077368,-1.45621,-0.132778,2.01548,0.614907
1.21145,0.627015,0.077365,-1.45621,-0.132776,2.01548,0.614905
1.21145,0.627015,0.077368,-1.45621,-0.132775,2.01548,0.614908
1.21145,0.627015,0.07737,-1.45621,-0.132777,2.01548,0.614908
1.21145,0.627013,0.077368,-1.45622,-0.132775,2.01548,0.61491
1.21146,0.62701,0.07737,-1.45621,-0.132777,2.01548,0.614908
1.21145,0.627015,0.077368,-1.45622,-0.132778,2.01547,0.614911
1.21146,0.627013,0.07737,-1.45621,-0.132774,2.01548,0.614905
1.21145,0.62701,0.077375,-1.45621,-0.132777,2.01547,0.614906
1.21146,0.62701,0.077369,-1.45621,-0.132775,2.01547,0.614905
1.21146,0.627013,0.077365,-1.45621,-0.132774,2.01548,0.614902
1.21145,0.627007,0.077368,-1.45621,-0.132774,2.01548,0.614907
1.21146,0.627012,0.077368,-1.45621,-0.132777,2.01548,0.614907
1.21145,0.627003,0.077373,-1.45622,-0.132774,2.01548,0.614905
1.21146,0.627008,0.077371,-1.45622,-0.132774,2.01548,0.614907
1.21145,0.627008,0.077362,-1.45621,-0.132773,2.01548,0.614907
1.21146,0.627007,0.077368,-1.45622,-0.132773,2.01548,0.614905
1.21146,0.627005,0.07737,-1.45621,-0.132777,2.01548,0.614905
1.21145,0.62701,0.077373,-1.45621,-0.132775,2.01548,0.614905
1.21146,0.627002,0.077368,-1.45621,-0.132774,2.01548,0.614905
1.21146,0.627005,0.077373,-1.45622,-0.132773,2.01547,0.614908
1.21146,0.627002,0.077376,-1.45621,-0.132773,2.01547,0.614904
1.21146,0.627005,0.077373,-1.45621,-0.132777,2.01547,0.614908
1.21146,0.627005,0.077378,-1.45621,-0.132778,2.01548,0.614909
1.21145,0.627,0.077373,-1.45621,-0.132774,2.01547,0.614904
1.21145,0.627002,0.077376,-1.45621,-0.132778,2.01548,0.614908
1.21146,0.627,0.077373,-1.45621,-0.132778,2.01548,0.614906
1.21146,0.627,0.077376,-1.45621,-0.132779,2.01547,0.614905
1.21146,0.627002,0.077378,-1.45621,-0.132775,2.01548,0.614904
1.21146,0.627,0.077376,-1.45621,-0.132778,2.01548,0.614904
1.21145,0.627002,0.077376,-1.45621,-0.132778,2.01548,0.614904
1.21146,0.626998,0.07737,-1.45621,-0.132778,2.01548,0.614907
1.21146,0.626995,0.077373,-1.45621,-0.132774,2.01548,0.614911
1.21146,0.626999,0.077373,-1.45621,-0.132777,2.01548,0.614905
1.21146,0.626995,0.077378,-1.45621,-0.132775,2.01548,0.61491
1.21146,0.626995,0.077373,-1.4562,-0.132778,2.01547,0.614907
1.21146,0.626997,0.077376,-1.45621,-0.132775,2.01547,0.614905
1.21146,0.626997,0.077373,-1.4562,-0.132777,2.01548,0.614906
1.21146,0.626994,0.077374,-1.45621,-0.132775,2.01548,0.614901
1.21146,0.626994,0.077378,-1.45621,-0.132778,2.01548,0.614909
1.21146,0.626994,0.077373,-1.45621,-0.132778,2.01548,0.61491
1.21146,0.626992,0.077376,-1.45621,-0.132776,2.01548,0.614905
1.21146,0.626992,0.077378,-1.4562,-0.132775,2.01548,0.614909
1.21147,0.626994,0.077376,-1.45621,-0.132777,2.01548,0.614908
1.21146,0.626987,0.077378,-1.45621,-0.132774,2.01548,0.614903
1.21147,0.626992,0.077376,-1.4562,-0.132774,2.01548,0.614907
1.21146,0.626989,0.077376,-1.45621,-0.132774,2.01548,0.614909
1.21146,0.626989,0.077381,-1.4562,-0.132773,2.01548,0.614904
1.21146,0.626992,0.077376,-1.45621,-0.132773,2.01548,0.614906
1.21145,0.626989,0.077373,-1.45621,-0.132773,2.01548,0.614905
1.21147,0.626992,0.077378,-1.4562,-0.132777,2.01548,0.614905
1.21146,0.626989,0.077376,-1.45621,-0.132774,2.01548,0.614909
1.21146,0.626989,0.077378,-1.45621,-0.132774,2.01548,0.614904
1.21146,0.626994,0.077376,-1.45621,-0.132773,2.01548,0.614908
1.21147,0.626994,0.077376,-1.4562,-0.132773,2.01548,0.614911
1.21146,0.626992,0.077378,-1.4562,-0.132774,2.01548,0.614906
1.21146,0.626989,0.077378,-1.4562,-0.132773,2.01547,0.614907
1.21146,0.626994,0.077381,-1.4562,-0.132777,2.01547,0.614908
1.21147,0.626992,0.077381,-1.45621,-0.132774,2.01547,0.614909
1.21147,0.626997,0.077376,-1.45621,-0.132777,2.01548,0.614907
1.21147,0.626992,0.077381,-1.45621,-0.132778,2.01548,0.614907
1.21147,0.626994,0.077378,-1.4562,-0.132779,2.01548,0.614905
1.21146,0.626992,0.077381,-1.45621,-0.132779,2.01548,0.614908
1.21147,0.626992,0.077379,-1.45621,-0.132779,2.01548,0.614905
1.21147,0.626992,0.077384,-1.4562,-0.132776,2.01548,0.614903
1.21147,0.626989,0.077381,-1.45621,-0.132773,2.01548,0.614905
1.21147,0.626994,0.077378,-1.45621,-0.132774,2.01548,0.614902
1.21147,0.626994,0.077383,-1.45621,-0.132777,2.01548,0.614905
1.21147,0.626989,0.077376,-1.45621,-0.132775,2.01547,0.614907
1.21146,0.626997,0.077381,-1.45621,-0.132774,2.01547,0.614903
1.21147,0.626992,0.077381,-1.45621,-0.132773,2.01548,0.61491
1.21147,0.626992,0.077386,-1.45621,-0.132773,2.01548,0.61491
1.21147,0.626994,0.077381,-1.45621,-0.132773,2.01548,0.614907
1.21147,0.627,0.077382,-1.45621,-0.132777,2.01548,0.61491
1.21146,0.626997,0.077379,-1.45621,-0.132778,2.01548,0.614908
1.21147,0.627,0.077381,-1.45621,-0.132777,2.01548,0.614906
1.21147,0.626994,0.077381,-1.45621,-0.132779,2.01547,0.614906
1.21147,0.627,0.077378,-1.45621,-0.132776,2.01548,0.614907
1.21147,0.626997,0.077378,-1.45621,-0.132778,2.01548,0.614906
1.21147,0.626997,0.077381,-1.45621,-0.132776,2.01548,0.614913
1.21146,0.627002,0.077384,-1.45621,-0.132776,2.01548,0.614908
1.21147,0.627002,0.07738,-1.45621,-0.132778,2.01548,0.61491
1.21147,0.627,0.077381,-1.4562,-0.132775,2.01548,0.614909
1.21147,0.626999,0.077377,-1.45621,-0.132778,2.01548,0.614906
1.21147,0.627002,0.077375,-1.45621,-0.132775,2.01547,0.614905
1.21147,0.627002,0.077377,-1.4562,-0.132778,2.01548,0.614907
1.21147,0.627,0.077378,-1.4562,-0.132775,2.01548,0.614906
1.21147,0.627,0.077376,-1.45621,-0.132774,2.01548,0.614907
1.21146,0.627,0.077378,-1.45621,-0.132773,2.01548,0.614908
1.21147,0.627002,0.077376,-1.45621,-0.132777,2.01548,0.614903
1.21147,0.627002,0.07738,-1.45621,-0.132774,2.01548,0.614906
1.21147,0.627005,0.077374,-1.45621,-0.132774,2.01548,0.614907
1.21147,0.627005,0.077379,-1.45621,-0.132775,2.01548,0.614903
1.21146,0.627005,0.077378,-1.45621,-0.132774,2.01548,0.614907
1.21147,0.627005,0.077374,-1.45621,-0.132774,2.01548,0.614905
1.21146,0.627007,0.077376,-1.45621,-0.132773,2.01548,0.614902
1.21147,0.62701,0.077376,-1.45621,-0.132775,2.01548,0.61491
1.21147,0.62701,0.077378,-1.45621,-0.132777,2.01548,0.614907
1.21147,0.627007,0.077376,-1.45621,-0.132775,2.01548,0.614905
1.21146,0.627013,0.077376,-1.45621,-0.132778,2.01548,0.614907
1.21146,0.62701,0.077373,-1.45621,-0.132775,2.01548,0.614908
1.21146,0.627015,0.07738,-1.45621,-0.132774,2.01548,0.614904
1.21146,0.627015,0.077376,-1.45621,-0.132773,2.01548,0.61491
1.21146,0.627016,0.077371,-1.45621,-0.132773,2.01548,0.614911
1.21146,0.627018,0.077371,-1.45621,-0.132774,2.01548,0.614904
1.21146,0.627014,0.077368,-1.45621,-0.132773,2.01548,0.614909
1.21146,0.627016,0.077371,-1.45621,-0.132774,2.01548,0.614907
1.21146,0.627018,0.077373,-1.45621,-0.132774,2.01548,0.614906
1.21146,0.627018,0.077375,-1.45621,-0.132774,2.01548,0.614909
1.21146,0.627013,0.077374,-1.45621,-0.132773,2.01548,0.614905
1.21146,0.627017,0.077371,-1.45621,-0.132777,2.01547,0.614911
1.21145,0.627021,0.077373,-1.45622,-0.132778,2.01547,0.61491
1.21146,0.627018,0.077375,-1.45621,-0.132776,2.01548,0.614905
1.21145,0.627015,0.077371,-1.45621,-0.132778,2.01548,0.614905
1.21145,0.627018,0.077371,-1.45621,-0.132778,2.01548,0.614903
1.21145,0.627021,0.077371,-1.45622,-0.132776,2.01548,0.614903
1.21146,0.627015,0.077368,-1.45622,-0.132775,2.01548,0.614905
1.21146,0.627018,0.077372,-1.45621,-0.132775,2.01548,0.614907
1.21145,0.627018,0.077368,-1.45621,-0.132775,2.01548,0.614908
1.21146,0.627013,0.077373,-1.45621,-0.132773,2.01547,0.614908
1.21145,0.627015,0.07737,-1.45622,-0.132777,2.01548,0.614904
1.21145,0.62702,0.077373,-1.45622,-0.132778,2.01547,0.614906
1.21146,0.627019,0.077368,-1.45622,-0.132779,2.01548,0.614907
1.21145,0.627018,0.077368,-1.45621,-0.132775,2.01548,0.614906
1.21146,0.627015,0.07737,-1.45621,-0.132774,2.01548,0.61491
1.21145,0.627023,0.077368,-1.45621,-0.132777,2.01548,0.614908
1.21146,0.627021,0.07737,-1.45621,-0.132774,2.01548,0.614905
1.21146,0.627021,0.077368,-1.45622,-0.132773,2.01548,0.614908
1.21146,0.627022,0.07737,-1.45622,-0.132777,2.01548,0.614912
1.21146,0.627021,0.077373,-1.45621,-0.132775,2.01548,0.614905
1.21146,0.627024,0.077368,-1.45621,-0.132774,2.01548,0.614909
1.21146,0.627023,0.077373,-1.45622,-0.132774,2.01548,0.614908
1.21145,0.627021,0.077368,-1.45621,-0.132775,2.01548,0.614905
1.21146,0.627019,0.077365,-1.45621,-0.132773,2.01548,0.614907
1.21146,0.627016,0.07737,-1.45621,-0.132774,2.01548,0.614905
1.21145,0.627018,0.077368,-1.45621,-0.132777,2.01548,0.614907
1.21146,0.627017,0.07737,-1.45621,-0.132775,2.01548,0.614909
1.21146,0.627019,0.07737,-1.45621,-0.132774,2.01548,0.614902
1.21145,0.627021,0.077368,-1.45621,-0.132774,2.01548,0.614908
1.21146,0.627015,0.077376,-1.45621,-0.132777,2.01548,0.614907
1.21146,0.62702,0.077368,-1.45621,-0.132775,2.01548,0.614906
1.21145,0.627021,0.07737,-1.45621,-0.132776,2.01548,0.614908
1.21146,0.62702,0.077373,-1.45621,-0.132775,2.01548,0.614906
1.21146,0.627018,0.077363,-1.45621,-0.132775,2.01548,0.614904
1.21146,0.627021,0.07737,-1.45621,-0.132773,2.01548,0.614906
1.21145,0.627018,0.07737,-1.45622,-0.132775,2.01548,0.614907
1.21146,0.627024,0.077371,-1.45621,-0.132774,2.01548,0.614908
1.21146,0.627018,0.077372,-1.45621,-0.132777,2.01548,0.614909
1.21146,0.627015,0.077376,-1.45621,-0.132776,2.01548,0.614903
1.21145,0.627019,0.077373,-1.45621,-0.132778,2.01548,0.61491
1.21146,0.627018,0.077373,-1.45621,-0.132778,2.01548,0.614908
1.21146,0.627016,0.07737,-1.45621,-0.132776,2.01548,0.614905
1.21146,0.62702,0.077373,-1.45621,-0.132777,2.01548,0.614909
1.21145,0.627014,0.07737,-1.45621,-0.132775,2.01548,0.614907
1.21146,0.627013,0.077373,-1.45621,-0.132774,2.01548,0.614905
1.21146,0.627012,0.077374,-1.45621,-0.132774,2.01547,0.614909
1.21146,0.627013,0.077372,-1.45621,-0.132773,2.01548,0.614908
1.21146,0.627013,0.077376,-1.45621,-0.132775,2.01548,0.614905
1.21146,0.627013,0.077373,-1.45621,-0.132775,2.01548,0.61491
1.21146,0.627011,0.07738,-1.45621,-0.132774,2.01548,0.614908
1.21146,0.62701,0.077374,-1.45621,-0.132774,2.01548,0.614906
1.21146,0.627011,0.077375,-1.45621,-0.132773,2.01548,0.614909
1.21146,0.627016,0.077379,-1.45621,-0.132773,2.01548,0.614906
1.21146,0.627012,0.077376,-1.45621,-0.132773,2.01547,0.614904
1.21146,0.627011,0.077368,-1.45621,-0.132773,2.01548,0.614908
1.21146,0.62701,0.077378,-1.45621,-0.132777,2.01548,0.614906
1.21146,0.62701,0.077378,-1.45621,-0.132774,2.01548,0.61491
1.21146,0.62701,0.077376,-1.45621,-0.132777,2.01548,0.614907
1.21146,0.627016,0.077373,-1.45621,-0.132775,2.01548,0.614903
1.21146,0.627011,0.077373,-1.45621,-0.132774,2.01548,0.614904
1.21146,0.627008,0.077373,-1.45621,-0.132777,2.01548,0.614908
1.21146,0.627008,0.077373,-1.45621,-0.132776,2.01548,0.614907
1.21146,0.627008,0.077373,-1.45621,-0.132778,2.01548,0.614904
1.21146,0.627007,0.077373,-1.45622,-0.132775,2.01548,0.614908
1.21147,0.627008,0.077376,-1.45622,-0.132774,2.01548,0.614905
1.21146,0.627002,0.077378,-1.45621,-0.132775,2.01548,0.614907
1.21146,0.62701,0.077373,-1.45621,-0.132773,2.01548,0.614908
1.21146,0.627006,0.077378,-1.45621,-0.132774,2.01548,0.614903
1.21146,0.627005,0.077373,-1.45621,-0.132773,2.01548,0.614907
1.21146,0.627005,0.077378,-1.45622,-0.132773,2.01548,0.614906
1.21146,0.62701,0.077376,-1.45621,-0.132776,2.01548,0.614903
1.21146,0.627007,0.077376,-1.45621,-0.132774,2.01547,0.614907
1.21146,0.627005,0.077371,-1.45621,-0.132774,2.01548,0.614908
1.21146,0.627005,0.077376,-1.45621,-0.132775,2.01548,0.614904
1.21146,0.627,0.077378,-1.45621,-0.132775,2.01548,0.614909
1.21146,0.627002,0.077378,-1.45621,-0.132775,2.01548,0.61491
1.21146,0.627007,0.077373,-1.45621,-0.132777,2.01548,0.614907
1.21146,0.626998,0.077376,-1.45621,-0.132774,2.01548,0.614913
1.21146,0.627005,0.077376,-1.45621,-0.132775,2.01548,0.61491
1.21146,0.627003,0.077376,-1.45621,-0.132774,2.01548,0.61491
1.21146,0.626997,0.077376,-1.45621,-0.132775,2.01548,0.614907
1.21146,0.627002,0.077376,-1.45621,-0.132775,2.01548,0.614908
1.21146,0.627003,0.077373,-1.45621,-0.132773,2.01548,0.614911
1.21146,0.626998,0.07737,-1.45621,-0.132777,2.01548,0.614907
1.21146,0.627,0.077373,-1.45621,-0.132775,2.01548,0.614906
1.21146,0.627,0.077378,-1.45621,-0.132774,2.01548,0.614907
1.21146,0.626997,0.077374,-1.45621,-0.132773,2.01548,0.614908
1.21146,0.626997,0.077373,-1.4562,-0.132774,2.01547,0.614907
1.21146,0.627,0.077373,-1.4562,-0.132774,2.01548,0.614908
1.21146,0.627004,0.077373,-1.45621,-0.132773,2.01548,0.614907
1.21146,0.626998,0.077373,-1.45621,-0.132774,2.01548,0.614901
1.21146,0.626995,0.077373,-1.45621,-0.132774,2.01548,0.614908
1.21146,0.626992,0.077373,-1.45621,-0.132777,2.01548,0.614904
1.21146,0.627,0.077376,-1.45621,-0.132776,2.01548,0.614903
1.21145,0.626997,0.077376,-1.45621,-0.132774,2.01548,0.614907
1.21146,0.626994,0.077376,-1.45621,-0.132777,2.01548,0.614902
1.21146,0.627,0.07737,-1.45621,-0.132774,2.01548,0.614909
1.21146,0.626997,0.07737,-1.45621,-0.132776,2.01548,0.614911
1.21146,0.627,0.07737,-1.45621,-0.132775,2.01548,0.614904
1.21146,0.627,0.077373,-1.45621,-0.132774,2.01548,0.614909
1.21146,0.626997,0.077376,-1.45621,-0.132773,2.01548,0.614905
1.21146,0.626997,0.077378,-1.45621,-0.132773,2.01548,0.614905
1.21145,0.626992,0.077373,-1.45621,-0.132775,2.01548,0.614908
1.21146,0.626994,0.077373,-1.45621,-0.132774,2.01548,0.614911
1.21146,0.626997,0.07737,-1.45621,-0.132775,2.01548,0.614905
1.21146,0.626994,0.07737,-1.45621,-0.132777,2.01548,0.614909
1.21146,0.626997,0.077373,-1.4562,-0.132778,2.01548,0.614907
1.21146,0.626997,0.077376,-1.45621,-0.132776,2.01548,0.61491
1.21146,0.626997,0.077378,-1.45621,-0.132773,2.01548,0.614912
1.21146,0.626997,0.077373,-1.45621,-0.132778,2.01548,0.614905
1.21146,0.626997,0.077373,-1.45621,-0.132779,2.01548,0.61491
1.21146,0.627002,0.077373,-1.45621,-0.132778,2.01548,0.614907
1.21146,0.627,0.077373,-1.4562,-0.132776,2.01548,0.614909
1.21146,0.627,0.077378,-1.45621,-0.132774,2.01548,0.614908
1.21146,0.626992,0.07737,-1.45621,-0.132777,2.01548,0.61491
1.21146,0.627,0.077378,-1.45621,-0.132779,2.01548,0.614909
1.21146,0.626997,0.077371,-1.45621,-0.132779,2.01548,0.614908
1.21146,0.626994,0.07737,-1.45621,-0.132776,2.01548,0.614907
1.21146,0.627,0.07737,-1.45621,-0.132775,2.01548,0.614906
1.21146,0.627,0.077373,-1.45621,-0.132773,2.01548,0.614908
1.21146,0.627005,0.077368,-1.45621,-0.132774,2.01548,0.614905
1.21146,0.627002,0.077372,-1.45621,-0.132777,2.01548,0.61491
1.21146,0.627002,0.07737,-1.45621,-0.132778,2.01548,0.614909
1.21146,0.627,0.077373,-1.45621,-0.132779,2.01547,0.614906
1.21146,0.627002,0.077373,-1.45621,-0.132776,2.01548,0.614909
1.21146,0.626997,0.077376,-1.45621,-0.132775,2.01548,0.614906
1.21146,0.627002,0.077375,-1.45621,-0.132777,2.01548,0.614906
1.21146,0.627002,0.077374,-1.45621,-0.132778,2.01548,0.614909
1.21146,0.627007,0.077373,-1.4562,-0.132779,2.01548,0.614903
1.21146,0.627003,0.077368,-1.45621,-0.132776,2.01548,0.614909
1.21145,0.627002,0.07737,-1.45621,-0.132774,2.01548,0.614908
1.21146,0.627005,0.077371,-1.45621,-0.132774,2.01548,0.61491
1.21146,0.627007,0.07737,-1.45621,-0.132774,2.01548,0.614907
1.21146,0.627005,0.077373,-1.45621,-0.132774,2.01548,0.614912
1.21146,0.627002,0.077376,-1.45621,-0.132777,2.01548,0.61491
1.21146,0.627007,0.07737,-1.45621,-0.132775,2.01548,0.614909
1.21146,0.62701,0.077376,-1.45621,-0.132778,2.01548,0.614909
1.21146,0.627005,0.077373,-1.45621,-0.132776,2.01548,0.614907
1.21146,0.627005,0.077371,-1.4562,-0.132774,2.01548,0.61491
1.21146,0.627007,0.077375,-1.45621,-0.132775,2.01548,0.614908
1.21146,0.627005,0.07737,-1.45621,-0.132773,2.01548,0.614909
1.21146,0.627007,0.07737,-1.45621,-0.132778,2.01548,0.614908
1.21146,0.627007,0.077368,-1.45621,-0.132778,2.01548,0.61491
1.21146,0.627007,0.077375,-1.45621,-0.132776,2.01548,0.614907
1.21146,0.627008,0.07737,-1.45621,-0.132774,2.01548,0.614906
1.21146,0.62701,0.077373,-1.45621,-0.132777,2.01548,0.614906
1.21146,0.62701,0.077376,-1.45621,-0.132775,2.01548,0.614905
1.21146,0.627013,0.077376,-1.45621,-0.132774,2.01548,0.614907
1.21146,0.62701,0.077373,-1.45621,-0.132774,2.01548,0.614905
1.21146,0.627012,0.077373,-1.45621,-0.132777,2.01548,0.614904
1.21146,0.627016,0.07737,-1.45621,-0.132778,2.01548,0.614905
1.21146,0.627011,0.07737,-1.45621,-0.132779,2.01548,0.614902
1.21146,0.627021,0.077373,-1.45621,-0.132776,2.01548,0.614907
1.21146,0.627011,0.077373,-1.45621,-0.132775,2.01548,0.614906
1.21146,0.627008,0.077378,-1.45621,-0.132777,2.01547,0.614908
1.21146,0.62701,0.07737,-1.45621,-0.132774,2.01548,0.614908
1.21146,0.62701,0.077373,-1.45621,-0.132774,2.01548,0.614908
1.21146,0.627013,0.077378,-1.45621,-0.132774,2.01548,0.614908
1.21146,0.627012,0.07737,-1.45621,-0.132774,2.01548,0.614909
1.21146,0.627013,0.077373,-1.45621,-0.132777,2.01548,0.614908
1.21146,0.627011,0.077376,-1.45621,-0.132775,2.01548,0.614903
1.21146,0.627011,0.077373,-1.45621,-0.132775,2.01548,0.614911
1.21146,0.627013,0.077374,-1.45622,-0.132775,2.01548,0.61491
1.21146,0.627015,0.07737,-1.45621,-0.132773,2.01548,0.614907
1.21145,0.627015,0.077373,-1.45621,-0.132777,2.01548,0.614909
1.21147,0.62702,0.077371,-1.45621,-0.132777,2.01548,0.614905
1.21146,0.627016,0.07738,-1.45621,-0.132776,2.01548,0.614907
1.21146,0.627018,0.077371,-1.45621,-0.132777,2.01548,0.61491
1.21146,0.627018,0.077373,-1.45621,-0.132778,2.01548,0.614904
1.21146,0.62702,0.077376,-1.45621,-0.132778,2.01548,0.614907
1.21147,0.627016,0.077373,-1.45621,-0.132775,2.01548,0.614905
1.21146,0.627016,0.077376,-1.45621,-0.132778,2.01548,0.614903
1.21146,0.62702,0.077372,-1.45621,-0.132779,2.01548,0.614906
1.21146,0.627021,0.07737,-1.45621,-0.132779,2.01548,0.614907
1.21146,0.627016,0.077376,-1.45621,-0.132776,2.01548,0.614903
1.21146,0.627018,0.077373,-1.45621,-0.132775,2.01548,0.614906
1.21145,0.627021,0.07737,-1.45621,-0.132777,2.01548,0.614905
1.21146,0.627015,0.07738,-1.45621,-0.132778,2.01548,0.614902
1.21147,0.627018,0.077379,-1.45621,-0.132779,2.01548,0.614906
1.21146,0.627018,0.077373,-1.45621,-0.132779,2.01548,0.614902
1.21146,0.627017,0.077376,-1.45621,-0.132778,2.01548,0.614905
1.21146,0.627018,0.077373,-1.45621,-0.132776,2.01548,0.61491
1.21146,0.627021,0.077376,-1.45621,-0.132775,2.01548,0.614904
1.21146,0.627019,0.07737,-1.45621,-0.132774,2.01548,0.614907
1.21146,0.627018,0.077376,-1.45622,-0.132774,2.01548,0.614906
1.21146,0.627015,0.077374,-1.45621,-0.132774,2.01548,0.614909
1.21146,0.627016,0.077375,-1.45621,-0.132774,2.01548,0.614908
1.21146,0.627016,0.07737,-1.45621,-0.132778,2.01548,0.614911
1.21147,0.627015,0.077373,-1.45621,-0.132776,2.01548,0.614904
1.21147,0.627016,0.077368,-1.45621,-0.132774,2.01548,0.614906
1.21146,0.627016,0.077375,-1.45621,-0.132774,2.01548,0.614905
1.21146,0.627017,0.077376,-1.45621,-0.132775,2.01548,0.614905
1.21146,0.627021,0.077373,-1.45621,-0.132773,2.01548,0.614908
1.21147,0.627018,0.077378,-1.45621,-0.132774,2.01548,0.614907
1.21146,0.627016,0.077373,-1.45621,-0.132774,2.01548,0.614911
1.21146,0.627021,0.077376,-1.45621,-0.132778,2.01548,0.614909
1.21146,0.627022,0.077375,-1.45621,-0.132778,2.01548,0.614908
1.21146,0.627016,0.077376,-1.45621,-0.132779,2.01548,0.614906
1.21147,0.62702,0.077375,-1.45621,-0.132776,2.01548,0.614907
1.21146,0.627016,0.077381,-1.45621,-0.132778,2.01548,0.614905
1.21146,0.627019,0.077376,-1.45621,-0.132772,2.01548,0.614906
1.21146,0.627018,0.077378,-1.45621,-0.132772,2.01548,0.614909
1.21146,0.627016,0.077378,-1.45621,-0.132774,2.01548,0.614903
1.21146,0.627018,0.077378,-1.45621,-0.132776,2.01548,0.614906
1.21146,0.627011,0.077384,-1.45621,-0.132777,2.01548,0.614907
1.21147,0.627011,0.077384,-1.45621,-0.132775,2.01548,0.614902
1.21147,0.627015,0.077384,-1.45621,-0.132777,2.01548,0.614906
1.21147,0.627016,0.077386,-1.4562,-0.132775,2.01548,0.614904
1.21147,0.627014,0.077387,-1.45621,-0.132776,2.01548,0.614906
1.21147,0.627015,0.077386,-1.45621,-0.132775,2.01548,0.614907
1.21147,0.627016,0.077388,-1.45621,-0.132773,2.01548,0.614902
1.21148,0.627011,0.077387,-1.45621,-0.132776,2.01548,0.614905
1.21147,0.627013,0.077394,-1.45621,-0.132774,2.01548,0.614906
1.21148,0.627013,0.077394,-1.45621,-0.132774,2.01548,0.614906
1.21148,0.627014,0.077395,-1.45621,-0.132773,2.01548,0.614906
1.21148,0.627008,0.077396,-1.45621,-0.132773,2.01549,0.614909
1.21148,0.627015,0.077397,-1.45621,-0.132776,2.01549,0.614906
1.21148,0.627016,0.077402,-1.45621,-0.132778,2.01549,0.614903
1.21148,0.62701,0.077402,-1.45621,-0.132776,2.01549,0.614907
1.21148,0.627015,0.077408,-1.45621,-0.132774,2.01548,0.614904
1.21149,0.627013,0.077406,-1.45621,-0.132771,2.01548,0.614908
1.21148,0.627016,0.077408,-1.45621,-0.132775,2.01548,0.614908
1.21149,0.627013,0.077408,-1.45621,-0.132773,2.01548,0.614906
1.21149,0.627011,0.077409,-1.45621,-0.132775,2.01548,0.614907
1.2115,0.627015,0.077412,-1.45621,-0.132773,2.01548,0.614909
1.21149,0.627014,0.077413,-1.45621,-0.132774,2.01548,0.614906
1.2115,0.627015,0.077419,-1.45621,-0.132773,2.01548,0.614907
1.2115,0.627013,0.077416,-1.45621,-0.132775,2.01548,0.614907
1.2115,0.627014,0.077417,-1.45621,-0.132774,2.01548,0.614902
1.2115,0.627016,0.077419,-1.45621,-0.132772,2.01548,0.614911
1.2115,0.627018,0.077419,-1.45621,-0.132772,2.01548,0.614904
1.21151,0.627013,0.077417,-1.45621,-0.132772,2.01548,0.614908
1.21151,0.627013,0.077425,-1.45621,-0.132773,2.01548,0.614908
1.21151,0.627013,0.077427,-1.45621,-0.132773,2.01548,0.614903
1.21151,0.627018,0.077423,-1.45621,-0.132773,2.01548,0.614906
1.21151,0.627018,0.077422,-1.45621,-0.132772,2.01548,0.614905
1.21152,0.627017,0.077428,-1.45621,-0.132773,2.01549,0.614906
1.21151,0.627016,0.077426,-1.45621,-0.132776,2.01548,0.614903
1.21152,0.627021,0.07743,-1.45621,-0.132778,2.01548,0.614903
1.21152,0.627016,0.077434,-1.45621,-0.132773,2.01548,0.614905
1.21152,0.627023,0.077436,-1.45622,-0.132773,2.01548,0.614905
1.21152,0.627016,0.077434,-1.45621,-0.132773,2.01548,0.614907
1.21152,0.627018,0.077434,-1.45621,-0.132772,2.01548,0.614903
1.21152,0.627016,0.077437,-1.45621,-0.132773,2.01548,0.614907
1.21153,0.627018,0.077435,-1.45621,-0.132773,2.01548,0.614902
1.21152,0.62702,0.07744,-1.45621,-0.132775,2.01548,0.614906
1.21153,0.627013,0.077439,-1.45621,-0.13277,2.01549,0.614907
1.21152,0.62701,0.077443,-1.45622,-0.132775,2.01548,0.614903
1.21153,0.627015,0.077445,-1.45621,-0.132776,2.01548,0.614908
1.21153,0.627015,0.077445,-1.45621,-0.132773,2.01549,0.614907
1.21154,0.627018,0.077446,-1.45621,-0.132776,2.01549,0.614905
1.21154,0.627016,0.077451,-1.45621,-0.132773,2.01548,0.614911
1.21153,0.627016,0.077448,-1.45621,-0.132772,2.01548,0.614907
1.21154,0.627013,0.077452,-1.45621,-0.132771,2.01548,0.614908
1.21154,0.627017,0.077449,-1.45621,-0.132775,2.01548,0.61491
1.21154,0.627013,0.077454,-1.45621,-0.132776,2.01549,0.614907
1.21154,0.627016,0.077454,-1.45621,-0.132776,2.01548,0.614905
1.21155,0.627021,0.077462,-1.45621,-0.132774,2.01548,0.614911
1.21154,0.627013,0.07746,-1.45621,-0.132776,2.01548,0.614905
1.21155,0.627014,0.07746,-1.45621,-0.132774,2.01548,0.614908
1.21155,0.627013,0.07746,-1.45621,-0.132775,2.01548,0.614908
1.21155,0.627011,0.077463,-1.45621,-0.132773,2.01548,0.614904
1.21155,0.627013,0.077471,-1.45621,-0.132776,2.01548,0.614908
1.21155,0.627012,0.077467,-1.45621,-0.132776,2.01548,0.614905
1.21155,0.627016,0.077464,-1.45621,-0.13277,2.01548,0.614904
1.21155,0.627008,0.077466,-1.45621,-0.13277,2.01548,0.614909
1.21156,0.627013,0.077469,-1.45621,-0.13277,2.01548,0.614907
1.21155,0.627013,0.077467,-1.45621,-0.132771,2.01548,0.614902
1.21155,0.627012,0.077469,-1.45621,-0.13277,2.01548,0.614909
1.21156,0.627013,0.07747,-1.45621,-0.132771,2.01548,0.614906
1.21155,0.627011,0.077469,-1.45621,-0.132771,2.01548,0.614905
1.21156,0.627008,0.077475,-1.45621,-0.13277,2.01548,0.614907
1.21155,0.627008,0.077472,-1.45621,-0.13277,2.01548,0.614902
1.21155,0.627007,0.077475,-1.45621,-0.132774,2.01548,0.614903
1.21156,0.627012,0.077475,-1.45621,-0.132771,2.01548,0.614905
1.21156,0.62701,0.077471,-1.45621,-0.13277,2.01549,0.614902
1.21156,0.627006,0.077471,-1.45622,-0.132771,2.01548,0.614906
1.21155,0.627011,0.077479,-1.45621,-0.132774,2.01548,0.614907
1.21155,0.627013,0.077473,-1.45622,-0.132776,2.01548,0.614903
1.21155,0.627007,0.07747,-1.45621,-0.132775,2.01548,0.614909
1.21155,0.627007,0.077469,-1.45622,-0.132772,2.01548,0.614904
1.21155,0.627008,0.077473,-1.45621,-0.132771,2.01548,0.614906
1.21155,0.627005,0.077474,-1.45622,-0.132771,2.01548,0.61491
1.21155,0.627005,0.077474,-1.45622,-0.13277,2.01548,0.614906
1.21155,0.627007,0.077474,-1.45622,-0.13277,2.01548,0.614905
1.21155,0.627005,0.077476,-1.45622,-0.132775,2.01548,0.614909
1.21156,0.627007,0.077474,-1.45622,-0.132772,2.01548,0.614907
1.21155,0.627002,0.077472,-1.45622,-0.132774,2.01548,0.61491
1.21155,0.627005,0.077473,-1.45622,-0.132773,2.01548,0.614904
1.21155,0.627005,0.077474,-1.45622,-0.132771,2.01548,0.614909
1.21155,0.627007,0.077469,-1.45621,-0.132771,2.01548,0.614905
1.21155,0.627006,0.077466,-1.45622,-0.13277,2.01548,0.614907
1.21155,0.627005,0.077466,-1.45622,-0.132774,2.01548,0.614908
1.21155,0.627006,0.077467,-1.45622,-0.132776,2.01548,0.614906
1.21156,0.627005,0.07747,-1.45622,-0.132771,2.01548,0.614906
1.21155,0.62701,0.077466,-1.45621,-0.132771,2.01548,0.614909
1.21155,0.627005,0.077471,-1.45622,-0.132771,2.01548,0.614906
1.21155,0.627007,0.077471,-1.45622,-0.132771,2.01548,0.614909
1.21155,0.627007,0.077471,-1.45622,-0.132771,2.01548,0.614908
1.21155,0.627005,0.077471,-1.45622,-0.132769,2.01548,0.614903
1.21155,0.627007,0.077471,-1.45622,-0.13277,2.01548,0.614909
1.21155,0.627002,0.077469,-1.45622,-0.132773,2.01548,0.614909
1.21155,0.627005,0.077474,-1.45622,-0.132776,2.01548,0.614903
1.21155,0.62701,0.077469,-1.45621,-0.132771,2.01548,0.614907
1.21155,0.627006,0.077471,-1.45622,-0.13277,2.01548,0.614904
1.21155,0.627008,0.077469,-1.45622,-0.132769,2.01548,0.614906
1.21155,0.62701,0.077466,-1.45622,-0.13277,2.01548,0.614906
1.21155,0.627007,0.077474,-1.45622,-0.132772,2.01548,0.614907
1.21155,0.627005,0.077471,-1.45622,-0.132771,2.01548,0.614902
1.21155,0.627012,0.077469,-1.45622,-0.132768,2.01547,0.614911
1.21155,0.627013,0.077471,-1.45622,-0.132769,2.01547,0.614908
1.21155,0.627013,0.077469,-1.45622,-0.132768,2.01548,0.614907
1.21155,0.627013,0.077472,-1.45622,-0.132769,2.01548,0.614912
1.21155,0.627015,0.07747,-1.45622,-0.132767,2.01548,0.614904
1.21155,0.627018,0.077468,-1.45622,-0.132768,2.01547,0.614908
1.21155,0.627017,0.077473,-1.45622,-0.132768,2.01548,0.614908
1.21155,0.627016,0.077475,-1.45622,-0.132768,2.01548,0.614903
1.21155,0.627015,0.077477,-1.45623,-0.132768,2.01547,0.614909
1.21155,0.627021,0.077469,-1.45623,-0.132768,2.01547,0.614908
1.21155,0.627023,0.07747,-1.45622,-0.132768,2.01547,0.614906
1.21155,0.627021,0.077466,-1.45622,-0.132768,2.01547,0.614911
1.21155,0.627026,0.077466,-1.45623,-0.132768,2.01547,0.614911
1.21155,0.627027,0.077469,-1.45623,-0.13277,2.01547,0.614904
1.21155,0.627024,0.077466,-1.45623,-0.132769,2.01547,0.614908
1.21155,0.627028,0.077466,-1.45623,-0.132772,2.01547,0.614906
1.21155,0.627029,0.077467,-1.45623,-0.132768,2.01547,0.614908
1.21155,0.627034,0.077465,-1.45624,-0.132768,2.01547,0.614911
1.21155,0.627034,0.077466,-1.45624,-0.132769,2.01547,0.614907
1.21155,0.627034,0.07746,-1.45624,-0.132769,2.01547,0.614906
1.21155,0.627035,0.077466,-1.45624,-0.132768,2.01547,0.614905
1.21154,0.627034,0.077463,-1.45624,-0.132768,2.01547,0.614903
1.21155,0.627041,0.077458,-1.45625,-0.132768,2.01547,0.614911
1.21155,0.627039,0.077466,-1.45625,-0.132768,2.01547,0.614907
1.21155,0.62704,0.077461,-1.45625,-0.132771,2.01546,0.614908
1.21154,0.627047,0.077456,-1.45625,-0.132773,2.01546,0.614906
1.21154,0.627047,0.077456,-1.45625,-0.132771,2.01546,0.614908
1.21153,0.627045,0.077455,-1.45625,-0.13277,2.01547,0.614903
1.21153,0.627052,0.077458,-1.45625,-0.132769,2.01547,0.614908
1.21153,0.627047,0.077453,-1.45625,-0.132769,2.01547,0.614909
1.21153,0.627052,0.077447,-1.45625,-0.132771,2.01547,0.614903
1.21153,0.627055,0.07745,-1.45625,-0.132769,2.01546,0.614909
1.21153,0.627055,0.077445,-1.45626,-0.132768,2.01546,0.614908
1.21153,0.627058,0.077447,-1.45626,-0.132765,2.01546,0.614909
1.21152,0.627061,0.077442,-1.45626,-0.132768,2.01546,0.614909
1.21152,0.627061,0.077445,-1.45626,-0.132768,2.01546,0.614904
1.21152,0.627068,0.077442,-1.45626,-0.132768,2.01546,0.614908
1.21152,0.627069,0.077437,-1.45626,-0.132769,2.01546,0.614906
1.21152,0.627063,0.077439,-1.45626,-0.132768,2.01547,0.614906
1.21152,0.627068,0.077436,-1.45626,-0.132769,2.01547,0.614906
1.21152,0.627066,0.077434,-1.45626,-0.132769,2.01546,0.614911
1.21151,0.627066,0.077431,-1.45626,-0.132768,2.01546,0.614906
1.21151,0.627068,0.077428,-1.45626,-0.13277,2.01546,0.61491
1.21151,0.627068,0.077423,-1.45627,-0.132768,2.01547,0.614908
1.21151,0.627068,0.077423,-1.45626,-0.132769,2.01547,0.614907
1.21151,0.627068,0.07742,-1.45626,-0.132769,2.01546,0.61491
1.21151,0.62707,0.077426,-1.45626,-0.132769,2.01547,0.614907
1.21151,0.627076,0.077417,-1.45626,-0.132768,2.01547,0.614903
1.21151,0.627072,0.077417,-1.45627,-0.132767,2.01546,0.614911
1.21151,0.627073,0.077419,-1.45626,-0.132768,2.01547,0.614904
1.2115,0.627076,0.077414,-1.45627,-0.13277,2.01547,0.614906
1.2115,0.627074,0.077411,-1.45627,-0.132769,2.01547,0.614909
1.21149,0.627074,0.077412,-1.45627,-0.132771,2.01547,0.614905
1.21149,0.627074,0.077406,-1.45626,-0.132775,2.01547,0.614904
1.21149,0.627077,0.077414,-1.45627,-0.132776,2.01547,0.614911
1.21149,0.627074,0.077411,-1.45626,-0.132775,2.01547,0.614906
1.21149,0.627077,0.077404,-1.45627,-0.132774,2.01547,0.614912
1.21149,0.627072,0.077406,-1.45627,-0.132772,2.01546,0.614907
1.21149,0.627074,0.077402,-1.45627,-0.132771,2.01547,0.614902
1.21149,0.627077,0.077397,-1.45627,-0.13277,2.01547,0.614905
1.21147,0.627074,0.077394,-1.45626,-0.132771,2.01547,0.614906
1.21147,0.627077,0.077389,-1.45627,-0.132771,2.01546,0.614906
1.21148,0.627077,0.077394,-1.45627,-0.132771,2.01547,0.61491
1.21147,0.627074,0.077391,-1.45627,-0.132771,2.01547,0.614908
1.21146,0.627072,0.077386,-1.45627,-0.132771,2.01547,0.614908
1.21147,0.627072,0.077381,-1.45627,-0.132772,2.01547,0.61491
1.21146,0.627069,0.07738,-1.45626,-0.132772,2.01547,0.614912
1.21146,0.627066,0.077385,-1.45627,-0.132773,2.01547,0.614906
1.21146,0.627069,0.07738,-1.45627,-0.132771,2.01547,0.61491
1.21146,0.627066,0.077378,-1.45626,-0.132773,2.01547,0.614909
1.21145,0.627066,0.077372,-1.45626,-0.132773,2.01547,0.614904
1.21145,0.627064,0.077371,-1.45626,-0.132772,2.01546,0.61491
1.21145,0.627066,0.077369,-1.45627,-0.132773,2.01547,0.614904
1.21145,0.627061,0.077368,-1.45626,-0.132773,2.01547,0.614905
1.21145,0.627058,0.077366,-1.45626,-0.132776,2.01547,0.614907
1.21144,0.627058,0.077366,-1.45626,-0.132774,2.01547,0.614906
1.21144,0.627061,0.077358,-1.45626,-0.132775,2.01547,0.614911
1.21144,0.627056,0.077357,-1.45626,-0.132773,2.01547,0.614909
1.21144,0.627056,0.077355,-1.45626,-0.132773,2.01547,0.614907
1.21143,0.627056,0.077356,-1.45625,-0.132773,2.01547,0.614906
1.21144,0.627045,0.077357,-1.45625,-0.132773,2.01547,0.614911
1.21143,0.627048,0.077349,-1.45625,-0.132773,2.01547,0.614905
1.21144,0.627048,0.077349,-1.45625,-0.132777,2.01547,0.614907
1.21143,0.627048,0.077346,-1.45625,-0.132776,2.01547,0.614908
1.21142,0.62704,0.077345,-1.45625,-0.132775,2.01547,0.614902
1.21142,0.627043,0.077342,-1.45624,-0.132774,2.01547,0.614906
1.21142,0.62704,0.077343,-1.45625,-0.132776,2.01547,0.614909
1.21142,0.627035,0.077337,-1.45625,-0.132776,2.01547,0.614903
1.21143,0.627032,0.077334,-1.45625,-0.132777,2.01547,0.614907
1.21142,0.62703,0.077331,-1.45623,-0.132778,2.01548,0.614908
1.21142,0.627027,0.077328,-1.45623,-0.132777,2.01548,0.614906
1.21142,0.627024,0.077325,-1.45623,-0.132778,2.01548,0.614912
1.21142,0.627019,0.077327,-1.45623,-0.132778,2.01548,0.614908
1.21142,0.627022,0.077325,-1.45623,-0.132782,2.01548,0.614912
1.21142,0.627017,0.077318,-1.45623,-0.132783,2.01548,0.614909
1.21142,0.627018,0.077313,-1.45623,-0.132782,2.01548,0.614907
1.21142,0.627014,0.077312,-1.45623,-0.132779,2.01548,0.614909
1.21142,0.627014,0.077315,-1.45623,-0.132777,2.01548,0.614909
1.21142,0.627006,0.077306,-1.45623,-0.132778,2.01548,0.614904
1.21141,0.627008,0.077308,-1.45622,-0.132778,2.01548,0.614906
1.21142,0.627004,0.077305,-1.45622,-0.13278,2.01548,0.614907
1.21142,0.627005,0.077307,-1.45622,-0.132778,2.01548,0.614903
1.21142,0.627001,0.077304,-1.45622,-0.132776,2.01548,0.614908
1.21142,0.626998,0.0773,-1.45622,-0.132776,2.01548,0.614905
1.21142,0.626995,0.077297,-1.45621,-0.132777,2.01549,0.614908
1.21142,0.626995,0.077292,-1.45621,-0.132777,2.01549,0.614907
1.21141,0.626993,0.077296,-1.45621,-0.132777,2.01548,0.614901
1.21142,0.626993,0.077288,-1.45621,-0.132781,2.01549,0.614903
1.21142,0.626987,0.077287,-1.4562,-0.13278,2.01549,0.614907
1.21143,0.62699,0.077286,-1.45621,-0.132779,2.01549,0.614906
1.21143,0.62699,0.077281,-1.4562,-0.132778,2.01549,0.614903
1.21142,0.626987,0.07728,-1.4562,-0.132779,2.01549,0.614904
1.21143,0.626985,0.077283,-1.4562,-0.132778,2.01549,0.614904
1.21142,0.626982,0.07728,-1.4562,-0.132783,2.01549,0.614909
1.21143,0.626977,0.077278,-1.4562,-0.132783,2.01549,0.614907
1.21142,0.626982,0.077282,-1.4562,-0.132779,2.01549,0.614908
1.21142,0.62698,0.077279,-1.4562,-0.132781,2.01549,0.614909
1.21143,0.626979,0.077282,-1.4562,-0.132782,2.01549,0.614909
1.21143,0.626979,0.077288,-1.4562,-0.13278,2.01549,0.614908
1.21142,0.626979,0.077285,-1.4562,-0.132777,2.01549,0.61491
1.21143,0.626972,0.077282,-1.45619,-0.132776,2.01549,0.614905
1.21143,0.626967,0.07728,-1.45619,-0.132778,2.01549,0.614904
1.21142,0.626969,0.077282,-1.45619,-0.132778,2.01549,0.614908
1.21143,0.626971,0.077285,-1.45619,-0.132782,2.01549,0.614904
1.21142,0.626971,0.077282,-1.45619,-0.132779,2.01549,0.614905
1.21142,0.626972,0.077282,-1.4562,-0.132779,2.01549,0.614907
1.21143,0.626971,0.07728,-1.4562,-0.132778,2.01549,0.614907
1.21143,0.626974,0.077287,-1.45619,-0.132777,2.01549,0.614906
1.21143,0.626971,0.077283,-1.45619,-0.132782,2.01549,0.614907
1.21142,0.626971,0.077285,-1.45619,-0.13278,2.01549,0.614903
1.21143,0.626971,0.077287,-1.45619,-0.132778,2.01549,0.614905
1.21143,0.626974,0.077286,-1.45619,-0.13278,2.01549,0.614906
1.21144,0.626971,0.077288,-1.45619,-0.132779,2.01549,0.614903
1.21143,0.626968,0.077285,-1.45619,-0.132778,2.01549,0.614903
1.21143,0.626971,0.077285,-1.45619,-0.132781,2.01549,0.614907
1.21144,0.626968,0.07729,-1.45619,-0.132783,2.01549,0.6149
1.21143,0.626971,0.077291,-1.45619,-0.13278,2.01549,0.614905
1.21143,0.626968,0.077291,-1.4562,-0.132781,2.01549,0.614906
1.21144,0.626968,0.077292,-1.45619,-0.13278,2.01549,0.614904
1.21144,0.626971,0.077294,-1.4562,-0.132783,2.01549,0.614912
1.21144,0.626971,0.07729,-1.45619,-0.132783,2.01549,0.614905
1.21144,0.626973,0.077293,-1.45619,-0.132784,2.01549,0.614903
1.21144,0.626971,0.077293,-1.45619,-0.132778,2.01549,0.614908
1.21144,0.626973,0.077299,-1.45619,-0.132779,2.01549,0.614903
1.21144,0.626973,0.077296,-1.45619,-0.13278,2.01549,0.614906
1.21144,0.626976,0.077299,-1.4562,-0.132782,2.01549,0.614907
1.21144,0.626973,0.077299,-1.45619,-0.132779,2.01549,0.614908
1.21145,0.626976,0.077299,-1.45619,-0.13278,2.01549,0.614907
1.21145,0.626976,0.077296,-1.4562,-0.132784,2.0155,0.614906
1.21145,0.626984,0.077297,-1.45619,-0.132783,2.01549,0.614905
1.21145,0.626979,0.077304,-1.45619,-0.132784,2.01549,0.6149
1.21145,0.626979,0.0773,-1.45619,-0.132781,2.01549,0.614906
1.21145,0.626981,0.077301,-1.45619,-0.132779,2.01549,0.614902
1.21145,0.626979,0.0773,-1.45619,-0.132783,2.0155,0.614905
1.21145,0.626984,0.077304,-1.45619,-0.132779,2.01549,0.614907
1.21145,0.626981,0.077307,-1.4562,-0.132778,2.0155,0.614903
1.21145,0.626982,0.077304,-1.45619,-0.132783,2.0155,0.614908
1.21145,0.626981,0.077307,-1.4562,-0.13278,2.0155,0.614906
1.21146,0.626986,0.07731,-1.45619,-0.132778,2.0155,0.6149
1.21145,0.626989,0.077312,-1.45619,-0.132781,2.0155,0.614905
1.21146,0.626984,0.077303,-1.45619,-0.132782,2.0155,0.614901
1.21146,0.626989,0.077305,-1.45619,-0.13278,2.0155,0.614905
1.21146,0.626987,0.077307,-1.45619,-0.132783,2.0155,0.614905
1.21146,0.626992,0.077313,-1.45619,-0.13278,2.01549,0.614904
1.21146,0.626994,0.07731,-1.4562,-0.132779,2.0155,0.614901
1.21146,0.626994,0.077308,-1.4562,-0.13278,2.0155,0.614908
1.21146,0.626989,0.07731,-1.4562,-0.132778,2.0155,0.614905
1.21146,0.626994,0.077313,-1.4562,-0.132779,2.01549,0.614909
1.21146,0.626997,0.07731,-1.4562,-0.132782,2.01549,0.61491
1.21146,0.627,0.077313,-1.4562,-0.132783,2.01549,0.614907
1.21146,0.626992,0.077311,-1.4562,-0.132779,2.01549,0.614906
1.21146,0.626997,0.077316,-1.45621,-0.132777,2.01549,0.614906
1.21146,0.626997,0.077311,-1.4562,-0.132777,2.01549,0.614903
1.21146,0.626997,0.077313,-1.4562,-0.132777,2.01549,0.614907
1.21146,0.627,0.077308,-1.4562,-0.132778,2.01549,0.614905
1.21146,0.626994,0.07731,-1.45621,-0.132781,2.01549,0.614903
1.21146,0.627002,0.077315,-1.45621,-0.132783,2.01548,0.614906
1.21147,0.627,0.077314,-1.45621,-0.132779,2.01549,0.614906
1.21146,0.627,0.077313,-1.45621,-0.132778,2.01549,0.614902
1.21146,0.627002,0.077315,-1.45621,-0.132779,2.01549,0.614907
1.21146,0.626997,0.077311,-1.45621,-0.132782,2.01549,0.614907
1.21146,0.626994,0.077313,-1.45621,-0.132783,2.01549,0.614904
1.21146,0.626997,0.077313,-1.45621,-0.13278,2.01549,0.614906
1.21147,0.626997,0.077314,-1.45621,-0.132779,2.01549,0.614903
1.21146,0.627,0.077308,-1.45621,-0.132781,2.01549,0.614905
1.21146,0.626994,0.077316,-1.45621,-0.132783,2.01549,0.61491
1.21146,0.626992,0.077314,-1.45621,-0.132782,2.01549,0.614906
1.21146,0.626987,0.077314,-1.45621,-0.132778,2.01549,0.614906
1.21146,0.626989,0.077309,-1.45621,-0.132778,2.01549,0.614911
1.21146,0.626989,0.077313,-1.45621,-0.132778,2.01549,0.614904
1.21147,0.626992,0.077311,-1.45621,-0.132781,2.01549,0.614904
1.21146,0.626987,0.07731,-1.45621,-0.132778,2.01548,0.614905
1.21146,0.626989,0.077316,-1.45621,-0.132778,2.01549,0.614909
1.21146,0.626992,0.077311,-1.45621,-0.13278,2.01549,0.614904
1.21145,0.626986,0.077311,-1.45621,-0.132782,2.01549,0.614909
1.21145,0.626987,0.077312,-1.45621,-0.132783,2.01549,0.614903
1.21146,0.626979,0.07731,-1.4562,-0.132782,2.01549,0.614907
1.21146,0.626984,0.077309,-1.4562,-0.132779,2.01549,0.614907
1.21146,0.626979,0.077308,-1.4562,-0.132783,2.01549,0.614902
1.21145,0.626978,0.07731,-1.4562,-0.132781,2.01549,0.61491
1.21145,0.62698,0.077311,-1.45621,-0.132781,2.01549,0.614907
1.21145,0.626977,0.077308,-1.4562,-0.132779,2.01549,0.614901
1.21145,0.626976,0.077308,-1.4562,-0.132781,2.01549,0.614907
1.21145,0.626974,0.077308,-1.45619,-0.132778,2.01549,0.614903
1.21145,0.626974,0.077311,-1.45619,-0.132777,2.01549,0.614905
1.21145,0.626971,0.077308,-1.4562,-0.132776,2.01549,0.614907
1.21145,0.626966,0.077306,-1.4562,-0.132777,2.01549,0.614907
1.21144,0.626968,0.077306,-1.4562,-0.132776,2.01549,0.614906
1.21145,0.62696,0.077306,-1.45619,-0.132779,2.01549,0.614912
1.21145,0.626963,0.077306,-1.4562,-0.13278,2.01549,0.614909
1.21145,0.626958,0.077303,-1.45619,-0.132779,2.01549,0.614907
1.21144,0.626958,0.077301,-1.45619,-0.132777,2.01549,0.614909
1.21144,0.626958,0.077301,-1.45619,-0.132777,2.0155,0.614906
1.21144,0.626955,0.077301,-1.45619,-0.132779,2.01549,0.614907
1.21144,0.626951,0.077296,-1.45619,-0.132778,2.01549,0.614909
1.21144,0.626953,0.077298,-1.45619,-0.132777,2.01549,0.614903
1.21144,0.626946,0.077302,-1.45619,-0.132776,2.01549,0.614904
1.21144,0.626952,0.077303,-1.45619,-0.132776,2.01549,0.614913
1.21144,0.626945,0.077298,-1.45619,-0.132776,2.01549,0.614907
1.21143,0.626945,0.077296,-1.45619,-0.132775,2.01549,0.614907
1.21143,0.626942,0.077295,-1.45619,-0.132779,2.01549,0.614909
1.21143,0.626942,0.077292,-1.45619,-0.132778,2.01549,0.614908
1.21143,0.626939,0.077297,-1.45618,-0.13278,2.01549,0.614902
1.21143,0.626939,0.077292,-1.45619,-0.132776,2.01549,0.614909
1.21143,0.626934,0.077289,-1.45619,-0.132779,2.01549,0.614905
1.21142,0.626936,0.077292,-1.45619,-0.13278,2.01549,0.614903
1.21142,0.626931,0.077292,-1.45618,-0.132778,2.01549,0.614907
1.21142,0.626929,0.077287,-1.45618,-0.132775,2.01549,0.614902
1.21143,0.626934,0.077289,-1.45618,-0.132775,2.01549,0.614911
1.21142,0.626931,0.077282,-1.45618,-0.132776,2.01549,0.61491
1.21142,0.626931,0.077286,-1.45618,-0.132775,2.01549,0.614906
1.21142,0.626929,0.077286,-1.45618,-0.132779,2.01549,0.614908
1.21142,0.626926,0.077284,-1.45618,-0.13278,2.01549,0.614907
1.21142,0.626929,0.077282,-1.45618,-0.132777,2.01549,0.614902
1.21141,0.626926,0.077284,-1.45618,-0.13278,2.01549,0.614902
1.21141,0.626928,0.077281,-1.45618,-0.132777,2.01549,0.614904
1.21141,0.626928,0.077281,-1.45618,-0.132779,2.01549,0.614902
1.21141,0.626926,0.077281,-1.45619,-0.132776,2.01549,0.614902
1.21141,0.626924,0.077276,-1.45618,-0.132777,2.01549,0.614907
1.21141,0.626923,0.077275,-1.45618,-0.132779,2.01549,0.614902
1.21141,0.626926,0.07727,-1.45618,-0.132777,2.01549,0.614905
1.21141,0.626925,0.077273,-1.45618,-0.132779,2.01549,0.614907
1.2114,0.62692,0.077268,-1.45618,-0.132777,2.01549,0.614905
1.2114,0.626923,0.077267,-1.45618,-0.132775,2.01549,0.614911
1.2114,0.626923,0.07727,-1.45618,-0.132779,2.01549,0.614908
1.21141,0.626923,0.077269,-1.45618,-0.13278,2.01549,0.614902
1.2114,0.62692,0.077267,-1.45617,-0.132777,2.01549,0.614911
1.2114,0.626925,0.077269,-1.45617,-0.132777,2.01549,0.614908
1.2114,0.62692,0.077267,-1.45618,-0.13278,2.01549,0.61491
1.2114,0.626923,0.077269,-1.45618,-0.132777,2.01549,0.614906
1.2114,0.626923,0.077264,-1.45618,-0.132777,2.01549,0.614912
1.2114,0.626925,0.077262,-1.45618,-0.132776,2.01549,0.614912
1.21139,0.626931,0.077259,-1.45618,-0.132777,2.01549,0.614908
1.2114,0.626931,0.077266,-1.45618,-0.132777,2.01549,0.614904
1.2114,0.626931,0.077262,-1.45618,-0.132776,2.01549,0.614908
1.2114,0.626933,0.077259,-1.45618,-0.13278,2.01549,0.614905
1.2114,0.626933,0.077261,-1.45618,-0.13278,2.01549,0.614904
1.21139,0.626936,0.077258,-1.45618,-0.132778,2.01549,0.61491
1.21139,0.626933,0.077258,-1.45618,-0.132777,2.0155,0.614905
1.21139,0.626939,0.077259,-1.45618,-0.132777,2.01549,0.614904
1.21139,0.626939,0.077253,-1.45618,-0.132781,2.01549,0.614906
1.21139,0.626944,0.07726,-1.45618,-0.13278,2.01549,0.614907
1.21139,0.626941,0.077256,-1.45618,-0.132778,2.01549,0.614905
1.21139,0.626944,0.077257,-1.45618,-0.132777,2.0155,0.614909
1.21139,0.626941,0.077258,-1.45618,-0.13278,2.0155,0.614906
1.21139,0.626951,0.077252,-1.45618,-0.132777,2.01549,0.614904
1.21139,0.62695,0.077255,-1.45618,-0.132777,2.01549,0.614908
1.21139,0.626949,0.077258,-1.45618,-0.13278,2.01549,0.614905
1.21139,0.626956,0.077255,-1.45618,-0.132778,2.01549,0.614904
1.21139,0.626952,0.077255,-1.45618,-0.132777,2.01549,0.61491
1.21139,0.626957,0.077255,-1.45618,-0.13278,2.01549,0.614907
1.21139,0.626957,0.077255,-1.45618,-0.132778,2.01549,0.61491
1.21139,0.626962,0.077252,-1.45619,-0.132777,2.01549,0.614909
1.21139,0.626962,0.077252,-1.45618,-0.132777,2.01549,0.614907
1.2114,0.626962,0.077251,-1.45619,-0.132779,2.01549,0.614907
1.21139,0.626967,0.077252,-1.45619,-0.132778,2.01549,0.61491
1.21139,0.626965,0.077252,-1.45619,-0.132777,2.01549,0.614903
1.2114,0.626972,0.077254,-1.45619,-0.132778,2.01549,0.614903
1.21139,0.62697,0.077254,-1.45619,-0.13278,2.01549,0.614909
1.2114,0.626972,0.077257,-1.45619,-0.132782,2.0155,0.61491
1.21139,0.626975,0.077257,-1.4562,-0.132781,2.01549,0.614903
1.21139,0.626975,0.077259,-1.4562,-0.13278,2.0155,0.614907
1.21139,0.62698,0.077255,-1.4562,-0.132782,2.0155,0.614903
1.2114,0.62698,0.077257,-1.45619,-0.132777,2.0155,0.614903
1.2114,0.626985,0.077254,-1.4562,-0.132781,2.01549,0.614909
1.2114,0.626983,0.077257,-1.45619,-0.132782,2.01549,0.614908
1.2114,0.626989,0.077259,-1.4562,-0.13278,2.01549,0.61491
1.2114,0.626987,0.077254,-1.4562,-0.132781,2.01549,0.61491
1.2114,0.626986,0.077262,-1.4562,-0.132778,2.01549,0.614904
1.2114,0.626988,0.077261,-1.45621,-0.132779,2.01549,0.614909
1.2114,0.626989,0.07726,-1.45621,-0.132781,2.01549,0.614909
1.21141,0.626993,0.077265,-1.4562,-0.132778,2.01548,0.614905
1.21141,0.626997,0.077262,-1.45621,-0.132776,2.01549,0.614903
1.21141,0.626996,0.077267,-1.45621,-0.132778,2.01549,0.614911
1.21141,0.626996,0.077264,-1.45621,-0.132777,2.01549,0.614906
1.21141,0.626996,0.077264,-1.45622,-0.132776,2.01549,0.614908
1.21141,0.626997,0.07727,-1.45622,-0.132778,2.01548,0.614908
1.21141,0.627001,0.077267,-1.45621,-0.132776,2.01548,0.614909
1.21141,0.627004,0.07727,-1.45622,-0.132776,2.01548,0.61491
1.21142,0.627004,0.07727,-1.45622,-0.132779,2.01548,0.614906
1.21141,0.62701,0.077274,-1.45622,-0.132781,2.01548,0.614902
1.21142,0.627004,0.07727,-1.45622,-0.13278,2.01548,0.614908
1.21142,0.627007,0.077275,-1.45622,-0.132781,2.01548,0.614902
1.21142,0.627004,0.07728,-1.45622,-0.132777,2.01548,0.614906
1.21142,0.627009,0.077278,-1.45622,-0.132775,2.01548,0.614907
1.21142,0.62701,0.077277,-1.45622,-0.132775,2.01548,0.614905
1.21143,0.62701,0.077278,-1.45622,-0.132775,2.01548,0.614904
1.21143,0.62701,0.077283,-1.45622,-0.132779,2.01548,0.614907
1.21143,0.627012,0.077286,-1.45623,-0.13278,2.01548,0.614904
1.21144,0.62701,0.077283,-1.45622,-0.132779,2.01548,0.614902
1.21143,0.62701,0.077286,-1.45622,-0.132776,2.01548,0.614909
1.21144,0.627012,0.077291,-1.45622,-0.132776,2.01548,0.614904
1.21144,0.627014,0.077294,-1.45623,-0.132774,2.01548,0.614906
1.21144,0.627018,0.077289,-1.45623,-0.132775,2.01548,0.614906
1.21144,0.627018,0.077294,-1.45623,-0.132775,2.01548,0.614903
1.21144,0.62702,0.077294,-1.45622,-0.132773,2.01548,0.614908
1.21145,0.627012,0.077297,-1.45623,-0.132778,2.01548,0.614904
1.21145,0.62702,0.077297,-1.45623,-0.132776,2.01548,0.614905
1.21145,0.627017,0.07729,-1.45623,-0.132778,2.01548,0.614908
1.21145,0.627015,0.077299,-1.45623,-0.132777,2.01548,0.614905
1.21145,0.627019,0.077302,-1.45622,-0.132778,2.01548,0.614907
1.21146,0.627018,0.077302,-1.45623,-0.132776,2.01548,0.614909
1.21146,0.627018,0.077305,-1.45623,-0.132775,2.01548,0.614906
1.21145,0.62702,0.077309,-1.45623,-0.132778,2.01548,0.614907
1.21146,0.62702,0.077311,-1.45623,-0.132776,2.01548,0.614908
1.21146,0.627015,0.077306,-1.45623,-0.132778,2.01548,0.614905
1.21146,0.627018,0.077309,-1.45623,-0.13278,2.01548,0.61491
1.21146,0.627015,0.077314,-1.45623,-0.132779,2.01548,0.614907
1.21147,0.627015,0.077308,-1.45623,-0.132776,2.01548,0.614905
1.21147,0.627016,0.077314,-1.45623,-0.132775,2.01548,0.614908
1.21147,0.627015,0.077314,-1.45623,-0.132776,2.01548,0.614906
1.21147,0.62702,0.077314,-1.45623,-0.132778,2.01548,0.614904
1.21147,0.627013,0.077323,-1.45622,-0.132774,2.01548,0.614906
1.21147,0.627017,0.077319,-1.45623,-0.132777,2.01548,0.614906
1.21148,0.627013,0.07732,-1.45622,-0.132775,2.01548,0.6149
1.21147,0.627017,0.077325,-1.45622,-0.132776,2.01548,0.614906
1.21148,0.627015,0.077328,-1.45622,-0.132774,2.01548,0.614905
1.21148,0.62701,0.077325,-1.45622,-0.132775,2.01548,0.614904
1.21148,0.627015,0.077331,-1.45622,-0.132779,2.01548,0.614908
1.21148,0.627013,0.077334,-1.45622,-0.132776,2.01548,0.614906
1.21148,0.627015,0.077333,-1.45622,-0.132777,2.01549,0.614905
1.21148,0.627014,0.077329,-1.45622,-0.132776,2.01549,0.614907
1.21148,0.62701,0.077334,-1.45622,-0.132775,2.01549,0.614903
1.21148,0.627014,0.077332,-1.45622,-0.132776,2.01549,0.61491
1.21148,0.62701,0.077342,-1.45622,-0.132776,2.01549,0.61491
1.21148,0.62701,0.07734,-1.45622,-0.132775,2.01549,0.614902
1.21149,0.62701,0.07734,-1.45622,-0.132774,2.01549,0.614906
1.21149,0.62701,0.077342,-1.45622,-0.132775,2.01549,0.614908
1.21149,0.627007,0.077341,-1.45622,-0.132775,2.01549,0.614909
1.21149,0.62701,0.07734,-1.45622,-0.132778,2.01549,0.614907
1.21149,0.62701,0.077342,-1.45622,-0.132776,2.01549,0.61491
1.21149,0.627002,0.077346,-1.45622,-0.132778,2.01549,0.614904
1.21149,0.627005,0.077349,-1.45621,-0.132775,2.01549,0.614908
1.21149,0.627003,0.077343,-1.45622,-0.132774,2.01549,0.614906
1.21149,0.627007,0.077348,-1.45622,-0.132775,2.01549,0.614905
1.21149,0.627003,0.077352,-1.45622,-0.132779,2.01549,0.614907
1.21149,0.626999,0.077349,-1.45621,-0.132777,2.01549,0.614903
1.2115,0.627005,0.077351,-1.45621,-0.132774,2.01549,0.614905
1.21149,0.627,0.077352,-1.45622,-0.132778,2.01549,0.614908
1.2115,0.627003,0.077354,-1.45621,-0.132778,2.01549,0.614907
1.2115,0.627002,0.077355,-1.45621,-0.132776,2.01549,0.614907
1.21149,0.626997,0.077353,-1.45621,-0.132776,2.01549,0.614907
1.2115,0.626999,0.077355,-1.45621,-0.132776,2.01549,0.614906
1.21149,0.626994,0.077357,-1.45622,-0.132776,2.01549,0.614906
1.2115,0.627001,0.077358,-1.45622,-0.132774,2.01549,0.614906
1.2115,0.626999,0.077355,-1.45621,-0.132775,2.01549,0.614901
1.2115,0.626995,0.07736,-1.45621,-0.132774,2.01549,0.614907
1.21149,0.626994,0.077362,-1.45621,-0.132778,2.01549,0.614906
1.2115,0.626995,0.077359,-1.45621,-0.132775,2.01549,0.614905
1.2115,0.626994,0.077361,-1.45622,-0.132775,2.01549,0.614908
1.2115,0.626994,0.077367,-1.45621,-0.132776,2.01549,0.614903
1.2115,0.626992,0.077362,-1.45621,-0.132774,2.01549,0.614908
1.2115,0.626989,0.077362,-1.45621,-0.132775,2.01549,0.614907
1.21149,0.626991,0.077365,-1.45621,-0.132774,2.01549,0.614907
1.21149,0.626993,0.077364,-1.4562,-0.132776,2.01549,0.614905
1.2115,0.626995,0.07737,-1.45621,-0.132775,2.01549,0.614907
1.21149,0.626989,0.077362,-1.45621,-0.132775,2.01549,0.614906
1.21149,0.626991,0.077365,-1.45621,-0.132779,2.01549,0.61491
1.2115,0.626993,0.077367,-1.45621,-0.132775,2.01549,0.614907
1.2115,0.626995,0.077361,-1.45621,-0.132779,2.01549,0.614904
1.21149,0.626991,0.077367,-1.45621,-0.132775,2.01549,0.614908
1.2115,0.626997,0.077366,-1.45621,-0.132775,2.01549,0.614906
1.2115,0.626995,0.077366,-1.45621,-0.132776,2.01549,0.614908
1.2115,0.626994,0.077365,-1.45621,-0.132773,2.01549,0.614906
1.2115,0.626991,0.077369,-1.45621,-0.132777,2.01549,0.614902
1.2115,0.626991,0.077371,-1.45621,-0.132774,2.01549,0.614905
1.2115,0.626996,0.077364,-1.45622,-0.132774,2.01549,0.614902
1.21149,0.626995,0.077371,-1.45621,-0.132776,2.01549,0.614903
1.2115,0.626991,0.077369,-1.45622,-0.132774,2.01549,0.614903
1.2115,0.626994,0.077372,-1.45622,-0.132777,2.01549,0.614905
1.2115,0.626997,0.077369,-1.45621,-0.132778,2.01549,0.614901
1.21149,0.626994,0.077372,-1.45622,-0.132775,2.01549,0.614906
1.2115,0.626994,0.077367,-1.45622,-0.132775,2.01549,0.614903
1.2115,0.627001,0.077371,-1.45622,-0.132774,2.01548,0.614906
1.21149,0.627002,0.077367,-1.45622,-0.132774,2.01549,0.614911
1.21149,0.627002,0.077367,-1.45622,-0.132775,2.01549,0.614904
1.2115,0.626998,0.077369,-1.45621,-0.132774,2.01549,0.614908
1.21149,0.627002,0.077369,-1.45622,-0.132777,2.01549,0.614908
1.21149,0.626999,0.077369,-1.45622,-0.132776,2.01549,0.614904
1.2115,0.626999,0.07737,-1.45621,-0.132775,2.01549,0.614908
1.21149,0.627007,0.07737,-1.45621,-0.132779,2.01549,0.614909
1.21149,0.627005,0.077368,-1.45622,-0.132774,2.01549,0.614904
1.21149,0.62701,0.077369,-1.45622,-0.132778,2.01549,0.614904
1.21149,0.627003,0.077374,-1.45622,-0.132775,2.01549,0.614912
1.21149,0.627012,0.07737,-1.45622,-0.132778,2.01549,0.614908
1.21149,0.627008,0.07737,-1.45622,-0.13278,2.01549,0.614908
1.21149,0.627007,0.07737,-1.45622,-0.132779,2.01549,0.614907
1.21149,0.62701,0.07737,-1.45622,-0.132779,2.01549,0.614902
1.21149,0.627014,0.077367,-1.45622,-0.13278,2.01549,0.614907
1.21149,0.62701,0.077368,-1.45622,-0.132776,2.01549,0.614902
1.21149,0.62701,0.077366,-1.45622,-0.132775,2.01549,0.614902
1.21149,0.627017,0.077365,-1.45623,-0.132776,2.01549,0.614906
1.21149,0.627015,0.077369,-1.45622,-0.132776,2.01549,0.614908
1.21149,0.627016,0.077367,-1.45622,-0.132775,2.01549,0.614901
1.21149,0.627023,0.077364,-1.45622,-0.132774,2.01549,0.61491
1.21149,0.627013,0.077364,-1.45622,-0.132777,2.01549,0.614902
1.21148,0.627015,0.077362,-1.45623,-0.132775,2.01549,0.614901
1.21149,0.627015,0.077364,-1.45622,-0.132779,2.01549,0.614905
1.21149,0.62702,0.077369,-1.45623,-0.132777,2.01549,0.614904
1.21149,0.627022,0.077365,-1.45623,-0.132778,2.01549,0.614906
1.21149,0.627023,0.077367,-1.45623,-0.132777,2.01548,0.614912
1.21149,0.627023,0.077364,-1.45623,-0.132776,2.01548,0.614904
1.21149,0.627028,0.077361,-1.45623,-0.132775,2.01548,0.61491
1.21149,0.627024,0.077366,-1.45623,-0.132779,2.01548,0.614908
1.21148,0.627025,0.077364,-1.45623,-0.132777,2.01548,0.614907
1.21148,0.627028,0.077364,-1.45623,-0.132776,2.01548,0.614909
1.21149,0.627028,0.077365,-1.45623,-0.132776,2.01548,0.614911
1.21148,0.627028,0.077356,-1.45624,-0.132779,2.01548,0.614908
1.21149,0.627028,0.077363,-1.45623,-0.132776,2.01548,0.614913
1.21148,0.627032,0.077364,-1.45624,-0.13278,2.01548,0.614905
1.21148,0.627031,0.077365,-1.45624,-0.132779,2.01548,0.614908
1.21148,0.62703,0.077366,-1.45624,-0.132781,2.01548,0.614908
1.21148,0.627033,0.077359,-1.45623,-0.132778,2.01548,0.61491
1.21149,0.627036,0.077361,-1.45624,-0.132777,2.01548,0.614904
1.21149,0.627034,0.077361,-1.45624,-0.132777,2.01548,0.61491
1.21149,0.627036,0.077362,-1.45624,-0.132776,2.01548,0.614904
1.21149,0.627039,0.077361,-1.45624,-0.132779,2.01548,0.614904
1.21148,0.627039,0.077362,-1.45623,-0.132777,2.01548,0.614909
1.21148,0.627041,0.077366,-1.45624,-0.132776,2.01548,0.614903
1.21149,0.627039,0.077359,-1.45624,-0.132775,2.01548,0.614909
1.21149,0.627036,0.077364,-1.45625,-0.132778,2.01548,0.614906
1.21149,0.627039,0.077365,-1.45625,-0.132775,2.01548,0.614903
1.21149,0.627041,0.077364,-1.45625,-0.132774,2.01548,0.614903
1.21148,0.627041,0.077359,-1.45625,-0.132775,2.01548,0.61491
1.21149,0.627041,0.077358,-1.45625,-0.132775,2.01548,0.614905
1.21149,0.627041,0.077364,-1.45625,-0.132779,2.01548,0.61491
1.21148,0.627044,0.077361,-1.45625,-0.132776,2.01547,0.614906
1.21149,0.627044,0.077361,-1.45625,-0.132778,2.01548,0.614906
1.21149,0.627046,0.077361,-1.45625,-0.13278,2.01548,0.614909
1.21148,0.627045,0.077364,-1.45625,-0.132776,2.01548,0.614904
1.21149,0.627041,0.077361,-1.45625,-0.132775,2.01548,0.61491
1.21149,0.627047,0.077364,-1.45625,-0.132776,2.01548,0.614911
1.21148,0.62705,0.077361,-1.45625,-0.132779,2.01548,0.614905
1.21148,0.627048,0.077366,-1.45625,-0.132778,2.01548,0.614909
1.21149,0.627044,0.077361,-1.45625,-0.132776,2.01548,0.614906
1.21149,0.627042,0.077365,-1.45625,-0.132775,2.01548,0.614906
1.21149,0.627044,0.077359,-1.45624,-0.132779,2.01548,0.614908
1.21148,0.627047,0.077369,-1.45625,-0.13278,2.01548,0.614907
1.21149,0.627044,0.077363,-1.45625,-0.132776,2.01548,0.614903
1.21149,0.627049,0.077372,-1.45625,-0.132776,2.01548,0.614909
1.21149,0.627044,0.077367,-1.45625,-0.132775,2.01548,0.614907
1.21149,0.62704,0.077365,-1.45624,-0.132779,2.01548,0.614907
1.21149,0.627042,0.077364,-1.45625,-0.132779,2.01548,0.614907
1.21149,0.627041,0.077361,-1.45625,-0.13278,2.01548,0.614909
1.21149,0.627047,0.077369,-1.45624,-0.132777,2.01548,0.614904
1.21149,0.627042,0.07737,-1.45624,-0.132776,2.01548,0.614906
1.21149,0.627044,0.077364,-1.45625,-0.132779,2.01548,0.614903
1.21149,0.627042,0.077364,-1.45624,-0.132777,2.01548,0.614905
1.21149,0.627042,0.077367,-1.45624,-0.132777,2.01548,0.614905
1.21149,0.627037,0.077368,-1.45624,-0.13278,2.01548,0.614902
1.21149,0.627041,0.077369,-1.45624,-0.132777,2.01548,0.614906
1.21149,0.627042,0.077367,-1.45624,-0.132776,2.01548,0.614909
1.21149,0.627036,0.077367,-1.45625,-0.13278,2.01548,0.614904
1.2115,0.627038,0.077369,-1.45624,-0.132777,2.01548,0.614908
1.21149,0.627042,0.077367,-1.45624,-0.132778,2.01548,0.614908
1.21149,0.627039,0.077364,-1.45624,-0.132777,2.01548,0.614907
1.21149,0.627045,0.077366,-1.45625,-0.132779,2.01548,0.614909
1.21149,0.627039,0.077364,-1.45624,-0.132777,2.01548,0.61491
1.21149,0.627039,0.077366,-1.45624,-0.132776,2.01548,0.614904
1.21149,0.627037,0.077369,-1.45625,-0.132776,2.01548,0.614909
1.2115,0.627034,0.077369,-1.45624,-0.132776,2.01548,0.614905
1.2115,0.627034,0.077367,-1.45624,-0.132779,2.01548,0.614908
1.2115,0.627039,0.077367,-1.45625,-0.13278,2.01548,0.614911
1.2115,0.627035,0.077374,-1.45624,-0.132778,2.01548,0.61491
1.2115,0.627036,0.077369,-1.45625,-0.132776,2.01548,0.614903
1.2115,0.627034,0.077375,-1.45625,-0.132778,2.01548,0.614907
1.2115,0.627037,0.077368,-1.45624,-0.132776,2.01548,0.614903
1.2115,0.627032,0.077371,-1.45624,-0.13278,2.01548,0.614906
1.2115,0.627029,0.077372,-1.45625,-0.132782,2.01548,0.614909
1.2115,0.627028,0.07737,-1.45625,-0.132778,2.01548,0.614902
1.2115,0.627027,0.077372,-1.45624,-0.13278,2.01548,0.614909
1.2115,0.627026,0.077372,-1.45624,-0.132777,2.01548,0.61491
1.2115,0.627031,0.07737,-1.45624,-0.132779,2.01548,0.614902
1.2115,0.627023,0.077372,-1.45624,-0.132777,2.01548,0.614907
1.2115,0.627016,0.07737,-1.45624,-0.132776,2.01548,0.614903
1.2115,0.627021,0.077372,-1.45623,-0.132777,2.01548,0.614905
1.2115,0.627021,0.077375,-1.45623,-0.132776,2.01548,0.614904
1.21151,0.627013,0.077377,-1.45623,-0.132779,2.01548,0.614909
1.2115,0.627016,0.077375,-1.45623,-0.132777,2.01548,0.614908
1.2115,0.627011,0.077372,-1.45623,-0.13278,2.01548,0.614913
1.2115,0.627015,0.077372,-1.45623,-0.132777,2.01548,0.614905
1.2115,0.627008,0.077378,-1.45623,-0.132777,2.01548,0.614909
1.21151,0.627013,0.077375,-1.45623,-0.132776,2.01549,0.614907
1.2115,0.62701,0.077377,-1.45622,-0.132777,2.01549,0.614907
1.21151,0.627006,0.077377,-1.45623,-0.132776,2.01549,0.614911
1.2115,0.627005,0.077377,-1.45622,-0.132779,2.01549,0.61491
1.2115,0.627008,0.077377,-1.45622,-0.132781,2.01549,0.614907
1.2115,0.627007,0.077377,-1.45622,-0.132781,2.01549,0.614911
1.21151,0.627,0.07738,-1.45622,-0.132779,2.01549,0.614905
1.21151,0.627005,0.077375,-1.45622,-0.132777,2.01549,0.614905
1.2115,0.627,0.077377,-1.45622,-0.13278,2.01549,0.614908
1.2115,0.627002,0.077377,-1.45622,-0.132781,2.01549,0.614907
1.21151,0.626997,0.077375,-1.45622,-0.13278,2.01549,0.614902
1.2115,0.627,0.077375,-1.45622,-0.132778,2.01549,0.614906
1.2115,0.627,0.077378,-1.45621,-0.132777,2.0155,0.614905
1.2115,0.626997,0.077381,-1.45621,-0.132776,2.01549,0.614906
1.2115,0.626997,0.077378,-1.45621,-0.132777,2.01549,0.614909
1.2115,0.626994,0.077381,-1.45621,-0.132779,2.01549,0.614904
1.2115,0.626989,0.077376,-1.45621,-0.132779,2.01549,0.614904
1.2115,0.626994,0.07738,-1.45621,-0.132776,2.01549,0.614907
1.2115,0.626987,0.077378,-1.4562,-0.132776,2.01549,0.614907
1.2115,0.626992,0.077378,-1.45621,-0.132777,2.01549,0.614906
1.2115,0.626992,0.077378,-1.45621,-0.132776,2.01549,0.614909
1.2115,0.626987,0.077375,-1.4562,-0.132778,2.01549,0.614907
1.2115,0.626989,0.077381,-1.4562,-0.132777,2.0155,0.614906
1.2115,0.626992,0.077376,-1.4562,-0.132781,2.01549,0.614906
1.2115,0.626987,0.077378,-1.4562,-0.132778,2.01549,0.614904
1.2115,0.626987,0.077373,-1.45621,-0.13278,2.01549,0.614904
1.2115,0.626989,0.07737,-1.45621,-0.132782,2.01549,0.614907
1.2115,0.626989,0.077373,-1.4562,-0.13278,2.01549,0.614903
1.2115,0.626984,0.07737,-1.4562,-0.132782,2.01549,0.614902
1.21149,0.626984,0.077373,-1.4562,-0.13278,2.01549,0.614905
1.21149,0.626987,0.077373,-1.4562,-0.13278,2.01549,0.614904
1.21149,0.626987,0.077368,-1.4562,-0.132783,2.01549,0.614906
1.21149,0.626984,0.077368,-1.4562,-0.132781,2.0155,0.614906
1.21149,0.626987,0.077373,-1.4562,-0.132781,2.01549,0.614902
1.21149,0.626989,0.077368,-1.4562,-0.13278,2.01549,0.614907
1.21149,0.626989,0.07737,-1.4562,-0.132783,2.01549,0.614905
1.21149,0.626987,0.07737,-1.4562,-0.132781,2.0155,0.614902
1.21149,0.626989,0.077368,-1.4562,-0.132783,2.0155,0.614905
1.21149,0.626987,0.077365,-1.4562,-0.132785,2.0155,0.614907
1.21149,0.626989,0.077362,-1.4562,-0.13278,2.01549,0.614905
1.21149,0.626989,0.077362,-1.4562,-0.132779,2.01549,0.614903
1.21148,0.626987,0.077362,-1.4562,-0.13278,2.01549,0.614911
1.21149,0.626987,0.07736,-1.45621,-0.132782,2.01549,0.614904
1.21148,0.626987,0.07736,-1.4562,-0.132781,2.0155,0.614905
1.21148,0.626991,0.077357,-1.45621,-0.132784,2.0155,0.614906
1.21148,0.626992,0.077356,-1.45621,-0.132784,2.0155,0.614903
1.21149,0.626992,0.077359,-1.45621,-0.13278,2.01549,0.614905
1.21148,0.626991,0.077355,-1.45621,-0.13278,2.01549,0.614904
1.21148,0.626994,0.077359,-1.45621,-0.132779,2.01549,0.614904
1.21148,0.626997,0.077357,-1.45621,-0.132778,2.01549,0.614906
1.21148,0.626997,0.07736,-1.4562,-0.132783,2.0155,0.614903
1.21148,0.626997,0.077352,-1.4562,-0.132781,2.01549,0.614903
1.21147,0.627,0.077357,-1.4562,-0.132779,2.01549,0.614905
1.21147,0.626998,0.077347,-1.4562,-0.13278,2.01549,0.61491
1.21147,0.627004,0.077348,-1.45621,-0.132782,2.01549,0.614906
1.21147,0.627002,0.077354,-1.4562,-0.13278,2.0155,0.614908
1.21147,0.627005,0.077348,-1.4562,-0.132779,2.0155,0.614908
1.21147,0.627002,0.077348,-1.4562,-0.132779,2.01549,0.614902
1.21147,0.62701,0.077346,-1.45621,-0.132782,2.01549,0.614911
1.21147,0.62701,0.077346,-1.45621,-0.132783,2.01549,0.614908
1.21147,0.627007,0.077348,-1.45621,-0.132782,2.0155,0.614903
1.21146,0.627007,0.077345,-1.4562,-0.132781,2.0155,0.614906
1.21147,0.627007,0.077346,-1.4562,-0.13278,2.0155,0.614906
1.21146,0.62701,0.077343,-1.4562,-0.132778,2.0155,0.614906
1.21146,0.627011,0.077343,-1.4562,-0.132778,2.01549,0.614906
1.21147,0.627015,0.077346,-1.45621,-0.132782,2.0155,0.61491
1.21146,0.62702,0.077343,-1.4562,-0.132779,2.01549,0.614907
1.21145,0.627015,0.077343,-1.45621,-0.132779,2.0155,0.61491
1.21146,0.627021,0.077343,-1.45621,-0.132782,2.0155,0.614906
1.21146,0.627015,0.077342,-1.45621,-0.132779,2.0155,0.614902
1.21146,0.627023,0.07734,-1.45621,-0.132782,2.01549,0.614908
1.21145,0.627015,0.077335,-1.45622,-0.132783,2.01549,0.614904
1.21146,0.627021,0.077334,-1.45621,-0.13278,2.01549,0.614902
1.21146,0.627023,0.077339,-1.45622,-0.132779,2.01549,0.614907
1.21145,0.627031,0.077335,-1.45622,-0.132779,2.01549,0.614902
1.21145,0.627028,0.077334,-1.45622,-0.132782,2.01549,0.614906
1.21145,0.627031,0.077334,-1.45622,-0.13278,2.0155,0.614909
1.21145,0.627031,0.077334,-1.45622,-0.132782,2.0155,0.614903
1.21145,0.627031,0.077332,-1.45622,-0.13278,2.0155,0.614908
1.21145,0.627028,0.07733,-1.45622,-0.132779,2.01549,0.614908
1.21145,0.627031,0.077334,-1.45623,-0.132782,2.01549,0.61491
1.21145,0.627036,0.077326,-1.45623,-0.13278,2.01549,0.614909
1.21145,0.627034,0.077328,-1.45623,-0.132779,2.01549,0.614911
1.21146,0.627036,0.077328,-1.45623,-0.132782,2.01549,0.614904
1.21145,0.627034,0.077328,-1.45623,-0.132779,2.01549,0.614907
1.21145,0.627039,0.077323,-1.45623,-0.13278,2.01549,0.614907
1.21144,0.627036,0.077325,-1.45623,-0.132782,2.01549,0.614904
1.21145,0.627041,0.07732,-1.45623,-0.13278,2.01549,0.614907
1.21145,0.627039,0.077322,-1.45624,-0.132784,2.01549,0.614905
1.21144,0.627039,0.07732,-1.45623,-0.13278,2.01549,0.614903
1.21145,0.627044,0.077315,-1.45623,-0.132783,2.01549,0.614909
1.21145,0.627044,0.077314,-1.45623,-0.13278,2.01549,0.614901
1.21145,0.627044,0.077317,-1.45623,-0.132779,2.01549,0.614906
1.21145,0.62704,0.077317,-1.45623,-0.132784,2.01549,0.614905
1.21145,0.627045,0.077314,-1.45623,-0.132784,2.01549,0.614906
1.21145,0.627044,0.077314,-1.45623,-0.132784,2.01549,0.614903
1.21145,0.627044,0.077313,-1.45623,-0.132785,2.01549,0.614907
1.21145,0.627047,0.077308,-1.45624,-0.132785,2.01548,0.614903
1.21145,0.627045,0.077305,-1.45624,-0.132784,2.01549,0.614909
1.21144,0.627047,0.077313,-1.45623,-0.132785,2.01549,0.614909
1.21144,0.627042,0.077313,-1.45623,-0.132781,2.01549,0.614904
1.21144,0.627049,0.077311,-1.45623,-0.132781,2.01548,0.614909
1.21145,0.627045,0.077308,-1.45623,-0.13278,2.01549,0.614904
1.21144,0.627044,0.077305,-1.45623,-0.132784,2.01549,0.614905
1.21144,0.627044,0.077305,-1.45623,-0.132785,2.01549,0.614911
1.21144,0.627045,0.077307,-1.45624,-0.132785,2.01549,0.614906
1.21145,0.627047,0.07731,-1.45623,-0.132782,2.01549,0.614903
1.21144,0.627044,0.077307,-1.45623,-0.132781,2.01549,0.614912
1.21144,0.62704,0.07731,-1.45624,-0.132781,2.01549,0.614907
1.21144,0.627044,0.077307,-1.45623,-0.132784,2.01549,0.614908
1.21144,0.627045,0.077305,-1.45623,-0.132787,2.01549,0.614908
1.21145,0.627047,0.077307,-1.45623,-0.132786,2.01549,0.614908
1.21144,0.627042,0.077307,-1.45623,-0.132783,2.01549,0.614904
1.21144,0.627042,0.077305,-1.45623,-0.132785,2.01549,0.614908
1.21144,0.627037,0.077307,-1.45623,-0.132783,2.01549,0.614901
1.21145,0.627039,0.077305,-1.45623,-0.132785,2.01549,0.614905
1.21144,0.627044,0.077305,-1.45623,-0.132782,2.01549,0.614906
1.21144,0.62704,0.07731,-1.45623,-0.132785,2.01549,0.614901
1.21144,0.627041,0.077303,-1.45623,-0.132786,2.01549,0.614906
1.21144,0.627039,0.077312,-1.45623,-0.132786,2.01549,0.614904
1.21144,0.627039,0.07731,-1.45623,-0.132787,2.01549,0.614901
1.21144,0.627037,0.077303,-1.45623,-0.132783,2.01549,0.614906
1.21144,0.627035,0.077307,-1.45623,-0.132786,2.01549,0.614904
1.21144,0.627031,0.077302,-1.45623,-0.132783,2.01549,0.614901
1.21144,0.627038,0.077307,-1.45623,-0.132786,2.01549,0.614905
1.21144,0.627031,0.077307,-1.45623,-0.132783,2.01549,0.614907
1.21144,0.627032,0.077303,-1.45623,-0.132785,2.01549,0.614908
1.21144,0.627034,0.077299,-1.45623,-0.132784,2.01549,0.614909
1.21144,0.627029,0.077305,-1.45623,-0.132788,2.01549,0.614904
1.21144,0.627037,0.077302,-1.45623,-0.132784,2.01549,0.614903
1.21144,0.627029,0.077304,-1.45623,-0.132782,2.01549,0.614907
1.21144,0.627029,0.077302,-1.45622,-0.132787,2.01549,0.614902
1.21144,0.627027,0.077302,-1.45623,-0.132784,2.01549,0.614908
1.21144,0.627026,0.077299,-1.45623,-0.132787,2.01549,0.614908
1.21144,0.627023,0.077297,-1.45623,-0.132788,2.01549,0.614908
1.21144,0.627023,0.077301,-1.45623,-0.132785,2.01549,0.614904
1.21144,0.627022,0.077304,-1.45623,-0.132784,2.01549,0.614905
1.21144,0.627018,0.077304,-1.45622,-0.132783,2.01549,0.614905
1.21144,0.627021,0.077299,-1.45622,-0.132786,2.01549,0.614905
1.21144,0.627021,0.077299,-1.45622,-0.132788,2.01549,0.614905
1.21144,0.627015,0.077302,-1.45622,-0.132789,2.01549,0.614902
1.21144,0.627017,0.077302,-1.45622,-0.132789,2.01549,0.614908
1.21144,0.627013,0.077302,-1.45622,-0.132785,2.01549,0.614908
1.21144,0.627016,0.077299,-1.45622,-0.132784,2.0155,0.614903
1.21144,0.627011,0.077302,-1.45622,-0.132787,2.01549,0.614906
1.21144,0.627011,0.077299,-1.45622,-0.132785,2.01549,0.614905
1.21144,0.627008,0.0773,-1.45622,-0.132788,2.0155,0.614905
1.21144,0.627005,0.077299,-1.45622,-0.132789,2.0155,0.614908
1.21144,0.627002,0.077299,-1.45622,-0.132789,2.01549,0.614903
1.21144,0.627004,0.077301,-1.45621,-0.132789,2.01549,0.614904
1.21144,0.627006,0.077298,-1.45621,-0.132785,2.0155,0.614911
1.21144,0.627005,0.077301,-1.45621,-0.132784,2.0155,0.614909
1.21144,0.627003,0.077299,-1.45621,-0.132787,2.0155,0.614907
1.21144,0.626997,0.077301,-1.45621,-0.13279,2.0155,0.614908
1.21143,0.626992,0.077299,-1.45621,-0.132785,2.0155,0.614905
1.21143,0.626994,0.077306,-1.45621,-0.132789,2.0155,0.614903
1.21143,0.626992,0.077296,-1.45621,-0.13279,2.0155,0.614909
1.21144,0.626992,0.077305,-1.45621,-0.13279,2.0155,0.61491
1.21144,0.626992,0.077299,-1.4562,-0.132786,2.0155,0.614906
1.21144,0.626987,0.077303,-1.4562,-0.132788,2.0155,0.61491
1.21144,0.626989,0.077299,-1.4562,-0.132789,2.0155,0.614903
1.21144,0.626984,0.077302,-1.4562,-0.13279,2.0155,0.614907
1.21144,0.626984,0.077299,-1.4562,-0.132787,2.0155,0.614904
1.21144,0.626987,0.077294,-1.4562,-0.13279,2.0155,0.614904
1.21144,0.626981,0.077299,-1.4562,-0.132791,2.0155,0.614905
1.21144,0.626979,0.077296,-1.4562,-0.132787,2.0155,0.614909
1.21144,0.626976,0.077301,-1.45619,-0.13279,2.0155,0.614904
1.21144,0.626979,0.077296,-1.4562,-0.13279,2.0155,0.614906
1.21144,0.626976,0.077298,-1.45619,-0.132792,2.0155,0.614906
1.21144,0.626976,0.077302,-1.4562,-0.132791,2.0155,0.614903
1.21144,0.626974,0.077301,-1.45619,-0.132789,2.0155,0.614906
1.21144,0.62697,0.077299,-1.45619,-0.132787,2.0155,0.614906
1.21144,0.626973,0.077299,-1.45619,-0.132791,2.0155,0.614902
1.21144,0.626979,0.077304,-1.4562,-0.132792,2.0155,0.614911
1.21144,0.626973,0.077301,-1.45619,-0.132793,2.0155,0.614907
1.21144,0.626973,0.077298,-1.45619,-0.132791,2.0155,0.614908
1.21144,0.626966,0.077298,-1.4562,-0.132791,2.0155,0.614903
1.21143,0.626968,0.077302,-1.45619,-0.132792,2.0155,0.614902
1.21144,0.62697,0.077299,-1.45619,-0.132789,2.0155,0.614901
1.21144,0.626971,0.077299,-1.45619,-0.132789,2.0155,0.614909
1.21144,0.626962,0.077301,-1.45619,-0.13279,2.0155,0.614907
1.21144,0.626971,0.077301,-1.45619,-0.132791,2.0155,0.614907
1.21144,0.626969,0.077305,-1.45619,-0.132792,2.0155,0.614907
1.21144,0.626963,0.077301,-1.45619,-0.132791,2.0155,0.614904
1.21144,0.626965,0.077301,-1.45619,-0.132791,2.0155,0.614902
1.21144,0.626963,0.077301,-1.45619,-0.132791,2.0155,0.614904
1.21143,0.626968,0.077298,-1.45619,-0.132792,2.0155,0.6149
1.21144,0.626965,0.077304,-1.45619,-0.132793,2.0155,0.614904
1.21144,0.626963,0.077296,-1.45619,-0.13279,2.0155,0.614905
1.21144,0.626963,0.077298,-1.45619,-0.132791,2.0155,0.614903
1.21143,0.626968,0.077298,-1.45619,-0.132791,2.0155,0.614906
1.21144,0.626963,0.077296,-1.45619,-0.132793,2.0155,0.614906
1.21144,0.626963,0.077301,-1.45619,-0.132789,2.0155,0.614904
1.21144,0.626965,0.077296,-1.45619,-0.13279,2.0155,0.614906
1.21144,0.626967,0.077298,-1.45619,-0.132792,2.0155,0.614905
1.21143,0.626969,0.077298,-1.45619,-0.132792,2.0155,0.614902
1.21144,0.626957,0.077301,-1.45619,-0.13279,2.0155,0.614904
1.21144,0.626963,0.077298,-1.45619,-0.132792,2.0155,0.614903
1.21144,0.626965,0.077296,-1.45619,-0.132791,2.0155,0.614904
1.21144,0.626968,0.077298,-1.45619,-0.132791,2.0155,0.614907
1.21144,0.626968,0.077298,-1.45619,-0.132788,2.0155,0.614905
1.21143,0.626968,0.077298,-1.45619,-0.13279,2.0155,0.61491
1.21144,0.626968,0.077298,-1.45619,-0.13279,2.0155,0.614907
1.21144,0.62697,0.077301,-1.45619,-0.13279,2.0155,0.614901
1.21143,0.626973,0.077304,-1.45619,-0.132791,2.0155,0.614901
1.21144,0.62697,0.077301,-1.45619,-0.132791,2.0155,0.614905
1.21144,0.626976,0.077306,-1.45619,-0.13279,2.0155,0.614904
1.21144,0.626972,0.077301,-1.45619,-0.132791,2.0155,0.614903
1.21144,0.626974,0.077301,-1.45619,-0.13279,2.0155,0.614907
1.21143,0.626973,0.077298,-1.45619,-0.132792,2.0155,0.614902
1.21144,0.626978,0.077306,-1.45619,-0.132791,2.0155,0.614905
1.21144,0.626979,0.077301,-1.45619,-0.132791,2.0155,0.614902
1.21144,0.626978,0.077301,-1.45619,-0.13279,2.0155,0.614909
1.21144,0.626978,0.077303,-1.45619,-0.13279,2.0155,0.614904
1.21144,0.626978,0.077304,-1.45619,-0.132791,2.0155,0.614902
1.21143,0.626981,0.077299,-1.45619,-0.132791,2.0155,0.614905
1.21143,0.626981,0.077306,-1.45619,-0.132791,2.0155,0.6149
1.21144,0.626983,0.077301,-1.45619,-0.132792,2.0155,0.614909
1.21144,0.626989,0.077304,-1.4562,-0.132791,2.01551,0.614906
1.21144,0.626988,0.077301,-1.45619,-0.132791,2.0155,0.614907
1.21144,0.626987,0.077298,-1.45619,-0.132792,2.0155,0.614905
1.21144,0.626989,0.077301,-1.4562,-0.132793,2.0155,0.614907
1.21144,0.626989,0.077298,-1.4562,-0.132791,2.0155,0.614904
1.21144,0.626989,0.077306,-1.4562,-0.132792,2.0155,0.614902
1.21144,0.626994,0.077294,-1.45619,-0.132791,2.0155,0.614905
1.21144,0.626989,0.077301,-1.45619,-0.132793,2.0155,0.614902
1.21144,0.626993,0.077304,-1.4562,-0.132792,2.0155,0.614904
1.21143,0.627003,0.077301,-1.4562,-0.132789,2.0155,0.614909
1.21143,0.626997,0.077301,-1.4562,-0.132791,2.0155,0.614901
1.21144,0.626997,0.077296,-1.4562,-0.13279,2.0155,0.614907
1.21144,0.626999,0.077304,-1.4562,-0.132793,2.0155,0.614906
1.21143,0.626997,0.077304,-1.4562,-0.132797,2.0155,0.614903
1.21143,0.627004,0.077298,-1.4562,-0.132794,2.0155,0.614909
1.21144,0.627005,0.077296,-1.4562,-0.132793,2.0155,0.614902
1.21144,0.627005,0.077296,-1.4562,-0.132794,2.0155,0.614903
1.21144,0.627004,0.077301,-1.4562,-0.132794,2.0155,0.614901
1.21144,0.627005,0.077301,-1.4562,-0.132794,2.0155,0.614905
1.21144,0.627005,0.077296,-1.4562,-0.132794,2.0155,0.614901
1.21144,0.627007,0.077294,-1.4562,-0.132791,2.0155,0.614905
1.21144,0.627005,0.077295,-1.4562,-0.132793,2.0155,0.614907
1.21144,0.62701,0.077298,-1.4562,-0.132793,2.0155,0.6149
1.21144,0.627007,0.077293,-1.4562,-0.132798,2.0155,0.614911
1.21143,0.627014,0.077301,-1.4562,-0.132794,2.0155,0.614907
1.21144,0.62701,0.077293,-1.4562,-0.132794,2.01551,0.614901
1.21144,0.627008,0.077293,-1.45621,-0.132791,2.0155,0.614906
1.21144,0.62701,0.077296,-1.45621,-0.132793,2.0155,0.614904
1.21144,0.62701,0.077298,-1.45621,-0.132794,2.01551,0.614906
1.21143,0.62701,0.077301,-1.4562,-0.132794,2.01551,0.614904
1.21144,0.627012,0.077296,-1.4562,-0.132794,2.0155,0.614903
1.21143,0.62701,0.077293,-1.4562,-0.132794,2.01551,0.614903
1.21144,0.627011,0.077298,-1.4562,-0.132794,2.01551,0.61491
1.21143,0.62701,0.077298,-1.4562,-0.132791,2.01551,0.614905
1.21143,0.627012,0.077298,-1.4562,-0.132793,2.01551,0.614907
1.21143,0.627012,0.077293,-1.4562,-0.132794,2.01551,0.61491
1.21144,0.627013,0.077293,-1.4562,-0.132795,2.01551,0.614905
1.21144,0.627015,0.077299,-1.4562,-0.132793,2.01551,0.614907
1.21143,0.627008,0.077295,-1.45621,-0.132797,2.01551,0.614907
1.21143,0.627007,0.077298,-1.4562,-0.132794,2.01551,0.614901
1.21144,0.62701,0.077301,-1.4562,-0.132793,2.01551,0.614909
1.21143,0.627008,0.077296,-1.4562,-0.132793,2.01551,0.614911
1.21144,0.62701,0.07729,-1.4562,-0.132793,2.01551,0.614904
1.21143,0.62701,0.077295,-1.4562,-0.132793,2.01551,0.61491
1.21143,0.627002,0.077293,-1.4562,-0.132791,2.01551,0.614909
1.21143,0.627005,0.077296,-1.4562,-0.132793,2.01551,0.614907
1.21143,0.627002,0.077293,-1.4562,-0.132794,2.01551,0.61491
1.21144,0.627005,0.077295,-1.4562,-0.132793,2.01551,0.614908
1.21144,0.627007,0.077298,-1.4562,-0.132794,2.01551,0.614903
1.21143,0.627005,0.077301,-1.4562,-0.132794,2.01551,0.614905
1.21144,0.627002,0.077301,-1.4562,-0.132794,2.01551,0.614905
1.21143,0.627003,0.077296,-1.4562,-0.132796,2.01551,0.614903
1.21144,0.627001,0.077296,-1.4562,-0.132799,2.01551,0.614909
1.21143,0.627002,0.0773,-1.4562,-0.132798,2.01551,0.614906
1.21143,0.627,0.077295,-1.45619,-0.132794,2.01551,0.614907
1.21144,0.626997,0.077296,-1.45619,-0.132793,2.01552,0.614907
1.21144,0.626997,0.077303,-1.45619,-0.132794,2.01552,0.614903
1.21144,0.626997,0.077295,-1.45619,-0.132792,2.01552,0.614902
1.21144,0.626994,0.077296,-1.45619,-0.132793,2.01552,0.614903
1.21144,0.62699,0.077296,-1.45619,-0.132794,2.01552,0.614904
1.21144,0.626991,0.077293,-1.45619,-0.132794,2.01552,0.614905
1.21144,0.626986,0.077297,-1.45619,-0.132794,2.01552,0.614911
1.21144,0.626984,0.077293,-1.45619,-0.132794,2.01552,0.614908
1.21144,0.626986,0.0773,-1.45619,-0.132795,2.01552,0.614909
1.21143,0.626984,0.077301,-1.45618,-0.132794,2.01552,0.614914
1.21144,0.626984,0.077296,-1.45619,-0.132794,2.01552,0.614907
1.21143,0.626981,0.077304,-1.45618,-0.132794,2.01552,0.614909
1.21143,0.626983,0.077293,-1.45618,-0.132796,2.01552,0.614908
1.21144,0.626981,0.077298,-1.45618,-0.132791,2.01552,0.614904
1.21143,0.626977,0.077298,-1.45618,-0.132793,2.01552,0.614905
1.21144,0.626968,0.077296,-1.45618,-0.132797,2.01552,0.614907
1.21143,0.626968,0.077298,-1.45618,-0.132795,2.01552,0.614906
1.21144,0.626968,0.077296,-1.45618,-0.132798,2.01552,0.614907
1.21144,0.626965,0.077298,-1.45617,-0.132795,2.01552,0.614906
1.21143,0.62697,0.077293,-1.45618,-0.132799,2.01552,0.614902
1.21144,0.626963,0.077293,-1.45617,-0.132795,2.01553,0.614906
1.21144,0.626968,0.077298,-1.45617,-0.132794,2.01553,0.61491
1.21144,0.626963,0.077296,-1.45617,-0.132795,2.01552,0.614904
1.21144,0.62696,0.077293,-1.45617,-0.132796,2.01552,0.614909
1.21144,0.626957,0.077293,-1.45618,-0.132798,2.01553,0.614905
1.21143,0.626955,0.077297,-1.45617,-0.132793,2.01553,0.614905
1.21144,0.626957,0.077299,-1.45617,-0.132793,2.01553,0.614907
1.21144,0.626952,0.077298,-1.45617,-0.132794,2.01553,0.614906
1.21144,0.626952,0.077293,-1.45616,-0.132794,2.01553,0.614902
1.21143,0.626955,0.077293,-1.45617,-0.132794,2.01553,0.614911
1.21144,0.626952,0.077293,-1.45617,-0.132795,2.01553,0.614907
1.21143,0.626949,0.077297,-1.45616,-0.132794,2.01553,0.614904
1.21144,0.626947,0.077299,-1.45616,-0.132795,2.01553,0.614909
1.21143,0.626947,0.077298,-1.45616,-0.132794,2.01553,0.614908
1.21144,0.626949,0.077295,-1.45617,-0.132795,2.01553,0.614906
1.21144,0.626947,0.077296,-1.45616,-0.132794,2.01553,0.614909
1.21144,0.626944,0.077301,-1.45616,-0.132795,2.01553,0.614907
1.21144,0.626947,0.077298,-1.45616,-0.132794,2.01553,0.614904
1.21144,0.626952,0.0773,-1.45617,-0.132795,2.01553,0.61491
1.21144,0.626949,0.077298,-1.45616,-0.132795,2.01553,0.614904
1.21143,0.626944,0.077296,-1.45616,-0.132794,2.01553,0.61491
1.21144,0.626947,0.077296,-1.45617,-0.132794,2.01553,0.614908
1.21144,0.626943,0.077298,-1.45616,-0.132794,2.01553,0.614903
1.21144,0.626947,0.077298,-1.45617,-0.132793,2.01553,0.614909
1.21144,0.626944,0.077299,-1.45616,-0.132797,2.01553,0.61491
1.21143,0.626947,0.0773,-1.45616,-0.132798,2.01553,0.614904
1.21144,0.626944,0.077296,-1.45617,-0.132796,2.01553,0.614904
1.21144,0.626944,0.0773,-1.45617,-0.132795,2.01553,0.614904
1.21144,0.62694,0.077301,-1.45616,-0.132794,2.01553,0.614905
1.21144,0.626947,0.077298,-1.45616,-0.132796,2.01553,0.614908
1.21144,0.626946,0.077301,-1.45617,-0.132794,2.01553,0.614908
1.21144,0.626945,0.0773,-1.45617,-0.132794,2.01553,0.614902
1.21143,0.626946,0.077303,-1.45617,-0.132798,2.01553,0.614905
1.21143,0.626952,0.077299,-1.45617,-0.132796,2.01553,0.614908
1.21144,0.626949,0.0773,-1.45616,-0.132799,2.01553,0.614903
1.21143,0.626949,0.077296,-1.45616,-0.132796,2.01553,0.614908
1.21143,0.62695,0.077301,-1.45617,-0.132795,2.01553,0.614908
1.21143,0.626952,0.0773,-1.45617,-0.132796,2.01553,0.614907
1.21144,0.626957,0.077299,-1.45617,-0.132795,2.01553,0.614913
1.21144,0.626954,0.077303,-1.45617,-0.132794,2.01553,0.614909
1.21144,0.62696,0.077301,-1.45617,-0.132794,2.01553,0.614905
1.21144,0.626962,0.077298,-1.45617,-0.132791,2.01553,0.614908
1.21144,0.62696,0.077303,-1.45617,-0.132794,2.01553,0.614911
1.21144,0.626965,0.077301,-1.45617,-0.132793,2.01553,0.614907
1.21144,0.626963,0.077304,-1.45617,-0.132794,2.01553,0.614911
1.21144,0.626967,0.077304,-1.45617,-0.132797,2.01553,0.614909
1.21144,0.626965,0.077301,-1.45618,-0.132795,2.01553,0.614904
1.21144,0.62697,0.077298,-1.45617,-0.132795,2.01553,0.614906
1.21144,0.626968,0.077304,-1.45617,-0.132794,2.01553,0.614909
1.21144,0.626968,0.077304,-1.45618,-0.132795,2.01553,0.614903
1.21145,0.626975,0.077304,-1.45618,-0.132795,2.01553,0.614906
1.21144,0.626978,0.077301,-1.45618,-0.132796,2.01553,0.614903
1.21144,0.626976,0.077298,-1.45619,-0.132795,2.01553,0.614903
1.21144,0.626981,0.077299,-1.45619,-0.132796,2.01553,0.614906
1.21144,0.626983,0.077298,-1.45619,-0.132796,2.01553,0.614907
1.21145,0.626986,0.0773,-1.45619,-0.132796,2.01553,0.614901
1.21144,0.626989,0.077303,-1.45619,-0.132796,2.01553,0.614905
1.21144,0.626991,0.077302,-1.45619,-0.132796,2.01553,0.614907
1.21145,0.626991,0.077306,-1.45619,-0.132796,2.01553,0.614907
1.21145,0.626997,0.077301,-1.4562,-0.1328,2.01553,0.614909
1.21144,0.626999,0.077304,-1.45619,-0.132797,2.01553,0.614906
1.21145,0.627002,0.077306,-1.4562,-0.132797,2.01553,0.614906
1.21145,0.626999,0.077306,-1.4562,-0.1328,2.01553,0.614907
1.21145,0.626999,0.077302,-1.4562,-0.132801,2.01553,0.614906
1.21145,0.627004,0.077303,-1.4562,-0.132799,2.01553,0.614905
1.21145,0.627002,0.077306,-1.4562,-0.132799,2.01553,0.614907
1.21145,0.62701,0.077306,-1.4562,-0.132799,2.01553,0.614907
1.21145,0.627007,0.077302,-1.4562,-0.132799,2.01553,0.614908
1.21145,0.62701,0.077306,-1.4562,-0.132799,2.01553,0.614907
1.21145,0.627014,0.077306,-1.4562,-0.132798,2.01553,0.614904
1.21145,0.627013,0.077306,-1.4562,-0.1328,2.01553,0.614903
1.21145,0.627018,0.077306,-1.4562,-0.132804,2.01553,0.614907
1.21145,0.62701,0.077304,-1.4562,-0.132801,2.01553,0.614904
1.21145,0.627015,0.077306,-1.4562,-0.132801,2.01552,0.614903
1.21145,0.627015,0.077304,-1.4562,-0.132801,2.01552,0.614906
1.21145,0.627012,0.077306,-1.4562,-0.132805,2.01552,0.614905
1.21145,0.627014,0.077304,-1.4562,-0.1328,2.01553,0.614904
1.21145,0.627015,0.077304,-1.4562,-0.132806,2.01552,0.614906
1.21145,0.627015,0.077304,-1.4562,-0.132806,2.01552,0.614903
1.21145,0.627013,0.077302,-1.4562,-0.132804,2.01553,0.614906
1.21145,0.627015,0.077303,-1.4562,-0.132805,2.01552,0.614904
1.21145,0.627015,0.077298,-1.45621,-0.132806,2.01552,0.614902
1.21145,0.62702,0.077301,-1.45621,-0.132809,2.01552,0.614907
1.21145,0.627021,0.077299,-1.4562,-0.132809,2.01552,0.614906
1.21145,0.627015,0.077295,-1.4562,-0.132813,2.01552,0.61491
1.21145,0.627012,0.077301,-1.4562,-0.132809,2.01552,0.614908
1.21145,0.627014,0.077298,-1.45621,-0.132809,2.01552,0.614906
1.21145,0.627016,0.077294,-1.4562,-0.13281,2.01552,0.614907
1.21145,0.627014,0.077292,-1.45621,-0.132809,2.01552,0.614908
1.21144,0.627015,0.077295,-1.4562,-0.13281,2.01552,0.614904
1.21144,0.62701,0.077293,-1.4562,-0.132814,2.01552,0.614906
1.21144,0.62701,0.077291,-1.4562,-0.132812,2.01552,0.614906
1.21144,0.62701,0.077285,-1.4562,-0.132814,2.01552,0.614901
1.21144,0.627013,0.077288,-1.45621,-0.132816,2.01551,0.614908
1.21144,0.627003,0.077286,-1.45621,-0.132814,2.01551,0.614906
1.21143,0.627005,0.077285,-1.45621,-0.132816,2.01551,0.614901
1.21143,0.627009,0.077277,-1.45621,-0.132816,2.01551,0.614906
1.21143,0.627007,0.077277,-1.4562,-0.132817,2.01551,0.614904
1.21144,0.627,0.077277,-1.45621,-0.132817,2.01551,0.614902
1.21143,0.627,0.07728,-1.4562,-0.132818,2.01551,0.614905
1.21143,0.626999,0.077274,-1.45621,-0.132817,2.01551,0.614901
1.21143,0.626999,0.077269,-1.45621,-0.132819,2.01551,0.614906
1.21143,0.626994,0.077267,-1.45622,-0.132821,2.01551,0.614909
1.21142,0.62699,0.077264,-1.45621,-0.132823,2.0155,0.614905
1.21142,0.626989,0.077266,-1.45622,-0.132823,2.0155,0.614906
1.21142,0.626992,0.077266,-1.45622,-0.132824,2.01551,0.614907
1.21141,0.62699,0.077259,-1.45621,-0.13283,2.01551,0.614903
1.21141,0.626983,0.077256,-1.45621,-0.132827,2.0155,0.614907
1.21142,0.626984,0.077254,-1.45621,-0.132831,2.01551,0.614905
1.21142,0.626977,0.077247,-1.45621,-0.132832,2.0155,0.614902
1.21141,0.626976,0.077247,-1.45621,-0.132829,2.0155,0.614905
1.21141,0.62697,0.077244,-1.45621,-0.132829,2.0155,0.6149
1.21141,0.626963,0.077239,-1.45621,-0.132833,2.0155,0.614906
1.21141,0.626965,0.077238,-1.45622,-0.132836,2.0155,0.614904
1.2114,0.626963,0.077233,-1.45621,-0.132836,2.0155,0.614904
1.2114,0.62696,0.077233,-1.45621,-0.132837,2.0155,0.614906
1.2114,0.626959,0.077229,-1.4562,-0.132838,2.0155,0.614904
1.2114,0.626955,0.077222,-1.45621,-0.132839,2.01549,0.614902
1.2114,0.62695,0.077223,-1.45621,-0.132839,2.01549,0.614898
1.21139,0.62695,0.077215,-1.4562,-0.132842,2.01549,0.614902
1.21139,0.626947,0.07721,-1.4562,-0.132843,2.01549,0.614895
1.21139,0.626942,0.077203,-1.4562,-0.132845,2.01549,0.614898
1.21139,0.626939,0.077205,-1.4562,-0.132849,2.01549,0.614902
1.21138,0.626934,0.077202,-1.4562,-0.132848,2.01549,0.614899
1.21139,0.626934,0.077192,-1.4562,-0.132847,2.01549,0.614901
1.21138,0.626936,0.077185,-1.4562,-0.13285,2.01549,0.614895
1.21138,0.626931,0.077185,-1.4562,-0.13285,2.01549,0.614897
1.21138,0.626931,0.077176,-1.45619,-0.132848,2.01549,0.614895
1.21138,0.626923,0.077167,-1.45619,-0.13285,2.01549,0.614895
1.21138,0.626923,0.077161,-1.45619,-0.132848,2.01549,0.614893
1.21138,0.626921,0.077151,-1.45619,-0.132851,2.01549,0.614897
1.21138,0.626923,0.07715,-1.45619,-0.13285,2.01549,0.614893
1.21138,0.62692,0.077136,-1.45618,-0.132847,2.01549,0.614895
1.21137,0.626916,0.077129,-1.45618,-0.132846,2.01549,0.614895
1.21137,0.626907,0.077119,-1.45618,-0.132846,2.01549,0.614891
1.21137,0.626907,0.077113,-1.45619,-0.132848,2.01549,0.614896
1.21137,0.626907,0.077103,-1.45618,-0.132849,2.01549,0.614893
1.21137,0.626909,0.077099,-1.45618,-0.132849,2.01549,0.614894
1.21137,0.626903,0.077091,-1.45618,-0.132849,2.0155,0.614895
1.21136,0.626899,0.077084,-1.45618,-0.132849,2.01549,0.614892
1.21136,0.626899,0.07708,-1.45617,-0.132851,2.01549,0.614897
1.21136,0.626899,0.07707,-1.45617,-0.132848,2.01549,0.614895
1.21136,0.626897,0.077065,-1.45617,-0.132846,2.01549,0.614894
1.21136,0.626897,0.077059,-1.45617,-0.132848,2.0155,0.614895
1.21135,0.626889,0.077057,-1.45617,-0.132847,2.0155,0.614893
1.21135,0.626889,0.077043,-1.45616,-0.132847,2.0155,0.614893
1.21135,0.626888,0.077043,-1.45617,-0.132848,2.0155,0.614898
1.21135,0.626888,0.077037,-1.45616,-0.132848,2.0155,0.614895
1.21134,0.626884,0.077033,-1.45616,-0.132848,2.0155,0.614898
1.21134,0.626881,0.077032,-1.45616,-0.132847,2.0155,0.614898
1.21134,0.626883,0.077027,-1.45616,-0.132846,2.0155,0.614895
1.21134,0.626878,0.077024,-1.45615,-0.132846,2.01551,0.614898
1.21133,0.626875,0.077027,-1.45615,-0.132844,2.01551,0.614897
1.21133,0.626876,0.077024,-1.45615,-0.132844,2.0155,0.614894
1.21132,0.62687,0.077026,-1.45615,-0.132844,2.01551,0.614897
1.21132,0.626874,0.077019,-1.45615,-0.132847,2.01551,0.614888
1.21132,0.62687,0.077016,-1.45615,-0.132847,2.01551,0.614894
1.21132,0.626865,0.077016,-1.45615,-0.132847,2.01551,0.614892
1.21131,0.626865,0.077012,-1.45614,-0.132844,2.01551,0.614893
1.2113,0.626866,0.077012,-1.45614,-0.132842,2.01551,0.614895
1.2113,0.626869,0.077005,-1.45614,-0.132846,2.01552,0.614897
1.2113,0.626874,0.076991,-1.45613,-0.132845,2.01552,0.614889
1.2113,0.626874,0.076977,-1.45612,-0.132845,2.01552,0.61489
1.21129,0.62687,0.076968,-1.45612,-0.132846,2.01552,0.614891
1.21129,0.62687,0.076944,-1.45612,-0.13285,2.01552,0.614889
1.21129,0.626865,0.076925,-1.45611,-0.132854,2.01552,0.614895
1.21128,0.626853,0.076907,-1.4561,-0.132858,2.01552,0.614891
1.21128,0.626854,0.076892,-1.45609,-0.132858,2.01552,0.614895
1.21128,0.626848,0.076874,-1.45608,-0.132859,2.01552,0.614898
1.21128,0.62685,0.076858,-1.45608,-0.132858,2.01552,0.61489
1.21128,0.626851,0.076841,-1.45606,-0.132855,2.01552,0.614898
1.21128,0.626846,0.076831,-1.45605,-0.132849,2.01551,0.614892
1.21128,0.626842,0.076815,-1.45604,-0.13285,2.01551,0.614895
1.21129,0.626844,0.076803,-1.45603,-0.132851,2.0155,0.614892
1.21129,0.626839,0.076788,-1.45603,-0.132849,2.0155,0.614896
1.21128,0.626836,0.076782,-1.45601,-0.132851,2.0155,0.614892
1.21129,0.626838,0.076773,-1.456,-0.132849,2.0155,0.614899
1.21129,0.626832,0.076763,-1.45599,-0.132852,2.01551,0.614896
1.21128,0.626839,0.076752,-1.45597,-0.132854,2.01551,0.614894
1.21128,0.626836,0.076738,-1.45597,-0.132855,2.01551,0.614896
1.21128,0.626833,0.076735,-1.45595,-0.132857,2.01551,0.614893
1.21128,0.62683,0.076717,-1.45593,-0.132858,2.01552,0.614897
1.21128,0.626832,0.076706,-1.45592,-0.132859,2.01552,0.614892
1.21127,0.62683,0.076696,-1.4559,-0.132858,2.01552,0.614895
1.21127,0.62683,0.076676,-1.45589,-0.132858,2.01552,0.614896
1.21127,0.626829,0.076668,-1.45587,-0.132858,2.01552,0.614891
1.21127,0.626831,0.076656,-1.45584,-0.132857,2.01551,0.614895
1.21127,0.626828,0.076641,-1.45582,-0.132857,2.01552,0.614895
1.21128,0.626823,0.076627,-1.45581,-0.132859,2.01552,0.614896
1.21127,0.626828,0.076617,-1.45579,-0.132856,2.01552,0.614892
1.21127,0.62683,0.076592,-1.45576,-0.132855,2.01551,0.614898
1.21127,0.626827,0.076579,-1.45574,-0.132859,2.01551,0.614892
1.21127,0.62683,0.076562,-1.45572,-0.13286,2.01551,0.6149
1.21128,0.626833,0.076549,-1.4557,-0.132858,2.01552,0.614899
1.21128,0.626833,0.076536,-1.45568,-0.132861,2.01551,0.6149
1.21128,0.626838,0.076522,-1.45566,-0.132856,2.01552,0.6149
1.21128,0.626838,0.076504,-1.45563,-0.132856,2.01552,0.614895
1.21128,0.626841,0.076488,-1.4556,-0.132855,2.01552,0.614896
1.21128,0.626834,0.076477,-1.45558,-0.132854,2.01552,0.614894
1.21128,0.626836,0.076461,-1.45556,-0.132855,2.01552,0.614898
1.21129,0.626836,0.076445,-1.45552,-0.132855,2.01552,0.6149
1.21128,0.62683,0.076431,-1.45551,-0.132857,2.01552,0.614899
1.21129,0.62683,0.076415,-1.45548,-0.132854,2.01552,0.614897
1.21129,0.62683,0.076404,-1.45545,-0.132856,2.01552,0.614899
1.21129,0.62683,0.076391,-1.45542,-0.132855,2.01552,0.614897
1.21129,0.626825,0.07638,-1.45539,-0.132856,2.01551,0.614896
1.21129,0.626827,0.076371,-1.45537,-0.132855,2.01552,0.614898
1.21129,0.626825,0.07636,-1.45534,-0.132854,2.01552,0.614895
1.21129,0.62682,0.076353,-1.45531,-0.132855,2.01552,0.614899
1.21128,0.62682,0.076338,-1.45528,-0.132856,2.01552,0.614901
1.21129,0.626817,0.076331,-1.45525,-0.132856,2.01552,0.614894
1.21128,0.626821,0.076321,-1.45522,-0.132853,2.01552,0.614901
1.21128,0.626819,0.076311,-1.45519,-0.13285,2.01552,0.614899
1.21128,0.626818,0.076303,-1.45515,-0.13285,2.01552,0.614897
1.21128,0.626817,0.076295,-1.45512,-0.132851,2.01552,0.6149
1.21128,0.626819,0.076282,-1.45509,-0.132851,2.01552,0.614895
1.21127,0.626811,0.076274,-1.45505,-0.13285,2.01552,0.614901
1.21128,0.626813,0.076262,-1.45502,-0.132849,2.01552,0.614901
1.21128,0.626816,0.076256,-1.45498,-0.132849,2.01552,0.6149
1.21127,0.62681,0.076243,-1.45495,-0.132849,2.01552,0.614899
1.21127,0.62681,0.076236,-1.45492,-0.13285,2.01552,0.6149
1.21127,0.626804,0.076224,-1.45487,-0.132848,2.01552,0.614896
1.21127,0.626804,0.076219,-1.45484,-0.13285,2.01552,0.614901
1.21126,0.626802,0.076209,-1.4548,-0.132849,2.01552,0.614895
1.21126,0.626799,0.076201,-1.45477,-0.132847,2.01552,0.614897
1.21127,0.626795,0.076189,-1.45473,-0.132846,2.01552,0.614899
1.21127,0.626797,0.07618,-1.45468,-0.132847,2.01552,0.614896
1.21126,0.626792,0.07617,-1.45464,-0.132848,2.01551,0.614902
1.21126,0.626791,0.076158,-1.4546,-0.132849,2.01552,0.614897
1.21126,0.626786,0.076157,-1.45456,-0.13285,2.01552,0.614897
1.21126,0.626791,0.076139,-1.45452,-0.132847,2.01552,0.6149
1.21126,0.626791,0.07613,-1.45447,-0.132849,2.01552,0.614895
1.21126,0.626788,0.076128,-1.45443,-0.132849,2.01552,0.614896
1.21127,0.626785,0.076113,-1.45439,-0.13285,2.01552,0.6149
1.21127,0.626785,0.076107,-1.45434,-0.132849,2.01552,0.614896
1.21127,0.626784,0.076088,-1.4543,-0.13285,2.01552,0.614906
1.21127,0.626781,0.076081,-1.45425,-0.132851,2.01551,0.614902
1.21127,0.626787,0.076071,-1.4542,-0.132849,2.01552,0.6149
1.21126,0.626777,0.076062,-1.45416,-0.132851,2.01551,0.6149
1.21127,0.626781,0.076054,-1.45411,-0.132851,2.01551,0.614897
1.21127,0.626776,0.076045,-1.45406,-0.132849,2.01551,0.6149
1.21126,0.626775,0.076035,-1.45402,-0.132851,2.01551,0.614903
1.21127,0.626776,0.076026,-1.45396,-0.132851,2.01551,0.614902
1.21127,0.626775,0.076019,-1.45391,-0.132849,2.01551,0.6149
1.21127,0.626775,0.076014,-1.45386,-0.132849,2.01551,0.614897
1.21127,0.626772,0.076,-1.4538,-0.132849,2.01551,0.614899
1.21127,0.626769,0.075993,-1.45376,-0.132848,2.01551,0.614898
1.21127,0.626766,0.075984,-1.4537,-0.132851,2.01551,0.614897
1.21127,0.626761,0.075977,-1.45365,-0.132851,2.01551,0.614895
1.21127,0.626763,0.07597,-1.4536,-0.132853,2.01551,0.614899
1.21128,0.626763,0.075963,-1.45354,-0.132852,2.01551,0.614899
1.21128,0.626762,0.075959,-1.45349,-0.132852,2.01551,0.614904
1.21128,0.626757,0.075955,-1.45344,-0.132853,2.01551,0.614898
1.21128,0.626754,0.075949,-1.45338,-0.132849,2.01551,0.614897
1.21128,0.626756,0.075949,-1.45333,-0.132851,2.01551,0.614898
1.21128,0.626753,0.075942,-1.45327,-0.132852,2.01551,0.614898
1.21128,0.626748,0.075936,-1.45321,-0.132854,2.01551,0.614901
1.21128,0.626747,0.075935,-1.45316,-0.132853,2.01551,0.614899
1.21128,0.626747,0.075931,-1.4531,-0.132853,2.0155,0.6149
1.21128,0.626752,0.075925,-1.45305,-0.132853,2.0155,0.6149
1.21128,0.626745,0.075925,-1.45299,-0.132849,2.0155,0.614896
1.21128,0.626745,0.075924,-1.45294,-0.13285,2.0155,0.614897
1.21128,0.626741,0.075922,-1.45288,-0.132848,2.0155,0.614901
1.21128,0.626738,0.075918,-1.45283,-0.13285,2.0155,0.614898
1.21128,0.626734,0.075918,-1.45277,-0.132852,2.0155,0.6149
1.21128,0.626732,0.075915,-1.45272,-0.13285,2.0155,0.614905
1.21128,0.626729,0.075914,-1.45266,-0.132853,2.0155,0.614897
1.21128,0.626728,0.075917,-1.4526,-0.132852,2.0155,0.614902
1.21128,0.626726,0.07591,-1.45254,-0.132853,2.0155,0.614904
1.21128,0.626725,0.075906,-1.45249,-0.132853,2.0155,0.614896
1.21128,0.626722,0.075912,-1.45242,-0.132853,2.0155,0.6149
1.21128,0.626719,0.075911,-1.45236,-0.132853,2.0155,0.614895
1.21128,0.626716,0.075907,-1.4523,-0.132853,2.01549,0.614902
1.21128,0.626713,0.075909,-1.45225,-0.132853,2.01549,0.614901
1.21128,0.626713,0.075905,-1.45218,-0.132853,2.01549,0.614895
